<?xml version="1.0" encoding="UTF-8"?>
<map version="1.10" tiledversion="1.12.1" orientation="orthogonal" renderorder="right-down" width="64" height="64" tilewidth="16" tileheight="16" infinite="0" nextlayerid="5" nextobjectid="186">
 <editorsettings>
  <export target="../../../../assets/map/main/main1.fgm" format="Future Glimpses map (*.fgm)"/>
 </editorsettings>
 <properties>
  <property name="AI_MODE" type="int" propertytype="AI_MODE" value="2"/>
  <property name="ENABLE_BARRACKS" type="bool" value="true"/>
  <property name="ENABLE_BLACKSMITH" type="bool" value="false"/>
  <property name="ENABLE_FARM" type="bool" value="true"/>
  <property name="ENABLE_STABLES" type="bool" value="false"/>
  <property name="ENABLE_TOWER" type="bool" value="false"/>
  <property name="ENABLE_TURRET" type="bool" value="false"/>
  <property name="ENABLE_UPGRADE_ARCHER" type="bool" value="false"/>
  <property name="ENABLE_UPGRADE_KNIGHT" type="bool" value="false"/>
  <property name="ENABLE_UPGRADE_MAGE" type="bool" value="false"/>
  <property name="ENABLE_UPGRADE_SOLDIER" type="bool" value="false"/>
  <property name="MAP_CODE" value=""/>
  <property name="MSG_DESCRIPTION" value="Entrena soldados y extermina el pequeño poblado enemigo."/>
  <property name="MSG_LOSE" value="Has perdido en esta empresa tan sencilla..."/>
  <property name="MSG_TITLE" value="1.Campamento enemigo"/>
  <property name="MSG_WIN" value="Has aniquilado el campamento enemigo."/>
  <property name="PEACE_TIME" type="int" value="600"/>
  <property name="RES_GOLD_COMPUTER" type="int" value="400"/>
  <property name="RES_GOLD_PLAYER" type="int" value="1000"/>
  <property name="RES_WOOD_COMPUTER" type="int" value="300"/>
  <property name="RES_WOOD_PLAYER" type="int" value="500"/>
  <property name="UPGRADED_ARCHER_COMPUTER" type="bool" value="false"/>
  <property name="UPGRADED_ARCHER_PLAYER" type="bool" value="false"/>
  <property name="UPGRADED_KNIGHT_COMPUTER" type="bool" value="false"/>
  <property name="UPGRADED_KNIGHT_PLAYER" type="bool" value="false"/>
  <property name="UPGRADED_MAGE_COMPUTER" type="bool" value="false"/>
  <property name="UPGRADED_MAGE_PLAYER" type="bool" value="false"/>
  <property name="UPGRADED_SOLDIER_COMPUTER" type="bool" value="false"/>
  <property name="UPGRADED_SOLDIER_PLAYER" type="bool" value="false"/>
  <property name="WIN_CODE" value="ZBBTSP9R"/>
 </properties>
 <tileset firstgid="1" source="../../tileset.tsx"/>
 <tileset firstgid="257" source="../../units/units.tsx"/>
 <tileset firstgid="267" source="../../buildings/big_buildings.tsx"/>
 <tileset firstgid="273" source="../../buildings/small_buildings.tsx"/>
 <layer id="1" name="Map" width="64" height="64">
  <data encoding="csv">
129,130,131,132,129,130,131,129,130,129,129,130,131,130,131,132,129,130,131,132,129,130,131,132,129,130,131,132,129,130,131,132,129,130,131,132,129,130,131,132,129,130,131,132,129,130,131,132,129,130,131,132,129,130,131,132,129,130,131,132,129,130,131,132,
129,130,131,132,129,130,131,129,129,129,129,129,130,131,131,132,129,130,131,132,129,130,131,130,130,130,131,129,131,131,129,131,131,129,129,132,132,132,130,132,129,131,132,129,129,131,130,132,130,131,132,131,131,130,131,132,129,130,131,132,129,130,131,132,
129,130,131,132,129,130,131,129,129,129,129,129,130,131,131,132,129,130,131,132,129,130,130,130,130,131,131,131,131,130,131,130,132,132,130,131,129,131,132,129,131,132,129,131,132,130,129,131,131,130,130,130,132,130,131,132,129,130,131,132,129,130,131,132,
129,130,131,132,129,130,131,129,129,129,129,129,130,131,131,132,129,130,131,132,129,130,130,132,130,129,131,130,131,131,130,129,130,130,130,132,132,130,131,131,131,130,132,129,129,130,130,130,131,132,130,130,131,130,131,132,129,130,131,132,129,130,131,132,
129,130,131,132,129,130,131,129,129,129,129,129,130,131,131,132,129,130,131,132,129,130,130,129,131,129,129,131,129,130,131,129,130,132,132,130,131,132,130,130,130,132,131,129,132,131,131,131,130,130,130,129,131,130,131,132,129,130,131,132,129,130,131,132,
129,130,131,132,129,130,131,132,129,130,131,129,130,131,131,132,129,130,131,132,129,129,129,130,131,132,132,131,130,132,129,132,132,132,130,130,131,132,130,130,130,131,132,132,131,131,131,130,129,132,132,130,129,130,131,132,129,130,131,132,129,130,131,132,
129,130,131,132,129,130,131,132,22,23,23,24,129,130,131,132,129,130,131,132,129,129,129,130,132,131,130,132,131,131,131,130,130,129,132,131,131,131,130,132,132,130,130,130,129,132,130,130,130,131,131,130,129,130,131,132,129,130,131,132,129,130,131,132,
129,130,131,132,153,154,155,156,9,10,11,12,23,23,23,23,24,130,131,132,129,129,130,131,130,129,131,131,131,131,130,130,130,129,131,129,130,130,129,129,130,131,131,132,131,169,170,170,170,170,170,170,170,170,170,170,170,170,170,170,170,171,131,132,
129,130,131,132,153,154,155,156,9,10,11,12,9,10,11,12,40,130,131,132,129,129,131,131,129,130,131,130,131,129,130,129,131,131,130,130,131,131,131,131,129,132,131,131,130,172,177,177,178,177,180,180,180,180,177,179,179,177,177,179,178,173,131,132,
129,130,131,132,153,154,155,156,9,10,11,12,9,10,11,12,40,130,131,132,129,130,169,170,170,170,170,170,171,130,129,131,131,130,131,130,130,131,129,129,131,130,129,129,130,172,180,180,177,177,180,178,179,177,179,180,177,179,180,177,177,173,131,132,
129,130,131,132,153,154,155,156,9,10,11,12,9,10,11,12,40,130,131,1,4,132,172,177,177,177,179,178,173,131,130,130,131,130,129,131,130,130,130,129,131,131,129,131,129,172,180,177,177,179,178,180,178,179,178,180,179,178,177,180,178,173,131,132,
129,130,131,22,9,10,11,12,9,10,11,12,9,10,11,12,9,24,2,2,4,4,172,177,177,180,178,177,173,129,130,129,130,132,129,130,130,129,130,131,130,132,131,130,132,172,180,178,177,180,179,177,180,178,177,178,180,177,180,178,177,173,131,132,
129,130,131,38,9,10,11,12,9,10,11,12,9,10,11,12,9,40,4,2,4,1,172,177,179,180,177,178,173,130,131,130,130,131,129,130,131,130,131,131,130,129,131,131,131,172,179,178,178,180,179,177,178,177,178,178,179,177,177,178,180,173,131,132,
129,130,131,38,9,10,11,12,9,10,11,12,9,10,11,12,9,56,1,1,4,1,172,178,179,180,179,179,173,129,131,130,130,130,132,131,129,132,131,129,130,131,132,129,131,172,177,180,179,180,180,179,177,180,179,179,177,177,179,178,177,173,131,132,
129,130,131,54,9,10,11,12,9,10,11,12,9,10,11,12,9,130,131,1,1,132,174,175,175,175,175,175,176,129,132,131,130,130,132,132,131,131,132,131,131,130,132,129,132,172,179,180,179,180,178,180,177,179,178,179,177,179,180,179,180,173,131,132,
129,130,131,132,38,10,11,12,9,10,11,12,9,10,11,12,9,130,131,132,129,130,130,131,131,131,130,130,132,130,129,132,131,131,130,131,131,130,130,132,129,130,131,131,131,172,177,179,177,177,180,177,179,179,178,177,177,177,180,178,177,173,131,132,
129,130,131,132,38,10,11,12,9,10,11,12,9,10,11,12,9,130,131,132,129,130,132,131,129,130,132,131,130,131,132,130,130,132,132,131,131,131,130,131,132,130,129,130,131,172,177,180,179,180,179,180,180,179,179,178,177,179,180,177,178,173,131,132,
129,130,131,132,54,55,55,12,9,10,11,12,9,10,11,12,56,130,131,132,129,130,131,130,130,132,131,130,129,131,132,129,130,132,132,131,131,129,131,131,130,129,129,130,131,172,180,177,178,180,177,180,180,178,177,180,178,179,180,179,179,173,131,132,
129,130,131,132,129,130,131,132,54,55,55,55,56,130,131,132,129,130,131,132,129,130,131,132,1,3,1,3,129,130,131,132,129,130,131,132,129,130,131,132,129,130,131,132,129,174,175,175,175,175,175,175,175,175,175,175,175,175,175,175,175,176,131,132,
129,130,131,132,129,130,131,132,1,3,4,3,4,130,131,132,129,130,131,132,129,130,131,132,22,23,23,24,129,130,131,132,129,130,131,132,129,130,131,132,129,130,131,132,129,130,131,132,129,130,131,132,129,130,131,132,129,130,131,132,129,130,131,132,
129,130,131,132,129,130,131,132,2,4,1,2,1,130,131,132,129,130,131,132,22,23,23,23,10,11,10,11,23,23,23,23,24,130,131,132,129,130,129,131,131,130,131,132,130,131,130,132,132,131,130,130,132,129,129,131,129,130,131,132,129,130,131,132,
129,130,131,132,129,130,131,132,4,1,2,2,1,130,131,132,129,130,131,132,38,153,154,155,156,9,10,9,153,154,155,156,40,130,131,132,129,130,131,131,132,131,131,130,130,130,131,131,130,129,131,129,131,130,131,131,129,130,131,132,129,130,131,132,
129,130,131,132,129,130,131,132,3,4,1,3,4,130,131,132,129,130,131,132,38,9,12,12,10,11,10,9,11,10,12,11,40,130,131,132,129,130,130,132,130,131,130,130,129,132,131,130,132,131,131,132,131,131,131,131,129,130,131,132,129,130,131,132,
129,130,131,132,129,130,131,132,4,1,4,2,1,130,131,132,129,130,131,132,38,9,12,10,12,12,11,9,10,11,10,10,40,130,131,132,129,130,4,3,130,131,131,131,130,129,132,132,131,130,131,130,129,130,132,131,129,130,131,132,129,130,131,132,
129,130,131,131,129,131,130,130,3,2,3,1,3,1,1,4,4,4,4,22,12,10,10,12,12,10,9,9,10,11,12,12,12,24,3,2,3,2,4,1,1,131,130,130,131,130,131,131,131,132,130,131,129,130,132,130,129,130,131,132,129,130,131,132,
170,170,170,170,171,129,132,131,4,2,1,2,2,3,4,2,1,1,1,38,12,12,12,10,10,10,12,12,10,12,9,12,9,40,4,1,2,2,4,1,4,4,131,132,131,132,131,132,130,131,129,132,129,131,130,130,129,130,131,132,129,130,131,132,
177,177,179,178,173,131,129,130,2,1,4,1,2,4,1,2,3,4,2,38,12,10,9,11,12,10,9,10,9,10,12,9,10,56,2,1,1,4,3,1,1,1,130,131,131,129,130,130,130,131,131,132,130,130,129,131,129,130,131,132,129,130,131,132,
177,180,178,177,173,131,129,132,1,2,1,1,4,2,2,1,2,3,1,54,9,12,12,9,9,12,10,9,10,10,12,9,10,130,131,1,2,3,4,2,1,131,131,131,131,130,131,130,130,130,129,130,130,130,130,130,129,130,131,132,129,130,131,132,
179,180,177,178,173,131,131,130,3,2,3,2,3,1,131,132,129,130,131,132,38,10,12,12,12,12,11,10,10,12,10,9,11,130,131,2,4,4,4,1,3,131,131,131,132,132,131,130,130,132,131,132,129,132,131,130,129,130,131,132,129,130,131,132,
179,180,179,179,173,130,132,130,2,1,2,2,3,130,131,132,129,130,131,132,38,153,154,155,156,12,12,9,153,154,155,156,9,130,131,132,4,3,3,3,3,132,130,131,131,129,132,131,129,129,131,130,130,131,131,131,129,130,131,132,129,130,131,132,
175,175,175,175,176,130,130,129,1,2,4,4,1,130,131,132,129,130,131,132,54,55,55,11,12,11,11,9,11,10,10,9,56,130,131,132,2,1,1,2,4,3,131,130,130,131,130,129,130,132,131,129,131,131,130,131,129,130,131,132,129,130,131,132,
129,130,131,132,131,131,129,129,1,4,4,1,2,130,131,132,129,130,131,132,129,130,131,132,54,55,55,55,56,130,131,132,129,130,131,132,3,3,1,4,4,4,131,131,130,130,132,130,129,129,129,132,132,130,130,132,129,130,131,132,129,130,131,132,
129,130,131,131,131,129,131,130,1,3,2,2,3,130,131,132,129,130,131,132,129,130,131,132,4,1,4,1,4,130,131,132,129,130,131,132,129,2,3,3,4,3,1,129,132,129,129,130,169,170,170,170,170,170,171,131,129,130,131,132,129,130,131,132,
129,130,131,130,131,131,131,131,3,1,4,4,3,130,131,169,170,170,170,170,170,171,131,132,2,3,2,1,3,130,131,132,129,130,131,132,129,3,1,2,2,2,3,130,129,130,131,130,172,177,177,177,179,178,173,130,129,130,131,132,129,130,131,132,
129,130,131,132,131,131,132,130,2,2,4,2,1,130,131,172,177,177,177,179,178,173,131,132,1,1,3,1,1,130,132,131,130,130,130,129,129,131,4,3,3,1,4,131,132,129,131,131,172,177,177,180,178,177,173,131,129,130,131,132,129,130,131,132,
129,130,131,130,131,129,131,132,1,3,4,2,2,130,131,172,177,177,180,178,177,173,131,130,2,1,3,4,2,129,130,132,131,131,131,131,129,129,2,3,1,3,1,2,131,131,129,131,172,177,179,180,177,178,173,130,129,130,131,132,129,130,131,132,
129,130,131,130,132,130,129,131,3,4,1,1,4,130,131,172,177,179,180,177,178,173,131,130,3,1,4,1,1,132,129,132,131,131,131,130,130,129,4,4,2,4,2,1,131,130,131,132,172,178,179,180,179,179,173,130,129,130,131,132,129,130,131,132,
129,130,131,130,132,129,129,131,1,2,3,3,1,2,131,172,178,179,180,179,179,173,129,130,3,2,2,3,3,130,129,132,130,132,131,131,132,131,130,2,1,4,4,2,2,132,129,131,174,175,175,175,175,175,176,129,129,130,131,132,129,130,131,132,
129,130,131,130,130,132,129,130,3,1,3,1,2,3,131,174,175,175,175,175,175,176,132,129,2,1,4,1,1,131,129,130,130,131,131,130,130,130,132,3,4,2,2,2,4,132,132,129,131,132,129,130,131,130,131,131,129,130,131,132,129,130,131,132,
129,130,131,130,132,132,131,130,129,4,3,3,3,1,131,132,129,130,131,132,131,130,129,130,1,2,1,4,2,130,130,169,170,170,170,170,170,171,129,130,1,3,3,1,4,132,132,132,132,129,132,132,129,130,131,132,129,130,131,132,129,130,131,132,
129,130,131,130,130,129,130,129,129,3,1,2,3,2,131,132,129,130,131,132,132,130,129,129,4,1,2,4,3,130,130,172,177,177,177,179,178,173,131,130,2,2,4,1,3,131,129,131,132,131,131,132,129,130,131,132,129,130,131,132,129,130,131,132,
129,130,131,131,130,130,130,130,129,1,2,2,3,2,131,132,129,130,131,132,131,131,132,130,3,1,3,1,1,129,131,172,177,177,180,178,177,173,130,131,3,4,2,1,3,1,130,131,132,131,129,132,129,130,131,132,129,130,131,132,129,130,131,132,
129,130,131,131,130,130,129,131,129,3,3,1,1,2,131,132,129,130,131,132,130,130,131,129,4,4,2,1,3,131,131,172,177,179,180,177,178,173,129,131,4,4,2,3,3,3,130,131,131,131,132,132,129,130,131,132,129,130,131,132,129,130,131,132,
129,130,131,131,132,132,131,130,129,2,4,2,2,3,131,132,129,130,131,132,130,129,129,130,1,3,4,3,1,1,131,172,178,179,180,179,179,173,132,129,130,4,1,1,3,4,131,131,129,130,132,132,129,130,131,132,129,130,131,132,129,130,131,132,
129,130,131,131,131,130,132,130,129,1,2,1,2,2,131,132,129,130,131,132,131,131,131,131,3,4,3,4,3,4,131,174,175,175,175,175,175,176,131,131,132,2,1,1,2,4,4,130,131,130,129,132,129,130,131,132,129,130,131,132,129,130,131,132,
170,170,170,170,171,131,132,132,129,1,2,3,2,2,131,132,129,130,131,132,132,131,132,129,129,4,1,3,4,1,131,130,130,132,131,130,130,130,129,131,130,2,2,4,1,3,4,130,130,132,130,132,129,130,131,132,129,130,131,132,129,130,131,132,
177,177,179,178,173,131,129,129,129,2,2,4,3,4,131,132,129,130,131,132,130,130,131,131,131,3,1,1,4,2,130,129,130,129,130,131,130,131,132,130,129,129,2,1,2,2,1,130,130,130,130,132,129,130,131,132,129,130,131,132,129,130,131,132,
177,180,178,177,173,130,131,131,129,4,2,4,2,1,131,132,129,130,131,132,129,132,131,130,130,3,3,3,4,3,130,130,131,132,129,130,132,132,132,129,130,131,132,2,3,4,1,129,130,131,132,129,130,130,131,132,129,130,131,132,129,130,131,132,
179,180,177,178,173,129,131,132,129,2,4,2,1,3,131,132,129,130,131,132,129,131,130,129,132,1,4,3,2,1,132,131,130,131,132,130,132,131,132,129,130,131,132,22,23,23,24,129,130,131,132,129,130,130,131,132,129,130,131,132,129,130,131,132,
179,180,179,179,173,132,131,132,129,4,1,1,4,3,2,132,129,130,131,132,129,132,131,132,132,4,4,1,2,2,130,131,131,131,131,132,129,129,132,22,23,23,23,10,11,10,11,23,23,23,23,24,145,146,147,148,129,130,131,132,129,130,131,132,
175,175,175,175,176,130,131,131,129,4,1,1,3,1,3,132,129,130,131,132,129,132,129,129,129,1,3,3,2,4,129,132,130,131,131,130,130,129,132,38,12,9,9,10,9,10,9,12,9,9,9,40,145,146,147,148,129,130,131,132,129,130,131,132,
129,132,129,130,132,132,129,132,129,2,2,2,3,3,3,3,4,130,130,129,130,131,132,130,130,3,3,1,3,3,132,131,129,131,129,132,132,131,132,38,9,12,12,10,11,10,9,11,10,12,11,40,145,146,147,148,129,130,131,132,129,130,131,132,
129,130,130,131,129,131,132,130,129,130,4,3,1,3,4,4,4,3,3,1,131,131,129,130,3,1,3,2,3,3,129,130,132,131,132,131,131,130,132,38,9,12,10,12,12,11,9,10,11,10,10,40,145,146,147,148,129,130,131,132,129,130,131,132,
129,131,129,129,131,130,131,131,131,132,4,2,2,2,1,1,1,2,3,3,2,1,1,3,1,2,4,1,3,4,1,130,130,129,130,132,131,130,22,12,10,10,12,12,10,9,9,10,11,12,12,12,24,130,131,132,129,130,131,132,129,130,131,132,
129,130,132,130,132,130,130,130,129,130,132,131,3,1,4,1,4,1,1,1,3,3,1,3,1,2,2,3,1,1,1,1,2,1,3,3,1,2,38,12,12,12,10,10,10,12,12,10,12,9,12,9,40,130,131,132,129,130,131,132,129,130,131,132,
129,130,131,129,130,130,131,132,130,132,131,131,131,130,131,2,3,4,4,4,2,2,2,1,4,2,4,2,4,3,1,1,4,3,4,3,2,3,38,12,10,9,11,12,10,9,10,9,10,12,9,10,56,130,131,132,129,130,131,132,129,130,131,132,
129,130,132,132,129,130,132,131,130,132,131,130,130,130,131,131,130,130,129,4,2,3,4,2,2,3,4,4,3,3,3,2,4,2,4,4,4,1,54,9,12,12,9,9,12,10,9,10,10,12,9,10,130,130,131,132,129,130,131,132,129,130,131,132,
129,132,169,170,170,170,170,170,171,129,131,132,131,130,130,132,132,130,129,131,131,131,131,132,129,130,131,132,129,130,131,132,129,130,131,132,129,130,132,38,10,12,12,12,12,11,10,10,12,10,9,11,130,130,131,169,170,170,170,170,170,171,131,132,
129,131,172,177,177,177,179,178,173,130,132,130,132,131,131,132,130,132,131,131,130,130,131,132,129,130,131,132,129,130,131,132,129,130,131,132,129,130,132,38,12,12,10,11,12,12,9,11,9,12,10,9,130,130,131,172,177,177,177,179,178,173,131,132,
129,131,172,177,177,180,178,177,173,129,131,131,129,132,129,132,130,130,132,130,129,129,131,132,129,130,131,132,129,130,131,132,129,130,131,132,129,130,132,54,55,55,11,12,11,11,9,11,10,10,9,56,130,130,131,172,177,177,180,178,177,173,131,132,
129,132,172,177,179,180,177,178,173,131,131,131,131,131,132,129,129,131,130,130,131,130,131,132,129,130,131,132,129,130,131,132,129,130,131,132,129,130,132,129,130,131,132,54,55,55,55,56,130,131,132,129,130,130,131,172,177,179,180,177,178,173,131,132,
129,130,172,178,179,180,179,179,173,129,132,129,132,130,132,129,130,131,131,132,130,130,131,132,169,170,170,170,170,170,171,132,129,130,131,132,129,130,131,132,129,130,131,132,129,130,131,132,129,130,131,132,129,130,131,172,178,179,180,179,179,173,131,132,
129,130,174,175,175,175,175,175,176,130,131,132,129,130,131,132,129,130,131,132,129,130,131,132,172,177,177,177,179,178,173,132,129,130,131,132,129,130,131,132,129,130,131,132,129,130,131,132,129,130,131,132,129,130,131,174,175,175,175,175,175,176,131,132,
129,130,131,132,129,130,131,132,129,130,131,132,129,130,131,132,129,130,131,132,129,130,131,132,172,177,177,180,178,177,173,132,129,130,131,132,129,130,131,132,129,130,131,132,129,130,131,132,129,130,131,132,129,130,131,132,129,130,131,132,129,130,131,132
</data>
 </layer>
 <objectgroup id="2" name="Units/Buildings">
  <object id="168" template="../../buildings/P_City_Hall.tx" x="160" y="224"/>
  <object id="169" template="../../units/P_Worker.tx" x="96" y="224"/>
  <object id="170" template="../../units/P_Worker.tx" x="112" y="224"/>
  <object id="171" template="../../units/P_Worker.tx" x="128" y="224"/>
  <object id="172" template="../../units/P_Worker.tx" x="112" y="240"/>
  <object id="173" template="../../buildings/C_City_Hall.tx" x="720" y="864"/>
  <object id="174" template="../../buildings/C_Barracks.tx" x="640" y="944"/>
  <object id="175" template="../../buildings/C_Farm.tx" x="768" y="960"/>
  <object id="176" template="../../buildings/C_Farm.tx" x="800" y="960"/>
  <object id="177" template="../../buildings/C_Farm.tx" x="800" y="928"/>
  <object id="179" template="../../units/C_Soldier.tx" x="608" y="880"/>
  <object id="181" template="../../units/C_Soldier.tx" x="608" y="912"/>
  <object id="182" template="../../units/C_Soldier.tx" x="688" y="784"/>
  <object id="183" template="../../units/C_Soldier.tx" x="736" y="784"/>
  <object id="184" template="../../buildings/P_Farm.tx" x="240" y="144"/>
  <object id="185" template="../../buildings/P_Farm.tx" x="208" y="144"/>
 </objectgroup>
</map>
