<?xml version="1.0" encoding="UTF-8"?>
<map version="1.10" tiledversion="1.12.1" orientation="orthogonal" renderorder="right-down" width="64" height="64" tilewidth="16" tileheight="16" infinite="0" nextlayerid="5" nextobjectid="209">
 <editorsettings>
  <export target="../../../../assets/map/main/main2.fgm" format="Future Glimpses map (*.fgm)"/>
 </editorsettings>
 <properties>
  <property name="AI_MODE" type="int" propertytype="AI_MODE" value="2"/>
  <property name="ENABLE_BARRACKS" type="bool" value="true"/>
  <property name="ENABLE_BLACKSMITH" type="bool" value="true"/>
  <property name="ENABLE_FARM" type="bool" value="true"/>
  <property name="ENABLE_STABLES" type="bool" value="false"/>
  <property name="ENABLE_TOWER" type="bool" value="false"/>
  <property name="ENABLE_TURRET" type="bool" value="true"/>
  <property name="ENABLE_UPGRADE_ARCHER" type="bool" value="false"/>
  <property name="ENABLE_UPGRADE_KNIGHT" type="bool" value="false"/>
  <property name="ENABLE_UPGRADE_MAGE" type="bool" value="false"/>
  <property name="ENABLE_UPGRADE_SOLDIER" type="bool" value="false"/>
  <property name="MAP_CODE" value="ZBBTSP9R"/>
  <property name="MSG_DESCRIPTION" value="Entrena un ejército y elimina al poblado del oeste. Ahora puedes crear una herrería y entrenar arqueros y construir torretas."/>
  <property name="MSG_LOSE" value="No has logrado recuperar tu imperio..."/>
  <property name="MSG_TITLE" value="2.Herrería"/>
  <property name="MSG_WIN" value="Tras tu conquista debes elegir, ¿irás por el camino del norte o por el del sur?"/>
  <property name="PEACE_TIME" type="int" value="600"/>
  <property name="RES_GOLD_COMPUTER" type="int" value="1000"/>
  <property name="RES_GOLD_PLAYER" type="int" value="1000"/>
  <property name="RES_WOOD_COMPUTER" type="int" value="500"/>
  <property name="RES_WOOD_PLAYER" type="int" value="500"/>
  <property name="UPGRADED_ARCHER_COMPUTER" type="bool" value="false"/>
  <property name="UPGRADED_ARCHER_PLAYER" type="bool" value="false"/>
  <property name="UPGRADED_KNIGHT_COMPUTER" type="bool" value="false"/>
  <property name="UPGRADED_KNIGHT_PLAYER" type="bool" value="false"/>
  <property name="UPGRADED_MAGE_COMPUTER" type="bool" value="false"/>
  <property name="UPGRADED_MAGE_PLAYER" type="bool" value="false"/>
  <property name="UPGRADED_SOLDIER_COMPUTER" type="bool" value="false"/>
  <property name="UPGRADED_SOLDIER_PLAYER" type="bool" value="false"/>
  <property name="WIN_CODE" value="7BJKSFUH"/>
 </properties>
 <tileset firstgid="1" source="../../tileset.tsx"/>
 <tileset firstgid="257" source="../../units/units.tsx"/>
 <tileset firstgid="267" source="../../buildings/big_buildings.tsx"/>
 <tileset firstgid="273" source="../../buildings/small_buildings.tsx"/>
 <layer id="1" name="Map" width="64" height="64">
  <data encoding="csv">
139,139,138,139,140,139,138,139,137,138,140,137,138,139,139,138,140,140,137,137,137,140,140,140,140,138,139,137,140,137,138,137,140,138,137,139,138,138,139,137,137,140,139,137,137,139,137,137,138,137,138,140,138,140,140,138,137,138,140,137,140,137,140,137,
139,138,140,139,140,137,138,138,140,137,138,137,139,139,138,140,139,140,139,139,138,137,140,139,139,139,139,140,139,137,137,139,139,139,138,137,137,139,138,137,137,139,137,139,140,139,137,140,140,139,137,138,139,139,140,138,140,139,139,137,138,138,139,139,
140,139,139,137,137,137,138,137,140,139,137,137,139,140,137,138,138,137,138,138,138,137,140,140,138,138,138,140,138,137,139,140,140,140,139,138,140,139,137,137,137,140,137,138,138,17,18,18,18,18,18,18,18,18,18,18,18,18,18,19,138,138,137,138,
138,137,140,138,139,140,138,138,137,138,137,137,138,137,139,138,137,139,140,139,137,139,137,139,139,138,138,139,137,138,138,137,138,137,139,137,139,138,139,139,140,139,137,137,17,6,6,7,6,5,8,149,150,151,152,6,7,7,6,5,19,137,138,138,
140,137,139,140,138,137,140,139,137,139,138,138,139,137,139,139,137,140,137,138,139,138,139,140,138,138,138,138,137,139,140,139,138,137,137,137,140,137,140,140,138,138,139,17,7,5,6,6,7,7,8,149,150,151,152,6,5,6,8,5,8,19,140,140,
139,139,139,138,139,138,139,137,139,140,140,139,139,140,137,137,139,139,139,138,138,138,138,139,140,139,139,139,140,137,139,137,138,140,139,137,137,139,139,140,140,137,137,33,8,6,8,5,6,8,5,149,150,151,152,5,8,6,5,7,7,35,139,137,
138,139,139,140,137,138,137,55,55,55,55,55,55,55,55,55,55,55,55,55,55,55,55,55,55,55,55,55,55,55,55,55,55,55,55,55,55,55,55,55,55,55,56,33,6,8,6,8,5,8,8,149,150,151,152,7,8,7,5,5,6,35,138,138,
138,137,139,138,140,140,40,2,1,3,3,1,3,1,3,2,3,1,2,3,3,3,2,2,2,2,3,1,1,3,2,2,1,2,2,1,1,2,2,2,3,1,1,5,5,5,5,8,8,7,7,5,5,5,7,7,7,6,5,5,5,35,139,140,
137,140,139,137,138,138,40,3,2,1,1,1,1,1,2,1,1,3,3,3,2,3,3,3,1,2,3,3,1,2,3,3,1,2,1,3,3,3,3,3,3,1,2,33,6,7,8,5,5,7,7,7,5,6,8,6,6,6,8,7,6,35,140,139,
138,138,139,138,138,138,40,3,1,2,3,1,3,1,2,1,3,1,1,2,3,1,3,2,1,1,2,1,3,3,2,1,1,1,2,1,3,1,3,2,2,3,3,33,7,5,5,7,7,5,8,5,5,5,6,5,7,7,5,6,8,35,138,138,
138,137,139,138,140,139,40,2,2,3,2,3,3,1,2,1,2,3,2,2,3,3,3,3,3,2,3,3,1,2,1,2,2,3,3,2,3,2,3,2,3,3,3,33,6,5,7,7,6,7,8,5,5,7,5,5,6,8,8,6,6,35,140,139,
137,140,137,137,139,138,40,3,3,2,1,3,3,1,1,1,1,2,3,2,3,2,3,1,1,3,2,3,3,3,1,3,3,1,2,1,2,3,3,3,2,2,2,33,6,8,6,7,6,8,8,8,7,6,5,6,6,7,8,5,6,35,140,140,
138,139,138,137,140,137,138,23,23,24,2,3,1,3,22,23,23,23,23,23,23,23,23,23,23,23,23,23,23,24,3,1,1,2,1,3,22,23,23,23,23,23,24,33,5,6,8,6,5,6,8,5,5,6,7,7,7,6,6,5,6,35,139,138,
137,138,139,140,139,137,138,138,137,40,2,3,3,2,38,138,140,140,139,140,138,137,140,138,138,139,140,138,139,40,2,3,1,2,1,2,38,137,137,137,139,139,138,33,8,7,5,5,7,7,5,6,6,8,8,8,8,6,6,6,7,35,140,139,
138,137,139,139,137,138,139,137,139,40,2,2,3,1,38,139,140,137,140,140,140,138,139,137,137,137,137,139,139,40,2,3,3,2,3,3,38,139,137,138,137,140,137,33,8,5,7,8,5,6,6,8,5,7,5,7,6,7,5,8,7,35,140,140,
138,140,139,137,140,139,140,139,139,40,1,2,2,1,38,140,140,140,140,139,138,140,139,138,138,137,140,138,137,40,3,2,2,2,3,2,38,138,137,139,137,140,137,139,49,7,7,8,8,8,6,8,6,8,8,5,5,7,6,7,51,138,140,139,
137,137,138,139,137,139,137,140,138,40,2,2,3,2,38,139,139,138,138,169,170,170,170,170,171,139,139,139,140,40,1,3,3,1,2,1,38,137,140,138,140,140,139,138,140,49,50,50,50,50,50,50,50,50,50,50,50,50,50,51,137,139,139,137,
140,139,138,139,140,137,138,137,139,40,2,2,1,2,38,138,138,139,138,165,178,178,177,180,173,139,138,137,137,40,1,2,3,1,2,1,38,139,138,138,137,137,139,138,139,138,139,140,138,138,139,137,137,139,137,140,140,138,137,138,137,140,138,139,
138,140,139,139,140,138,139,137,139,40,2,1,3,3,38,139,139,140,140,165,179,178,180,180,173,138,137,138,139,40,1,3,3,1,3,3,38,138,139,138,140,137,140,140,139,139,137,140,137,140,137,139,137,137,140,138,137,139,139,140,138,140,139,138,
137,140,138,137,137,138,139,139,138,40,3,1,1,2,38,138,137,139,140,165,177,178,177,177,173,137,139,138,138,40,2,1,1,3,1,1,38,140,139,139,137,138,138,137,140,138,137,138,138,138,139,139,137,137,140,137,137,139,137,137,139,140,140,137,
138,139,139,139,139,138,140,138,139,40,2,2,3,1,38,138,140,139,139,165,177,177,178,178,173,139,140,139,138,40,2,3,1,2,1,3,38,139,139,139,137,138,140,137,137,137,138,139,139,137,137,138,137,138,138,137,138,139,137,140,138,137,137,139,
138,140,139,137,140,139,139,137,139,40,2,2,1,2,38,137,140,138,139,174,175,175,175,175,176,138,137,138,137,40,3,1,1,3,3,1,38,137,139,140,139,138,139,137,140,140,140,138,137,138,137,137,137,138,137,139,137,140,140,140,139,137,137,139,
137,138,137,139,138,140,140,137,138,40,3,3,3,1,38,138,139,140,138,140,138,139,137,140,137,138,139,139,138,40,3,3,1,1,2,3,38,138,138,137,138,138,140,140,139,137,138,138,137,137,137,139,138,138,138,138,138,137,137,137,137,138,139,140,
137,139,138,138,139,140,138,138,138,40,1,3,3,1,38,137,138,140,138,139,139,138,140,138,139,140,137,138,139,40,2,1,2,1,2,1,38,138,137,139,137,138,140,137,139,139,137,140,137,140,140,137,139,137,140,140,140,138,139,139,137,137,137,137,
139,140,137,137,140,140,140,138,140,40,2,3,3,2,38,140,138,139,138,139,138,139,137,137,140,138,139,138,138,40,1,1,3,1,3,2,38,138,139,139,139,140,138,138,137,140,138,140,140,139,139,138,137,139,138,137,140,138,140,140,139,139,137,138,
137,139,137,137,140,9,55,55,55,56,1,3,1,3,54,55,55,55,55,55,55,55,55,55,55,55,55,55,55,56,1,1,1,3,2,1,54,55,55,55,55,55,55,55,55,55,55,55,55,55,55,55,10,139,137,137,137,139,139,139,138,139,138,140,
139,138,140,9,139,40,2,3,2,2,2,2,1,3,3,3,3,1,3,3,3,2,2,1,3,2,3,1,2,3,2,3,3,2,1,3,2,2,2,1,1,3,1,3,3,2,1,3,2,1,3,2,38,137,140,139,140,138,140,140,138,139,137,139,
137,140,9,9,9,40,3,1,2,2,3,3,2,3,2,3,2,1,2,3,2,2,3,3,1,3,3,1,2,1,3,2,2,1,3,1,1,1,3,3,1,2,3,2,1,3,1,1,2,2,3,2,38,137,139,137,140,138,139,137,139,139,139,140,
140,138,9,9,9,40,3,2,1,1,2,2,2,3,2,1,2,3,3,3,1,1,3,2,3,3,3,2,1,2,2,2,3,3,1,1,3,3,2,2,2,1,3,1,1,3,2,3,3,1,2,2,38,140,137,140,138,140,140,139,138,139,138,137,
137,139,9,9,9,40,2,3,1,3,3,1,3,3,3,1,3,2,2,2,1,2,1,1,1,2,2,2,2,3,2,2,3,3,3,2,3,1,1,1,2,3,3,1,1,3,3,1,3,1,2,1,38,139,139,138,139,138,140,140,138,139,140,138,
140,138,139,9,138,40,2,3,1,2,3,2,3,1,1,1,2,2,1,2,3,2,2,3,3,2,3,1,2,3,3,1,1,3,1,1,1,2,2,1,1,2,2,3,3,2,3,2,1,2,3,3,38,137,137,139,139,139,138,140,139,138,137,137,
138,139,137,140,137,9,23,23,23,24,2,2,3,3,22,23,23,23,23,23,23,23,23,23,23,23,23,23,23,24,2,3,1,2,2,3,22,23,23,23,23,23,23,23,24,2,22,23,23,23,23,23,10,137,139,140,137,139,140,137,140,140,137,139,
137,137,140,140,140,140,137,140,137,40,1,3,3,3,38,137,138,138,137,137,137,139,140,140,138,138,137,137,140,40,2,2,1,1,3,3,38,138,137,138,139,138,138,139,40,3,38,140,137,138,139,140,138,138,137,138,137,137,139,139,140,137,138,138,
138,139,138,137,138,140,139,140,137,40,2,2,2,2,38,138,139,138,138,138,137,139,140,139,140,140,140,140,139,40,1,2,3,3,2,1,38,140,139,138,140,138,138,138,40,3,54,9,138,138,138,137,137,137,138,138,137,137,138,139,138,139,137,138,
140,139,137,139,140,139,139,139,140,40,2,3,3,3,38,137,138,137,139,140,139,137,137,139,140,138,140,140,138,40,2,1,1,1,2,3,38,139,140,137,138,139,137,138,40,2,2,54,55,140,138,138,139,139,137,140,137,140,140,140,137,138,138,139,
140,140,137,137,139,137,138,137,139,40,1,2,1,1,38,140,137,139,139,138,137,137,140,140,137,139,137,140,140,40,2,2,1,3,3,2,38,138,138,139,137,139,139,138,40,1,2,2,3,54,138,137,139,139,140,140,139,139,138,140,139,140,138,138,
137,137,138,137,137,140,140,139,140,40,3,3,1,3,38,137,137,140,137,140,137,137,138,139,137,138,140,138,139,40,1,1,2,1,2,2,38,137,138,139,140,139,139,140,139,24,1,2,1,1,54,137,137,139,138,139,140,140,140,139,138,139,139,138,
139,138,139,137,139,140,137,137,140,9,23,23,23,23,9,137,138,140,140,140,138,137,138,137,139,138,137,137,137,40,3,1,2,2,3,1,38,140,140,138,140,139,140,140,137,138,24,2,2,1,3,54,137,139,137,140,137,140,137,137,138,137,137,138,
140,140,139,139,137,137,139,138,138,139,139,9,9,137,138,138,139,138,140,139,139,138,138,137,138,137,138,140,138,40,2,2,1,1,3,3,38,138,137,139,137,138,137,140,140,139,140,24,2,3,2,1,54,137,140,138,137,140,137,137,137,137,138,137,
138,138,137,140,139,140,140,139,139,137,9,9,9,9,138,137,140,138,138,138,140,138,137,140,140,140,139,138,138,40,3,1,3,3,3,2,38,139,138,138,137,139,138,138,140,139,140,137,24,3,2,1,1,54,137,137,140,138,138,138,139,138,140,139,
139,140,139,140,139,139,137,140,138,137,9,9,9,9,140,140,137,139,139,137,140,140,138,137,137,138,137,138,137,40,2,1,2,1,2,1,38,140,138,139,140,137,140,137,138,138,139,138,140,24,2,3,1,3,54,138,140,137,140,140,138,139,137,139,
138,139,140,137,140,140,138,137,137,138,140,9,9,140,140,139,140,140,139,140,140,139,139,139,137,139,140,138,138,40,3,1,1,1,2,2,38,138,138,138,140,138,139,138,137,137,140,140,138,140,24,1,3,2,2,54,140,140,139,138,138,138,138,139,
140,139,139,139,139,137,137,140,140,138,140,9,9,139,139,140,138,140,138,140,140,139,139,140,138,138,140,137,138,40,1,2,1,2,3,1,38,139,140,139,137,140,138,140,137,139,139,137,138,139,139,24,1,1,3,3,38,139,138,139,137,139,137,137,
140,138,138,137,140,138,137,138,137,138,139,9,9,137,137,137,139,139,138,140,140,139,140,137,137,140,140,139,140,40,2,1,3,3,3,1,38,139,138,140,138,138,140,139,137,139,139,137,140,139,137,137,24,1,1,1,38,139,137,137,138,139,139,137,
138,138,138,140,138,140,140,140,138,138,137,9,9,138,137,137,137,139,139,139,138,137,138,139,139,138,139,140,139,40,2,1,1,3,1,3,38,140,137,138,140,139,138,138,140,138,137,139,137,140,139,139,139,2,3,3,38,138,138,139,138,137,139,140,
140,137,137,139,137,139,139,138,140,140,139,9,9,140,138,140,140,138,138,139,140,139,140,137,139,138,140,139,139,40,3,2,2,1,2,1,38,137,139,137,137,138,138,140,139,140,139,140,139,139,139,138,56,1,1,3,38,140,139,138,137,138,140,137,
138,137,140,137,139,140,139,139,139,138,140,55,55,139,139,139,138,139,137,139,140,137,139,138,139,138,140,138,140,40,2,2,3,2,3,2,38,138,137,138,139,137,137,137,140,140,140,138,140,138,55,56,2,3,1,22,139,140,138,137,139,139,138,139,
137,138,138,17,18,18,18,18,18,18,18,18,18,18,18,18,18,19,138,138,138,138,139,139,140,140,137,137,139,40,1,2,3,1,3,3,38,137,139,137,140,140,138,137,139,139,140,139,139,56,2,3,1,1,3,38,137,140,137,138,137,138,137,140,
140,137,17,6,6,7,6,5,8,7,7,6,7,6,7,7,6,5,19,137,138,138,138,140,139,137,139,138,137,40,1,3,3,2,2,2,38,138,140,139,140,139,138,140,138,137,137,138,56,3,2,3,1,1,22,138,139,138,139,139,138,140,140,139,
140,17,7,5,6,6,7,7,8,5,7,5,5,6,5,6,8,5,8,19,139,137,137,139,137,140,140,137,137,40,3,2,1,2,2,2,38,139,140,138,137,139,140,139,137,139,55,56,1,2,3,1,22,23,140,139,137,140,137,138,137,138,137,139,
140,33,8,6,8,5,6,8,5,6,5,5,8,5,8,6,5,7,7,35,140,137,140,138,138,137,139,137,138,40,1,1,2,2,2,1,38,140,140,138,140,140,140,137,138,56,1,3,3,1,3,22,137,139,140,137,138,137,138,140,137,138,138,137,
140,33,149,150,151,152,5,8,8,8,7,6,6,7,8,7,5,5,6,35,140,137,138,139,138,138,138,138,139,40,1,3,1,1,2,2,38,138,138,137,140,138,139,55,56,3,2,2,2,2,22,140,140,138,140,137,137,137,138,140,138,138,140,138,
139,33,149,150,151,152,8,7,7,5,5,5,7,7,7,6,5,5,5,35,54,55,55,55,55,55,55,55,55,56,3,3,2,2,3,3,38,139,139,138,138,138,56,3,1,3,1,1,22,23,139,139,140,139,140,139,140,138,139,138,140,139,140,140,
137,33,149,150,151,152,5,7,7,7,5,6,8,6,6,6,8,7,6,35,2,2,3,2,1,1,3,3,1,1,3,3,1,3,2,3,38,138,138,138,56,1,3,2,1,1,3,22,139,137,140,140,140,138,138,137,137,137,139,137,140,139,137,140,
138,33,149,150,151,152,7,5,8,5,5,5,6,5,7,7,5,6,8,35,2,1,1,1,1,2,1,2,2,1,3,3,2,3,1,1,54,55,55,56,1,1,1,3,3,22,23,139,139,138,137,139,137,137,137,140,139,140,137,139,137,137,139,140,
140,33,6,5,7,7,6,7,8,5,5,7,5,5,6,8,8,6,6,35,3,3,1,2,1,3,1,1,1,1,3,3,3,2,3,2,2,1,2,1,3,3,1,3,22,138,138,140,138,137,139,139,138,139,137,138,140,139,139,140,137,137,139,139,
138,33,6,8,6,7,6,8,8,8,7,6,5,6,6,7,8,5,6,35,1,3,3,3,1,2,1,1,3,3,2,2,2,3,1,2,1,2,3,3,2,1,22,23,137,138,137,139,139,140,137,138,139,138,138,139,139,139,140,138,139,137,140,140,
140,33,5,6,8,6,5,6,8,5,5,6,7,7,7,6,6,5,6,35,1,2,3,1,3,3,3,3,2,3,3,2,2,3,3,2,1,22,23,23,23,23,140,138,137,140,138,137,140,139,140,138,139,137,140,137,137,139,137,140,140,138,138,140,
139,33,8,7,5,5,7,7,5,6,6,8,8,8,8,6,6,6,7,35,22,23,23,23,23,23,23,23,23,23,23,23,23,23,23,23,23,137,138,137,138,138,137,137,137,139,139,139,139,139,138,137,138,137,139,138,140,139,139,139,140,140,139,137,
140,33,8,5,7,8,5,6,6,8,5,7,5,7,6,7,5,8,7,35,140,140,137,140,138,139,137,140,138,139,138,140,140,140,139,139,139,139,138,138,138,140,138,137,137,140,139,138,138,140,138,138,137,137,140,138,139,138,139,140,139,139,137,140,
137,139,49,7,7,8,8,8,6,8,6,8,8,5,5,7,6,7,51,138,138,140,137,140,140,138,137,139,137,139,138,140,139,138,138,138,137,139,139,139,139,138,140,139,138,139,140,137,139,138,139,139,139,140,138,138,140,137,138,138,139,138,137,139,
139,138,140,49,50,50,50,50,50,50,50,50,50,50,50,50,50,51,137,139,137,140,139,138,139,140,139,140,138,137,137,140,139,138,139,140,140,140,137,137,139,139,138,137,140,140,139,137,139,139,140,139,140,138,140,137,138,138,138,139,137,137,139,139,
137,139,140,140,138,139,139,140,137,138,140,139,137,139,140,137,140,140,137,138,139,140,140,137,140,137,139,140,140,137,137,138,138,139,139,137,140,139,140,139,140,137,140,137,137,140,139,140,140,137,137,137,139,140,137,139,138,138,138,140,139,139,139,138,
138,138,139,137,138,137,138,137,137,139,139,140,138,137,137,137,137,139,137,139,140,140,138,138,139,137,139,139,140,140,137,138,140,139,140,139,139,138,140,137,138,138,140,138,140,138,139,138,138,137,140,137,138,137,138,138,139,140,137,138,137,138,139,140
</data>
 </layer>
 <objectgroup id="2" name="Units/Buildings">
  <object id="187" template="../../buildings/P_City_Hall.tx" x="832" y="208"/>
  <object id="188" template="../../buildings/C_City_Hall.tx" x="192" y="912"/>
  <object id="189" template="../../buildings/C_Farm.tx" x="48" y="784"/>
  <object id="190" template="../../buildings/C_Farm.tx" x="80" y="784"/>
  <object id="191" template="../../buildings/C_Farm.tx" x="112" y="784"/>
  <object id="192" template="../../buildings/C_Farm.tx" x="48" y="992"/>
  <object id="193" template="../../buildings/C_Farm.tx" x="80" y="992"/>
  <object id="195" template="../../buildings/C_Barracks.tx" x="208" y="800"/>
  <object id="196" template="../../buildings/C_Blacksmith.tx" x="256" y="784"/>
  <object id="197" template="../../units/P_Worker.tx" x="800" y="144"/>
  <object id="198" template="../../units/P_Worker.tx" x="832" y="144"/>
  <object id="199" template="../../units/P_Worker.tx" x="864" y="144"/>
  <object id="200" template="../../units/P_Worker.tx" x="896" y="144"/>
  <object id="201" template="../../buildings/P_Farm.tx" x="752" y="272"/>
  <object id="202" template="../../buildings/P_Farm.tx" x="784" y="272"/>
  <object id="205" template="../../units/C_Soldier.tx" x="176" y="752"/>
  <object id="206" template="../../units/C_Soldier.tx" x="192" y="752"/>
  <object id="207" template="../../units/C_Soldier.tx" x="320" y="848"/>
  <object id="208" template="../../units/C_Soldier.tx" x="320" y="928"/>
 </objectgroup>
</map>
