<?xml version="1.0" encoding="UTF-8"?>
<map version="1.10" tiledversion="1.12.1" orientation="orthogonal" renderorder="right-down" width="64" height="64" tilewidth="16" tileheight="16" infinite="0" nextlayerid="5" nextobjectid="217">
 <editorsettings>
  <export target="../../../../assets/map/initial/init3.fgm" format="Future Glimpses map (*.fgm)"/>
 </editorsettings>
 <properties>
  <property name="AI_MODE" type="int" propertytype="AI_MODE" value="0"/>
  <property name="ENABLE_BARRACKS" type="bool" value="true"/>
  <property name="ENABLE_BLACKSMITH" type="bool" value="true"/>
  <property name="ENABLE_FARM" type="bool" value="true"/>
  <property name="ENABLE_STABLES" type="bool" value="true"/>
  <property name="ENABLE_TOWER" type="bool" value="false"/>
  <property name="ENABLE_TURRET" type="bool" value="false"/>
  <property name="ENABLE_UPGRADE_ARCHER" type="bool" value="false"/>
  <property name="ENABLE_UPGRADE_KNIGHT" type="bool" value="false"/>
  <property name="ENABLE_UPGRADE_MAGE" type="bool" value="false"/>
  <property name="ENABLE_UPGRADE_SOLDIER" type="bool" value="false"/>
  <property name="MAP_CODE" value="P3C2DCEJ"/>
  <property name="MSG_DESCRIPTION" value="Crea unos establos para crear caballeros en los cuarteles y llega al final del camino rápidamente para asesinar al caballero real."/>
  <property name="MSG_LOSE" value="No has logrado recuperar tu imperio..."/>
  <property name="MSG_TITLE" value="3.Caballeros"/>
  <property name="MSG_WIN" value="Ya dominas a tus caballeros."/>
  <property name="PEACE_TIME" type="int" value="0"/>
  <property name="RES_GOLD_COMPUTER" type="int" value="0"/>
  <property name="RES_GOLD_PLAYER" type="int" value="1000"/>
  <property name="RES_WOOD_COMPUTER" type="int" value="0"/>
  <property name="RES_WOOD_PLAYER" type="int" value="500"/>
  <property name="UPGRADED_ARCHER_COMPUTER" type="bool" value="false"/>
  <property name="UPGRADED_ARCHER_PLAYER" type="bool" value="false"/>
  <property name="UPGRADED_KNIGHT_COMPUTER" type="bool" value="false"/>
  <property name="UPGRADED_KNIGHT_PLAYER" type="bool" value="false"/>
  <property name="UPGRADED_MAGE_COMPUTER" type="bool" value="false"/>
  <property name="UPGRADED_MAGE_PLAYER" type="bool" value="false"/>
  <property name="UPGRADED_SOLDIER_COMPUTER" type="bool" value="false"/>
  <property name="UPGRADED_SOLDIER_PLAYER" type="bool" value="false"/>
  <property name="WIN_CODE" value="4ZXG4SK3"/>
 </properties>
 <tileset firstgid="1" source="../../tileset.tsx"/>
 <tileset firstgid="257" source="../../units/units.tsx"/>
 <tileset firstgid="267" source="../../buildings/big_buildings.tsx"/>
 <tileset firstgid="273" source="../../buildings/small_buildings.tsx"/>
 <layer id="1" name="Map" width="64" height="64">
  <data encoding="csv">
129,130,131,132,129,130,131,132,129,130,131,132,129,130,130,130,130,131,130,130,130,131,132,130,130,130,130,131,132,129,130,131,195,195,195,195,195,195,195,195,195,195,195,195,195,130,131,129,129,130,131,132,129,130,130,132,129,130,131,132,129,130,131,132,
129,130,131,132,129,130,131,132,129,130,131,132,130,130,130,131,132,130,130,130,130,130,130,130,131,132,130,131,132,130,130,130,130,130,131,132,129,130,131,130,131,132,129,130,131,130,131,129,129,130,131,132,129,130,130,132,129,130,131,132,129,130,131,132,
129,130,131,132,129,130,131,132,129,130,130,130,130,131,132,129,130,130,130,130,130,130,130,131,132,129,130,131,132,130,130,130,130,130,131,132,129,130,131,131,131,132,129,130,131,130,131,129,129,130,131,132,129,130,130,132,129,130,131,132,129,130,131,132,
129,130,131,132,129,130,131,132,129,130,130,130,130,131,132,129,130,130,130,130,130,130,131,132,129,130,130,131,132,130,131,132,130,130,131,132,129,130,131,131,131,129,130,131,131,131,132,129,129,130,131,132,129,130,130,132,129,130,131,132,129,130,131,132,
129,130,131,132,129,130,131,132,129,130,130,131,132,129,130,130,130,131,130,131,132,129,130,131,132,129,130,131,132,129,130,130,130,131,132,129,130,131,131,131,131,131,131,131,131,131,131,131,129,130,131,132,129,130,130,132,129,130,131,132,129,130,131,132,
129,130,131,132,129,130,131,132,129,130,130,131,132,129,130,130,131,130,130,131,132,129,130,131,132,130,131,132,129,130,130,130,130,131,132,129,130,131,131,129,130,131,131,131,131,131,131,131,131,130,131,132,129,130,130,132,129,130,131,132,129,130,131,132,
129,130,131,132,129,130,131,132,129,130,130,131,132,129,130,130,131,130,131,132,129,130,131,132,130,131,132,129,130,130,130,130,131,132,129,130,131,131,131,132,129,130,130,131,132,129,130,131,131,130,131,132,129,130,130,132,129,130,131,132,129,130,131,132,
129,130,131,132,129,130,131,132,129,130,130,131,132,129,130,130,130,130,131,132,129,130,131,132,129,130,131,130,130,130,131,132,129,130,131,131,131,131,131,132,129,130,131,130,131,132,129,130,131,130,131,132,129,130,130,132,129,130,131,132,129,130,131,132,
129,130,131,132,129,130,131,132,129,130,131,130,131,132,130,130,130,131,132,129,130,130,131,132,129,130,131,130,131,130,131,132,129,130,131,131,131,130,131,132,129,130,130,130,131,132,129,130,131,130,131,132,129,130,130,132,129,130,131,132,129,130,131,132,
129,130,131,132,129,130,131,132,129,130,131,130,131,132,130,131,132,129,130,131,130,130,130,131,132,129,130,131,132,130,131,132,129,130,131,131,129,130,131,132,129,130,130,130,131,132,129,130,131,130,131,132,129,130,130,132,129,130,131,132,129,130,131,132,
129,130,131,132,129,130,131,132,129,130,131,130,131,130,130,131,132,129,130,131,130,131,130,131,132,130,131,132,129,130,131,132,129,130,131,131,130,130,131,132,130,130,130,131,132,129,130,131,129,130,131,132,129,130,130,132,129,130,131,132,129,130,131,132,
129,130,131,132,129,130,131,132,129,130,131,130,131,130,130,131,132,129,130,131,130,131,130,131,132,130,130,131,132,130,131,132,129,130,131,130,131,130,131,130,130,130,131,132,129,130,131,129,129,130,131,132,129,130,130,132,129,130,131,132,129,130,131,132,
129,130,131,132,129,130,131,132,129,130,131,130,131,137,137,137,138,139,140,131,130,131,130,131,132,130,130,131,130,131,132,129,130,131,131,131,132,130,130,130,130,131,132,129,130,131,131,129,129,130,131,132,129,130,130,132,129,130,131,132,129,130,131,132,
129,130,131,137,138,139,140,132,129,130,131,137,137,138,139,137,138,139,140,130,130,130,131,132,129,130,130,130,130,131,132,129,130,131,131,131,131,131,130,131,132,129,130,131,130,131,131,130,131,132,129,130,131,130,130,132,129,130,131,132,129,130,131,132,
129,130,131,137,138,139,140,140,129,137,137,138,139,140,130,137,138,139,140,130,131,130,131,132,130,130,130,130,131,132,129,130,131,131,130,131,131,129,130,131,131,131,131,131,131,131,130,130,131,132,129,130,131,130,130,132,129,130,131,132,129,130,131,132,
129,130,131,132,137,138,137,137,137,138,139,140,130,131,130,137,138,139,140,130,130,131,132,129,130,131,130,131,132,129,130,131,131,132,129,130,131,131,131,131,131,131,131,131,130,130,130,130,131,132,129,130,131,130,130,132,129,130,131,132,129,130,131,132,
129,130,131,132,137,137,137,138,139,140,131,132,130,131,137,138,139,140,140,130,131,132,129,130,130,131,130,131,132,129,130,131,131,132,129,130,131,131,131,131,131,130,130,130,130,130,131,130,131,132,129,130,130,130,130,131,132,129,130,131,130,130,131,132,
129,130,131,132,137,138,139,140,138,139,140,132,137,137,138,139,140,140,130,130,131,132,129,130,131,132,130,131,132,129,130,131,129,130,130,130,130,130,130,130,130,130,130,130,130,130,131,132,129,130,130,130,130,130,130,131,132,129,130,131,130,130,131,132,
129,130,131,137,138,139,140,137,137,138,137,138,139,140,137,138,139,140,140,140,140,129,130,130,131,132,130,131,132,129,130,131,130,130,130,130,130,130,130,130,130,131,132,130,130,130,131,132,129,130,130,131,130,130,130,131,132,129,130,131,130,130,131,132,
129,130,137,138,139,140,131,132,137,137,137,137,137,137,137,137,137,137,137,138,139,140,130,131,132,129,130,130,131,132,129,130,130,130,130,130,131,132,129,130,131,131,131,130,130,130,131,132,130,130,130,131,130,130,130,131,130,130,130,131,132,129,130,131,
129,130,137,138,139,140,140,140,129,130,137,137,137,138,139,140,130,130,130,131,132,130,130,131,12,129,130,130,131,132,130,130,130,130,130,130,131,132,12,130,131,131,131,12,130,130,131,132,130,130,131,130,130,130,130,131,130,130,130,131,132,129,130,131,
129,130,131,132,137,138,139,140,140,130,131,137,138,139,140,140,140,140,130,130,130,130,130,131,132,129,130,131,131,131,131,131,131,131,131,130,130,130,131,132,129,130,131,130,130,130,131,132,130,131,130,131,130,130,130,131,130,130,130,131,132,129,130,131,
130,131,132,129,130,137,138,139,140,140,140,140,140,195,195,195,195,195,195,195,195,195,195,195,195,195,195,195,195,195,195,195,195,195,195,195,195,195,195,195,195,195,195,195,130,130,130,131,130,131,130,131,130,130,130,131,130,130,130,131,132,129,130,131,
130,131,132,129,130,131,131,131,131,131,131,131,131,195,196,196,196,196,196,196,196,196,196,196,196,196,196,196,196,196,196,196,196,196,196,196,196,196,196,196,196,196,196,195,130,130,131,132,130,131,130,131,130,130,130,131,130,130,130,131,132,129,130,131,
130,131,132,129,130,131,132,195,195,195,195,195,131,195,2,2,2,2,22,11,12,9,10,11,9,10,11,12,9,10,11,12,9,42,2,3,4,1,2,3,4,4,2,195,130,130,130,132,130,131,130,131,130,130,130,130,130,130,130,131,132,129,130,131,
130,131,132,195,195,195,195,195,196,196,196,196,195,195,2,2,2,2,38,11,12,12,12,12,12,12,12,12,12,12,12,12,12,42,3,3,3,3,3,3,3,3,3,195,130,130,131,132,130,131,130,131,130,130,130,130,130,130,130,131,132,129,130,131,
129,130,131,195,196,196,196,196,22,23,23,24,196,196,2,2,2,22,9,9,10,195,205,205,205,205,205,205,205,205,205,205,205,205,205,205,205,205,205,205,205,195,4,195,130,130,130,130,130,131,130,131,130,130,130,130,130,130,130,131,132,129,130,131,
129,130,131,195,22,23,23,23,9,10,11,12,23,23,24,2,22,12,9,10,11,195,196,196,196,196,196,196,196,196,196,196,196,196,196,196,196,196,196,196,196,195,4,195,130,130,130,130,130,131,130,131,130,130,130,130,130,130,131,132,129,130,131,130,
129,130,131,195,38,153,154,155,156,10,11,12,9,10,40,2,54,12,9,10,11,195,130,131,12,129,130,131,132,129,130,130,130,130,130,129,129,129,12,129,129,195,4,195,129,130,130,130,130,131,130,131,130,130,130,130,131,130,131,132,129,130,131,130,
129,130,131,195,38,153,154,155,156,10,11,12,9,10,40,2,2,38,12,9,10,195,130,131,132,129,130,131,132,129,130,131,132,129,129,129,129,129,129,129,129,195,4,195,129,12,129,130,130,131,130,130,130,130,131,130,131,130,131,132,129,130,131,130,
131,132,129,195,38,10,11,12,9,10,11,12,9,10,40,2,2,54,12,9,10,195,130,131,132,129,130,131,132,129,130,131,132,129,129,129,129,129,129,129,129,195,4,195,129,129,129,129,129,129,129,130,130,130,131,130,131,130,131,132,129,130,131,130,
131,132,129,195,38,10,11,12,9,10,11,12,9,10,40,2,2,2,57,195,195,195,140,140,130,131,132,129,130,131,132,132,132,129,129,129,129,129,129,129,129,195,4,195,129,129,129,129,129,129,129,130,130,130,130,130,131,130,131,132,129,130,131,130,
131,132,129,195,38,10,11,12,9,10,11,12,9,10,40,2,2,22,195,195,196,196,139,140,131,132,129,130,131,132,129,130,131,132,132,129,130,130,132,129,129,195,4,195,129,130,132,129,130,130,132,130,130,130,130,131,130,131,132,129,130,131,130,132,
138,139,140,195,38,10,11,12,9,10,11,12,9,10,11,42,41,11,196,196,138,139,140,130,131,132,129,130,131,132,129,130,131,132,132,129,130,130,132,130,129,195,4,195,132,129,130,132,129,130,130,130,130,130,130,131,130,131,132,129,130,131,130,132,
138,139,140,195,38,10,11,12,9,10,11,12,9,10,9,24,22,11,137,137,138,139,140,130,131,132,129,130,132,129,130,130,132,129,132,129,130,130,132,129,195,196,4,195,131,132,129,130,132,129,130,130,130,130,131,130,131,132,129,130,131,130,131,132,
138,139,140,195,38,10,11,12,9,9,10,11,12,10,9,9,9,12,137,138,139,140,129,130,131,132,129,130,132,129,130,130,132,129,131,132,132,129,130,195,196,4,4,195,131,132,129,130,132,129,130,130,130,130,131,130,131,132,129,130,131,130,131,132,
138,139,140,196,38,10,11,12,9,9,10,11,12,10,9,9,9,137,137,138,139,140,129,130,131,132,129,130,132,129,130,130,132,129,131,132,132,129,195,195,4,4,195,196,130,132,129,130,130,132,129,130,130,130,131,130,131,132,129,130,131,130,131,132,
138,139,140,130,38,10,11,12,9,9,10,11,9,9,9,9,137,137,138,139,140,129,129,130,131,132,129,130,132,129,130,130,132,129,132,131,132,129,195,196,4,4,196,129,130,132,129,130,130,132,129,129,129,130,130,132,129,130,131,132,129,130,131,132,
131,132,129,130,54,55,55,55,9,9,10,11,9,9,9,137,137,138,139,140,129,129,129,130,131,132,129,130,132,129,130,130,132,129,130,131,132,195,196,4,4,195,130,131,12,129,130,132,129,130,130,132,129,130,130,132,129,130,131,132,129,130,131,132,
131,132,129,130,129,129,130,131,54,55,55,55,55,9,137,137,138,139,140,129,129,129,130,131,132,129,130,132,129,130,130,130,129,129,130,131,132,195,4,4,195,196,130,131,132,129,130,132,129,130,130,132,129,130,130,132,129,130,131,132,129,130,131,132,
131,132,129,130,129,129,130,131,132,129,130,131,132,54,137,138,139,140,129,129,130,131,132,129,130,132,129,130,130,132,129,130,132,129,130,131,132,195,4,195,196,129,130,131,132,129,130,132,129,130,130,132,129,130,130,132,129,130,131,132,129,130,131,132,
131,132,129,130,129,129,130,131,132,129,130,131,130,130,130,129,129,129,129,130,131,132,129,130,132,129,130,130,132,129,132,131,132,129,12,131,132,195,4,195,132,129,130,131,132,129,130,132,129,130,130,132,129,130,130,132,129,130,131,132,129,130,131,132,
130,131,132,129,130,130,131,132,129,130,130,130,130,130,130,129,129,129,130,131,132,129,130,132,129,130,130,132,129,132,132,131,132,129,130,131,132,195,4,195,132,129,130,131,132,129,130,132,129,130,130,132,129,130,130,132,129,130,131,132,129,130,131,132,
130,131,132,129,130,130,131,132,129,130,130,130,130,130,130,129,129,129,130,131,132,129,130,132,129,130,130,132,129,131,132,131,132,129,130,131,132,195,4,195,132,129,130,131,132,129,130,132,129,130,130,132,129,130,130,132,129,130,131,132,129,130,131,132,
130,131,132,129,130,130,131,132,129,130,130,130,130,130,130,129,130,131,132,129,130,132,129,130,130,132,129,131,132,129,130,131,132,129,130,131,132,195,4,195,132,129,130,131,132,129,130,132,129,130,130,132,129,130,205,132,129,130,131,132,129,130,131,132,
130,131,132,129,130,130,131,132,129,130,130,130,130,130,130,130,131,130,131,132,129,130,130,131,132,132,130,131,132,129,130,131,132,129,130,131,132,195,4,196,195,129,130,130,132,129,130,132,129,130,130,132,129,205,196,2,2,2,2,2,3,4,2,132,
130,131,132,129,130,130,131,132,129,130,130,130,130,130,130,130,131,130,131,132,129,130,130,131,132,132,130,131,132,129,130,131,132,129,130,131,132,195,4,4,195,129,130,131,132,129,130,132,129,130,130,132,129,195,2,3,3,3,2,2,3,4,2,132,
130,131,132,129,130,130,131,132,129,130,130,130,130,131,132,129,130,130,131,132,129,130,130,131,132,132,130,131,132,129,130,131,132,129,130,131,132,195,195,4,195,129,130,131,132,129,130,132,129,130,130,132,129,195,3,3,3,3,2,2,2,3,4,132,
130,131,132,129,130,130,131,132,129,130,130,131,132,129,130,130,131,130,131,132,129,130,130,131,132,132,130,131,132,129,130,131,132,129,130,131,132,196,195,4,195,130,130,131,132,129,130,132,129,130,130,132,195,196,3,3,3,3,3,2,2,3,4,132,
130,131,132,129,130,130,131,132,129,130,130,131,132,129,130,130,131,130,131,132,129,130,130,131,132,129,130,131,132,129,130,131,132,129,130,131,132,129,195,4,196,195,130,131,132,129,130,132,129,130,130,132,195,2,2,3,4,2,3,2,2,3,4,132,
130,131,132,129,130,130,131,132,129,130,130,131,132,129,130,130,131,132,129,130,129,129,130,131,132,129,130,131,132,129,130,131,132,129,130,12,132,129,195,4,4,196,130,131,132,129,130,132,129,130,130,132,195,3,4,2,2,2,2,2,2,2,3,132,
130,131,132,129,130,130,131,132,129,130,130,131,132,129,130,130,131,132,129,130,129,129,130,131,132,129,130,131,132,129,130,131,132,129,130,131,132,129,195,195,4,4,195,195,195,12,130,132,129,130,130,12,195,3,4,2,2,2,2,2,2,2,3,132,
130,131,132,129,130,130,131,132,129,130,130,131,132,129,130,130,131,132,129,130,129,129,130,131,132,129,130,131,132,129,130,131,132,129,130,131,132,129,196,195,195,4,196,196,196,195,195,195,195,195,195,195,195,3,4,2,2,2,2,2,3,4,2,132,
130,131,132,129,130,130,131,132,129,130,130,131,132,129,130,130,131,132,129,130,129,129,130,131,132,129,130,131,132,129,130,131,132,129,130,131,132,129,130,196,195,4,4,4,4,196,196,196,196,196,196,196,196,4,3,4,2,2,2,2,2,2,2,132,
130,131,132,129,130,130,131,132,129,130,130,131,132,129,130,130,131,132,129,130,129,130,130,132,129,130,130,132,129,130,130,132,129,130,130,132,129,130,130,132,195,195,195,195,4,4,4,4,4,4,4,4,4,4,3,4,2,2,2,2,2,2,2,132,
130,131,132,129,130,130,131,132,129,130,130,131,132,129,130,130,131,132,129,130,129,130,130,132,129,130,130,132,129,130,130,132,129,130,130,132,129,130,130,132,196,196,196,195,195,195,195,4,4,4,4,4,4,195,195,195,4,2,2,2,2,2,2,132,
130,131,132,129,130,130,131,132,129,130,130,131,132,129,130,130,131,132,129,130,129,130,130,132,129,130,130,132,129,130,130,132,129,130,130,132,129,130,130,132,129,130,130,196,196,196,195,195,195,195,195,195,195,196,196,196,3,4,2,2,2,2,2,132,
130,131,132,129,130,130,131,132,129,130,130,131,132,129,130,130,131,132,129,130,129,130,130,132,129,130,130,132,129,130,130,132,129,130,130,132,129,130,130,132,130,130,130,132,129,130,196,196,196,196,196,196,196,130,130,132,129,130,131,132,129,130,131,132,
130,131,132,129,130,130,131,132,129,130,130,131,132,129,130,130,131,132,129,130,129,130,130,132,129,130,130,132,129,130,130,132,129,130,130,132,129,130,130,132,129,130,130,132,129,130,130,132,129,130,130,132,129,130,130,132,129,130,131,132,129,130,131,132,
130,131,132,129,130,130,131,132,129,130,130,131,132,129,130,130,131,132,129,130,129,130,130,132,129,130,130,132,129,130,130,132,129,130,130,132,129,130,130,132,129,130,130,132,129,130,130,132,129,130,130,132,129,130,130,132,129,130,131,132,129,130,131,132,
130,131,132,129,130,130,131,132,129,130,130,131,132,129,130,130,131,132,129,130,129,130,130,132,129,130,130,132,129,130,130,132,129,130,130,132,129,130,130,132,129,130,130,132,129,130,130,132,129,130,130,132,129,130,130,132,129,130,131,132,129,130,131,132,
130,131,132,129,130,130,131,132,129,130,130,131,132,129,130,130,131,132,129,130,129,130,130,132,129,130,130,132,129,130,130,132,129,130,130,132,129,130,130,132,129,130,130,132,129,130,130,12,129,130,130,132,129,130,130,132,129,130,131,132,129,130,131,132,
130,131,132,129,130,130,131,132,129,130,130,131,132,129,130,130,131,132,129,130,129,130,130,132,129,130,130,132,129,130,130,132,129,130,130,132,129,130,130,132,129,130,130,132,129,130,130,132,129,130,130,132,129,130,130,132,129,130,131,132,129,130,131,132,
129,130,131,132,129,130,131,132,129,130,131,132,129,130,131,132,129,130,131,132,129,130,130,132,129,130,130,132,129,130,130,132,129,130,130,132,129,130,130,132,129,130,130,132,129,130,130,132,129,130,130,132,129,130,130,132,129,130,131,132,129,130,131,132
</data>
 </layer>
 <objectgroup id="2" name="Units/Buildings">
  <object id="168" template="../../buildings/P_City_Hall.tx" x="64" y="560"/>
  <object id="169" template="../../units/P_Worker.tx" x="64" y="496"/>
  <object id="170" template="../../units/P_Worker.tx" x="80" y="496"/>
  <object id="171" template="../../units/P_Worker.tx" x="96" y="496"/>
  <object id="172" template="../../units/P_Worker.tx" x="80" y="512"/>
  <object id="180" template="../../buildings/P_Barracks.tx" x="176" y="544"/>
  <object id="181" template="../../buildings/P_Farm.tx" x="224" y="416"/>
  <object id="182" template="../../buildings/P_Farm.tx" x="192" y="464"/>
  <object id="183" template="../../buildings/P_Farm.tx" x="256" y="416"/>
  <object id="184" template="../../buildings/P_Farm.tx" x="224" y="448"/>
  <object id="186" template="../../units/C_Knight.tx" name="Folipondio" x="944" y="800">
   <properties>
    <property name="ARMOR" type="int" value="3"/>
    <property name="CUSTOM" type="bool" value="true"/>
    <property name="MAX_DAMAGE" type="int" value="20"/>
    <property name="MAX_HEALTH" type="int" value="300"/>
    <property name="MIN_DAMAGE" type="int" value="10"/>
    <property name="MUST_SURVIVE" type="bool" value="true"/>
   </properties>
  </object>
  <object id="187" template="../../units/C_Archer.tx" x="384" y="336"/>
  <object id="188" template="../../units/C_Archer.tx" x="384" y="464"/>
  <object id="196" template="../../units/C_Archer.tx" x="544" y="672"/>
  <object id="198" template="../../units/C_Archer.tx" x="608" y="464"/>
  <object id="199" template="../../units/C_Archer.tx" x="608" y="336"/>
  <object id="200" template="../../units/C_Archer.tx" x="688" y="336"/>
  <object id="204" template="../../units/C_Archer.tx" x="720" y="480"/>
  <object id="205" template="../../units/C_Archer.tx" x="704" y="624"/>
  <object id="208" template="../../units/C_Archer.tx" x="720" y="832"/>
  <object id="209" template="../../units/C_Archer.tx" x="560" y="816"/>
  <object id="211" template="../../units/C_Archer.tx" x="752" y="992"/>
  <object id="212" template="../../units/C_Archer.tx" x="816" y="832"/>
  <object id="213" template="../../buildings/P_Farm.tx" x="256" y="448"/>
  <object id="216" template="../../buildings/P_Blacksmith.tx" x="256" y="576"/>
 </objectgroup>
</map>
