<?xml version="1.0" encoding="UTF-8"?>
<map version="1.10" tiledversion="1.12.1" orientation="orthogonal" renderorder="right-down" width="64" height="64" tilewidth="16" tileheight="16" infinite="0" nextlayerid="5" nextobjectid="241">
 <editorsettings>
  <export target="../../../../assets/map/main/main3a.fgm" format="Future Glimpses map (*.fgm)"/>
 </editorsettings>
 <properties>
  <property name="AI_MODE" type="int" propertytype="AI_MODE" value="2"/>
  <property name="ENABLE_BARRACKS" type="bool" value="true"/>
  <property name="ENABLE_BLACKSMITH" type="bool" value="true"/>
  <property name="ENABLE_FARM" type="bool" value="true"/>
  <property name="ENABLE_STABLES" type="bool" value="true"/>
  <property name="ENABLE_TOWER" type="bool" value="false"/>
  <property name="ENABLE_TURRET" type="bool" value="false"/>
  <property name="ENABLE_UPGRADE_ARCHER" type="bool" value="false"/>
  <property name="ENABLE_UPGRADE_KNIGHT" type="bool" value="false"/>
  <property name="ENABLE_UPGRADE_MAGE" type="bool" value="false"/>
  <property name="ENABLE_UPGRADE_SOLDIER" type="bool" value="false"/>
  <property name="MAP_CODE" value="7BJKSFUH"/>
  <property name="MSG_DESCRIPTION" value="Elegiste el camino norte, aquí tienes a tus poderosos caballeros, para ello tendrás que crear establos. Elimina el asentamiento enemigo."/>
  <property name="MSG_LOSE" value="No has logrado recuperar tu imperio..."/>
  <property name="MSG_TITLE" value="3a.Camino del norte"/>
  <property name="MSG_WIN" value="Ya has pasado el camino nevado, ahora llegas a una de las capitales enemigas."/>
  <property name="PEACE_TIME" type="int" value="500"/>
  <property name="RES_GOLD_COMPUTER" type="int" value="1200"/>
  <property name="RES_GOLD_PLAYER" type="int" value="1000"/>
  <property name="RES_WOOD_COMPUTER" type="int" value="300"/>
  <property name="RES_WOOD_PLAYER" type="int" value="500"/>
  <property name="UPGRADED_ARCHER_COMPUTER" type="bool" value="false"/>
  <property name="UPGRADED_ARCHER_PLAYER" type="bool" value="false"/>
  <property name="UPGRADED_KNIGHT_COMPUTER" type="bool" value="false"/>
  <property name="UPGRADED_KNIGHT_PLAYER" type="bool" value="false"/>
  <property name="UPGRADED_MAGE_COMPUTER" type="bool" value="false"/>
  <property name="UPGRADED_MAGE_PLAYER" type="bool" value="false"/>
  <property name="UPGRADED_SOLDIER_COMPUTER" type="bool" value="false"/>
  <property name="UPGRADED_SOLDIER_PLAYER" type="bool" value="false"/>
  <property name="WIN_CODE" value="7T5AYTVU"/>
 </properties>
 <tileset firstgid="1" source="../../tileset.tsx"/>
 <tileset firstgid="257" source="../../units/units.tsx"/>
 <tileset firstgid="267" source="../../buildings/big_buildings.tsx"/>
 <tileset firstgid="273" source="../../buildings/small_buildings.tsx"/>
 <layer id="1" name="Map" width="64" height="64">
  <data encoding="csv">
142,144,142,142,142,143,143,142,142,143,143,142,143,142,143,141,143,142,141,144,141,143,143,143,13,13,13,13,143,143,143,144,142,144,144,141,143,141,143,141,141,142,141,143,142,144,142,141,143,142,143,144,143,142,142,144,144,143,143,143,142,143,143,144,
143,142,141,143,142,142,143,141,144,141,144,141,142,141,142,141,141,142,141,143,141,141,142,141,13,13,13,13,144,143,144,143,141,144,141,143,144,142,144,144,144,142,143,143,141,144,141,142,144,142,142,143,141,141,143,141,141,143,143,143,142,141,142,144,
141,142,142,141,142,144,144,141,142,142,144,169,170,170,170,171,144,142,141,142,142,144,142,142,15,15,14,14,143,144,144,144,141,144,144,144,141,143,141,141,142,144,141,144,142,142,143,142,141,142,141,141,143,142,141,141,142,143,144,142,142,143,141,143,
143,142,143,143,143,143,142,142,144,144,142,165,177,179,177,173,143,144,143,143,142,143,15,16,15,16,13,14,15,14,143,141,141,141,143,143,142,143,143,169,170,170,170,171,142,142,141,143,142,141,141,141,143,144,142,143,143,141,142,143,142,143,143,144,
142,142,143,143,142,141,143,142,141,144,141,165,178,179,178,173,142,143,141,141,144,13,15,13,13,16,16,15,14,13,14,142,143,143,144,143,143,141,144,165,177,179,177,173,141,141,143,141,141,142,141,143,143,141,142,143,141,144,142,142,144,143,142,142,
143,144,143,141,143,143,141,144,141,141,142,174,175,175,175,176,143,144,144,141,14,16,14,15,15,15,15,14,13,16,15,16,143,141,143,142,144,142,143,165,178,179,178,173,143,141,142,143,142,144,144,144,142,141,142,142,141,144,144,141,142,142,143,141,
143,143,141,143,143,141,142,143,144,141,142,141,144,143,143,142,144,142,142,14,15,16,15,15,14,14,13,14,14,16,13,14,15,142,141,141,143,144,142,174,175,175,175,176,142,144,143,141,141,141,141,144,143,144,141,141,144,143,143,143,144,143,141,142,
143,144,141,141,143,143,14,14,141,141,143,142,143,141,143,143,141,144,141,14,14,16,15,16,16,15,15,16,16,13,16,14,13,141,142,141,143,143,141,142,144,142,143,143,143,143,141,142,143,144,144,144,141,13,13,16,141,142,142,144,142,143,141,142,
143,144,141,143,143,15,16,13,16,141,142,144,144,143,143,144,144,142,15,16,16,15,15,14,14,16,13,16,16,160,160,158,14,13,141,143,141,143,142,143,141,144,144,144,143,141,141,141,141,143,142,141,16,16,14,14,14,141,144,141,141,142,143,144,
141,144,143,142,142,13,14,16,14,143,142,141,142,142,144,144,143,143,14,16,14,14,15,14,14,15,15,13,159,159,157,159,160,15,141,143,143,143,144,142,143,141,142,143,142,142,141,142,141,142,144,13,13,157,157,15,14,16,144,144,143,142,143,141,
142,144,141,141,14,15,158,13,16,16,144,143,141,144,143,143,144,144,15,13,15,13,13,13,15,13,16,13,160,157,157,157,159,14,144,143,143,142,141,143,143,142,144,142,143,141,144,142,144,144,141,14,160,160,157,160,13,16,141,144,144,143,141,141,
142,143,143,142,15,159,158,160,13,14,141,142,141,144,143,141,141,144,14,16,14,13,13,14,14,16,15,16,157,157,159,158,158,15,144,141,144,142,144,141,143,143,144,142,144,143,142,143,142,144,14,14,160,159,159,158,15,13,15,142,142,142,144,142,
143,144,141,141,16,13,159,14,15,15,144,142,141,142,142,141,144,143,16,16,14,16,14,13,15,13,15,13,13,157,159,157,13,15,144,142,142,142,142,144,169,170,170,170,171,143,141,144,141,144,14,14,16,158,157,15,15,15,13,142,143,143,142,142,
141,141,143,14,16,13,13,14,16,14,15,144,144,143,142,144,142,141,16,13,15,16,16,13,15,13,14,14,13,15,14,13,14,16,144,142,142,143,144,142,165,177,179,177,173,143,144,144,142,141,15,16,14,13,13,13,13,13,16,142,144,144,142,141,
144,142,144,16,14,13,13,16,15,14,14,143,143,143,142,141,141,142,13,14,15,15,14,16,14,15,15,15,16,16,13,14,15,14,142,144,144,141,144,141,165,178,179,178,173,143,142,144,142,15,14,16,13,16,15,16,13,13,14,13,143,141,142,143,
143,141,142,16,13,15,13,16,13,15,14,141,142,143,144,143,143,143,144,16,14,14,16,16,15,14,15,16,16,15,13,15,15,143,144,143,143,142,142,143,174,175,175,175,176,143,141,143,144,15,16,16,14,13,16,16,15,16,14,16,143,144,141,143,
142,144,141,15,16,15,14,14,15,16,13,142,142,142,142,144,142,142,144,13,13,14,14,13,15,15,16,13,16,13,14,15,16,141,141,142,142,143,143,143,141,143,143,143,142,143,144,141,141,16,13,13,14,13,16,16,15,15,15,14,142,141,141,143,
143,144,144,16,13,16,15,14,14,16,16,142,143,142,142,143,143,144,141,143,16,13,14,15,16,15,15,16,14,14,15,14,143,141,141,141,144,142,143,144,142,144,142,141,142,144,142,141,142,14,16,13,15,61,3,59,15,15,15,13,141,142,143,142,
144,141,142,13,13,16,15,13,14,14,16,144,141,144,141,143,143,143,144,142,144,13,14,16,142,15,15,14,142,16,14,144,143,142,141,141,142,143,141,141,142,142,141,144,141,144,141,143,143,14,14,13,61,3,3,1,59,14,14,15,144,141,144,142,
142,142,141,15,15,16,15,14,15,14,13,144,142,142,143,144,144,144,142,144,143,141,13,15,144,13,15,14,144,16,142,143,142,142,141,143,141,143,142,142,142,142,143,143,141,144,144,142,143,16,13,13,1,2,1,3,1,13,14,13,141,144,144,142,
141,142,143,13,14,14,15,16,15,15,16,141,141,143,141,141,141,142,143,141,141,142,144,142,142,15,14,15,144,144,142,141,144,143,143,143,143,141,141,143,142,143,142,144,142,144,142,141,144,13,14,13,2,2,1,2,1,13,13,14,142,144,143,141,
142,142,144,15,15,14,14,16,13,14,13,144,142,142,142,143,142,142,144,144,141,143,144,144,142,14,13,13,144,144,143,141,141,142,141,144,144,143,142,142,143,141,144,144,141,142,142,143,142,13,13,14,2,2,2,2,3,14,14,14,141,143,142,142,
144,142,144,14,14,13,16,15,16,16,16,143,141,143,141,141,144,142,141,144,144,142,142,142,13,15,14,13,13,142,144,142,143,141,143,142,142,143,144,144,143,144,143,144,144,141,142,142,143,15,14,15,29,1,2,1,27,15,16,15,144,143,141,143,
144,144,144,141,15,14,15,16,15,13,142,141,144,144,143,144,143,143,142,142,144,141,144,16,15,15,14,16,16,14,143,143,141,142,141,144,14,15,14,13,13,14,16,16,13,15,13,13,15,15,16,14,15,29,2,27,16,14,15,14,142,142,142,141,
141,143,142,142,15,15,14,14,14,14,144,144,141,142,143,142,142,142,141,143,141,143,141,13,16,15,60,16,14,14,16,15,13,15,14,15,16,13,15,16,14,13,13,14,16,16,15,16,15,16,14,16,13,16,14,13,13,13,16,15,144,143,144,143,
142,141,144,143,13,15,13,14,16,14,14,16,14,16,16,15,14,16,16,16,16,16,144,14,13,61,1,59,16,13,16,16,13,13,16,16,14,15,14,13,16,14,16,16,14,16,16,14,13,16,14,14,14,16,16,13,13,16,14,144,144,143,142,142,
142,144,144,143,144,14,14,13,16,13,13,13,14,14,15,15,13,13,14,13,14,13,16,15,45,1,1,1,43,13,14,13,13,13,14,14,14,14,15,16,14,16,13,14,16,16,15,15,13,16,16,15,16,15,16,13,14,15,13,141,141,144,144,143,
143,143,144,141,144,14,14,16,13,13,14,15,16,16,16,14,16,13,16,13,13,15,13,15,14,29,1,27,15,13,14,15,13,14,14,16,14,16,13,16,13,16,15,13,16,13,14,14,13,15,14,14,16,14,14,15,14,16,16,144,144,141,142,141,
144,144,143,142,141,141,14,14,16,13,16,15,13,15,14,15,16,15,14,16,14,14,14,16,14,15,28,16,14,13,13,16,15,15,13,16,14,13,16,13,15,13,13,16,13,14,13,13,14,16,15,15,14,13,15,14,13,15,144,141,142,141,142,143,
144,142,142,141,141,144,142,15,15,16,14,15,16,16,14,15,15,14,14,16,14,14,141,13,15,16,14,13,14,13,142,143,142,143,142,141,15,14,14,13,14,14,13,13,15,15,15,14,15,16,142,15,15,16,16,16,15,15,13,15,16,16,143,144,
143,144,143,143,144,142,143,15,13,13,16,143,141,144,141,141,143,144,144,142,142,143,143,13,15,15,15,13,15,15,143,144,144,141,141,142,143,141,141,141,141,144,142,144,143,144,141,13,14,142,143,141,16,16,13,15,16,16,16,13,14,13,142,143,
144,143,144,144,144,142,141,16,13,13,13,144,144,144,141,142,143,143,144,141,141,144,141,144,15,15,13,14,15,144,143,143,142,144,141,142,144,144,141,141,144,144,143,143,142,143,143,16,14,144,141,141,143,16,16,15,143,144,141,141,13,15,143,144,
144,143,142,144,141,143,141,15,13,15,14,143,141,144,142,143,143,141,143,144,144,142,143,142,15,14,14,13,16,142,144,142,141,144,142,143,142,141,143,142,144,143,144,144,142,142,142,13,16,143,142,144,143,143,142,143,142,143,144,144,16,16,143,143,
143,142,143,142,142,143,144,16,13,16,14,143,144,141,144,169,170,170,170,171,142,144,141,142,143,13,13,16,144,143,141,143,144,141,144,142,141,143,141,144,143,142,143,141,142,141,144,13,16,144,144,143,144,143,142,143,141,144,141,144,13,16,142,141,
143,142,141,141,143,144,16,15,16,16,15,16,141,141,141,165,177,179,177,173,141,142,144,143,142,144,14,14,16,142,144,141,143,142,142,143,169,170,170,170,170,170,170,170,170,171,142,13,13,144,142,143,141,142,144,143,141,142,142,142,16,13,143,142,
143,143,143,144,143,141,15,16,16,13,16,13,141,142,142,165,178,179,178,173,141,141,141,144,144,144,16,15,16,15,144,142,142,141,143,141,165,177,179,177,177,179,179,179,177,173,144,14,16,142,141,143,142,144,143,143,142,143,142,142,16,15,144,141,
143,143,144,141,142,144,13,15,14,15,16,14,141,141,144,174,175,175,175,176,143,143,144,142,142,143,15,15,15,13,141,143,141,141,144,144,165,178,179,178,178,179,178,178,178,173,144,14,14,142,142,143,142,141,142,144,142,141,141,143,14,16,143,142,
142,143,141,141,141,142,16,14,14,13,15,16,141,141,142,143,143,141,143,143,142,142,143,141,143,143,14,13,14,14,144,142,144,142,142,142,165,177,177,178,178,177,179,179,178,173,142,13,16,144,141,142,141,141,169,170,170,170,171,144,15,14,141,141,
143,141,142,142,144,143,13,15,14,13,15,14,141,143,141,141,144,141,141,141,142,141,144,144,143,16,15,15,15,16,13,142,142,143,141,143,165,178,177,179,179,178,178,177,178,173,143,14,16,141,141,144,144,141,165,177,179,177,173,143,14,16,143,143,
144,143,144,143,144,144,15,13,15,16,16,14,143,141,144,144,143,143,144,142,141,144,141,144,143,15,14,13,14,13,14,141,141,142,141,144,174,175,175,175,175,175,175,175,175,176,141,144,142,141,143,142,143,144,165,178,179,178,173,142,15,15,142,142,
142,144,142,143,144,141,16,15,15,14,15,16,143,143,143,141,142,142,144,141,144,144,144,143,143,13,15,14,15,13,16,142,142,142,141,141,141,142,144,144,143,143,144,141,143,143,141,144,142,143,144,143,143,143,174,175,175,175,176,142,14,13,143,142,
141,142,144,142,141,142,15,14,16,15,16,14,144,144,143,143,141,141,142,141,141,142,144,142,143,14,15,13,14,16,14,143,144,143,141,142,143,141,142,144,142,143,143,143,143,200,200,200,195,195,195,195,195,200,200,200,200,200,195,144,16,16,144,143,
142,143,144,141,144,142,14,13,14,16,15,16,143,144,141,144,141,144,141,141,143,141,143,141,143,13,15,15,14,15,14,142,141,142,142,142,142,141,144,144,142,144,143,144,144,195,216,216,216,216,216,216,216,216,216,216,216,216,195,142,15,13,142,143,
141,142,141,143,143,141,16,15,13,14,13,13,144,141,142,143,142,141,144,142,143,144,142,144,141,15,14,13,14,13,16,141,143,142,144,144,143,141,141,141,144,143,143,141,141,195,141,142,143,144,143,144,141,142,141,144,144,144,200,200,195,200,200,200,
142,144,141,144,144,143,14,14,15,15,13,13,143,143,144,143,143,143,141,142,143,141,142,141,142,15,13,16,15,14,13,143,143,143,142,141,142,141,142,200,200,200,195,195,200,195,142,142,143,143,14,159,158,13,13,144,144,143,216,216,216,216,216,195,
141,141,143,142,143,142,16,15,13,15,16,13,142,142,144,144,142,141,144,141,144,141,141,143,144,142,13,13,13,15,142,142,143,141,144,144,141,141,141,195,200,216,216,216,216,216,143,141,16,13,157,160,158,159,16,13,13,141,143,141,141,141,141,195,
141,141,143,141,143,143,15,16,14,16,15,16,143,141,142,143,142,142,142,144,141,143,141,142,143,142,14,16,15,15,144,143,144,142,141,144,141,144,144,200,216,14,14,15,143,144,144,16,16,16,14,160,159,15,15,13,13,13,143,142,143,143,142,200,
144,141,141,144,143,141,15,14,14,13,14,16,141,141,144,142,13,14,15,16,13,15,13,13,14,14,15,13,15,13,13,16,13,13,13,13,16,141,143,216,16,16,14,16,16,144,15,14,16,15,14,15,15,16,13,13,13,15,13,141,144,142,143,195,
143,143,143,143,141,141,14,14,16,14,13,15,13,13,16,13,15,14,13,15,16,14,15,13,13,15,13,13,16,13,13,15,16,14,16,16,14,14,13,14,16,15,15,15,16,13,16,16,15,16,13,13,16,13,14,16,16,16,15,13,142,144,142,195,
143,141,142,142,142,143,14,16,14,16,13,13,13,15,15,13,15,13,14,15,16,16,14,13,15,15,14,15,16,13,14,14,15,15,16,14,16,13,16,13,16,14,16,13,16,16,14,15,13,15,14,15,15,13,14,13,14,13,13,16,16,143,143,195,
144,141,143,142,144,141,13,13,14,13,16,16,13,15,14,13,15,15,13,15,13,14,14,13,14,16,14,15,13,13,14,14,13,13,15,13,14,13,15,15,16,15,16,13,16,13,14,15,13,13,14,13,13,13,14,13,14,15,14,16,13,142,141,200,
143,142,143,143,141,143,15,15,13,14,16,14,14,14,15,13,13,15,14,14,14,16,13,15,14,15,13,14,13,16,15,15,13,13,16,15,16,200,200,14,14,14,16,13,13,13,16,14,13,14,13,16,13,15,15,13,13,15,16,13,13,143,141,200,
143,141,142,144,141,142,16,13,15,16,15,13,144,143,142,142,15,13,13,15,15,16,14,14,13,13,15,15,13,14,13,14,13,16,14,13,15,200,216,15,13,14,16,13,14,13,15,16,15,13,13,16,15,13,16,14,14,16,16,15,16,144,142,200,
141,144,142,144,141,141,144,14,16,15,14,143,144,142,144,143,141,142,143,142,144,141,143,141,144,143,142,143,143,141,142,142,144,144,142,144,141,195,143,16,15,14,13,15,14,14,13,15,14,16,15,15,16,15,13,14,15,16,13,13,13,142,144,200,
141,142,142,142,141,141,141,13,16,14,14,141,141,144,141,141,142,144,143,143,144,142,141,142,142,141,143,143,143,143,142,142,141,143,142,141,144,200,141,144,16,16,14,16,16,15,16,16,15,16,13,14,13,16,13,16,15,16,16,15,14,144,142,195,
143,144,141,142,143,142,143,14,15,13,16,143,144,143,142,141,141,141,142,141,141,144,144,143,141,143,142,143,142,144,144,142,142,142,143,144,143,200,142,143,141,14,15,15,143,15,15,15,15,15,13,15,15,14,14,16,13,16,16,14,143,141,141,200,
143,142,143,141,144,141,144,16,15,13,14,143,144,144,141,142,142,144,143,142,141,144,143,141,142,141,141,142,141,141,143,141,143,144,142,144,143,195,142,143,143,142,143,143,142,144,14,13,13,16,13,14,13,15,16,13,13,14,15,142,141,142,144,200,
142,142,144,141,141,141,141,15,14,15,14,143,141,144,142,144,143,141,142,142,169,170,170,170,170,170,170,170,170,171,141,144,144,142,142,141,144,195,200,195,195,195,195,200,195,200,141,14,14,14,16,15,16,16,16,16,14,14,142,142,143,144,143,195,
141,144,144,141,141,142,141,144,159,159,143,143,143,141,144,143,143,144,143,142,165,177,179,177,177,179,179,179,177,173,144,142,141,143,141,143,141,216,216,216,216,216,216,216,216,195,144,142,14,16,16,15,16,14,14,14,14,141,141,142,141,144,144,200,
142,142,143,143,142,143,143,143,160,158,143,141,142,142,141,144,144,144,142,142,165,178,179,178,178,179,178,178,178,173,142,142,141,141,142,144,142,143,143,169,170,170,170,171,144,195,144,143,142,144,16,13,14,16,14,141,142,144,144,143,142,141,141,195,
143,144,142,144,141,142,143,141,143,142,141,144,142,142,143,142,142,144,143,142,165,177,177,178,178,177,179,179,178,173,141,142,143,141,141,143,142,144,144,165,177,179,177,173,141,200,141,144,142,144,144,142,144,141,144,144,141,141,142,143,143,144,141,195,
141,141,143,143,144,142,143,141,143,143,141,141,144,143,144,144,143,142,141,144,165,178,177,179,179,178,178,177,178,173,143,141,144,143,144,142,143,144,143,165,178,179,178,173,143,195,200,200,200,200,200,195,195,200,195,200,195,200,195,195,200,195,195,195,
143,142,141,143,142,141,141,144,143,142,144,141,141,144,141,143,143,144,144,144,174,175,175,175,175,175,175,175,175,176,143,142,141,142,143,144,144,141,141,174,175,175,175,176,142,216,216,216,216,216,216,216,216,216,216,216,216,216,216,216,216,216,216,216,
141,144,143,143,143,142,143,142,143,144,142,143,141,143,144,142,144,141,142,143,142,142,144,143,143,141,141,143,144,143,144,142,141,142,143,144,143,142,144,141,142,141,142,142,144,144,143,143,144,144,144,141,142,142,141,141,143,141,144,143,142,142,143,143
</data>
 </layer>
 <objectgroup id="2" name="Units/Buildings">
  <object id="218" template="../../buildings/P_City_Hall.tx" x="368" y="192"/>
  <object id="219" template="../../units/P_Worker.tx" x="400" y="80"/>
  <object id="220" template="../../units/P_Worker.tx" x="432" y="96"/>
  <object id="221" template="../../units/P_Worker.tx" x="400" y="112"/>
  <object id="222" template="../../units/P_Worker.tx" x="416" y="144"/>
  <object id="223" template="../../buildings/P_Farm.tx" x="288" y="160"/>
  <object id="224" template="../../buildings/P_Farm.tx" x="464" y="96"/>
  <object id="225" template="../../buildings/P_Farm.tx" x="320" y="112"/>
  <object id="226" template="../../buildings/C_Farm.tx" x="944" y="816"/>
  <object id="228" template="../../buildings/C_Farm.tx" x="944" y="848"/>
  <object id="229" template="../../buildings/C_Farm.tx" x="944" y="880"/>
  <object id="230" template="../../buildings/C_Farm.tx" x="912" y="848"/>
  <object id="231" template="../../buildings/C_City_Hall.tx" x="800" y="816"/>
  <object id="232" template="../../buildings/C_Turret.tx" x="624" y="864"/>
  <object id="233" template="../../buildings/C_Turret.tx" x="640" y="784"/>
  <object id="236" template="../../buildings/P_Turret.tx" x="352" y="320"/>
  <object id="238" template="../../buildings/C_Barracks.tx" x="816" y="960"/>
  <object id="239" template="../../buildings/C_Blacksmith.tx" x="896" y="768"/>
  <object id="240" template="../../buildings/P_Blacksmith.tx" x="496" y="128"/>
 </objectgroup>
</map>
