<?xml version="1.0" encoding="UTF-8"?>
<map version="1.10" tiledversion="1.12.1" orientation="orthogonal" renderorder="right-down" width="64" height="64" tilewidth="16" tileheight="16" infinite="0" nextlayerid="5" nextobjectid="244">
 <editorsettings>
  <export target="../../../../assets/map/main/main3b.fgm" format="Future Glimpses map (*.fgm)"/>
 </editorsettings>
 <properties>
  <property name="AI_MODE" type="int" propertytype="AI_MODE" value="2"/>
  <property name="ENABLE_BARRACKS" type="bool" value="true"/>
  <property name="ENABLE_BLACKSMITH" type="bool" value="true"/>
  <property name="ENABLE_FARM" type="bool" value="true"/>
  <property name="ENABLE_STABLES" type="bool" value="false"/>
  <property name="ENABLE_TOWER" type="bool" value="true"/>
  <property name="ENABLE_TURRET" type="bool" value="false"/>
  <property name="ENABLE_UPGRADE_ARCHER" type="bool" value="false"/>
  <property name="ENABLE_UPGRADE_KNIGHT" type="bool" value="false"/>
  <property name="ENABLE_UPGRADE_MAGE" type="bool" value="false"/>
  <property name="ENABLE_UPGRADE_SOLDIER" type="bool" value="false"/>
  <property name="MAP_CODE" value="7BJKSFUH"/>
  <property name="MSG_DESCRIPTION" value="Por el sur tienes una torre de magos, úsalos para destruir el poblado enemigo."/>
  <property name="MSG_LOSE" value="No has logrado recuperar tu imperio..."/>
  <property name="MSG_TITLE" value="3b.Camino del sur"/>
  <property name="MSG_WIN" value="Has conquistado esta tierra. Ahora te reunes con tus tropas para un asalto a una capital enemiga."/>
  <property name="PEACE_TIME" type="int" value="0"/>
  <property name="RES_GOLD_COMPUTER" type="int" value="1000"/>
  <property name="RES_GOLD_PLAYER" type="int" value="1000"/>
  <property name="RES_WOOD_COMPUTER" type="int" value="500"/>
  <property name="RES_WOOD_PLAYER" type="int" value="500"/>
  <property name="UPGRADED_ARCHER_COMPUTER" type="bool" value="false"/>
  <property name="UPGRADED_ARCHER_PLAYER" type="bool" value="false"/>
  <property name="UPGRADED_KNIGHT_COMPUTER" type="bool" value="false"/>
  <property name="UPGRADED_KNIGHT_PLAYER" type="bool" value="false"/>
  <property name="UPGRADED_MAGE_COMPUTER" type="bool" value="false"/>
  <property name="UPGRADED_MAGE_PLAYER" type="bool" value="false"/>
  <property name="UPGRADED_SOLDIER_COMPUTER" type="bool" value="false"/>
  <property name="UPGRADED_SOLDIER_PLAYER" type="bool" value="false"/>
  <property name="WIN_CODE" value="7T5AYTVU"/>
 </properties>
 <tileset firstgid="1" source="../../tileset.tsx"/>
 <tileset firstgid="257" source="../../units/units.tsx"/>
 <tileset firstgid="267" source="../../buildings/big_buildings.tsx"/>
 <tileset firstgid="273" source="../../buildings/small_buildings.tsx"/>
 <layer id="1" name="Map" width="64" height="64">
  <data encoding="csv">
137,138,139,140,137,138,139,140,137,138,139,140,137,138,139,140,137,138,139,140,137,138,139,140,137,138,139,140,137,138,139,140,137,138,139,140,137,138,139,140,137,138,139,140,137,138,139,140,137,138,139,140,137,138,139,140,137,138,139,140,137,138,139,140,
137,138,139,140,137,138,139,140,137,138,139,140,137,138,139,140,137,138,139,140,137,138,139,138,139,138,139,140,137,138,139,140,137,138,139,140,137,138,139,139,137,138,139,140,137,138,139,140,137,138,139,140,137,138,139,140,137,138,139,140,137,138,139,140,
137,138,139,140,9,11,11,10,9,9,10,9,10,12,11,11,11,10,9,9,10,9,10,138,139,11,11,10,9,9,10,9,10,12,11,11,11,10,138,139,140,10,9,9,10,9,10,12,11,11,11,10,12,9,9,11,137,138,139,140,137,138,139,140,
137,138,139,140,12,11,153,154,155,12,9,10,10,11,9,11,11,9,9,12,9,10,10,138,139,11,11,9,9,55,55,55,55,55,55,9,11,9,138,139,140,9,9,12,9,10,10,11,9,11,11,9,9,11,12,140,137,138,139,140,137,138,139,140,
137,138,139,12,9,11,153,154,155,9,10,9,10,12,11,11,11,10,9,9,10,9,137,138,139,140,11,10,40,169,170,170,170,170,171,38,11,137,138,139,140,137,9,9,10,9,10,12,11,11,11,10,10,9,12,140,137,138,139,140,137,138,139,140,
137,138,12,10,10,11,11,9,9,12,9,10,10,11,9,11,11,9,9,12,9,10,137,138,139,140,11,9,40,172,178,178,178,178,173,38,11,137,138,139,140,137,9,12,9,10,10,11,9,11,11,9,11,12,10,140,137,138,139,140,137,138,139,140,
137,138,11,11,12,11,11,10,9,9,10,9,10,12,11,11,11,10,9,9,10,9,137,138,139,140,11,10,40,165,179,179,179,179,173,38,11,137,138,139,140,137,9,9,10,9,10,12,11,11,11,10,10,11,9,12,137,138,139,140,137,138,139,140,
137,138,9,10,10,11,11,9,9,12,9,10,10,11,9,11,11,9,9,12,9,10,137,138,139,140,11,9,40,165,179,179,179,179,173,38,11,137,138,139,140,137,9,12,9,10,10,11,9,11,11,11,10,9,10,9,11,138,139,140,137,10,139,140,
137,138,11,12,11,11,11,10,9,9,10,9,10,12,11,55,55,55,9,9,10,9,137,138,139,140,11,10,40,165,179,179,179,179,173,38,11,137,138,139,140,137,9,9,10,9,10,12,55,55,55,55,55,11,12,11,9,11,12,9,10,12,139,140,
137,138,12,9,10,11,11,9,9,12,9,10,10,11,56,131,132,129,54,12,9,10,137,138,139,140,11,9,40,165,179,179,179,179,173,38,11,137,138,139,140,137,9,12,9,10,55,56,129,130,131,132,129,130,54,55,9,10,12,11,10,11,139,140,
137,138,11,10,12,11,11,10,9,9,10,9,10,56,130,131,132,129,130,54,10,9,137,138,139,140,11,10,40,165,179,179,179,179,173,38,11,137,138,139,140,137,9,9,10,56,131,132,129,130,131,132,129,130,131,132,54,12,11,12,10,12,139,140,
137,138,11,10,11,11,11,9,9,12,9,10,40,129,130,131,132,129,130,131,38,10,137,138,139,140,11,9,40,165,179,179,179,179,173,38,11,137,138,139,140,137,9,12,56,130,131,132,129,130,131,132,129,130,131,132,129,54,9,11,10,9,139,140,
137,138,9,11,10,11,11,10,9,9,10,9,40,129,130,131,132,129,130,131,38,9,137,138,139,140,11,10,40,165,179,179,179,179,173,38,11,137,138,139,140,137,9,40,129,130,131,132,129,130,131,132,129,130,131,132,129,130,38,12,11,10,139,140,
137,138,11,11,11,11,11,9,9,12,9,10,40,129,130,131,132,129,130,131,38,10,137,138,139,140,11,9,40,165,179,179,179,179,173,38,11,137,138,139,140,137,9,40,129,130,131,132,129,130,131,132,129,130,131,132,129,130,38,10,11,10,139,140,
137,138,12,9,11,11,11,10,9,9,10,9,10,24,130,131,132,129,130,22,10,9,137,138,139,140,11,10,40,165,179,179,179,179,173,38,11,10,138,139,140,10,9,40,129,130,131,132,129,130,131,132,129,130,131,132,129,130,38,9,10,11,139,140,
137,138,11,10,9,11,11,9,9,12,9,10,10,11,24,131,132,129,22,12,9,10,137,138,139,140,11,9,40,165,179,179,179,179,173,38,11,9,138,139,140,9,9,12,24,130,131,132,129,130,131,132,129,130,131,132,129,22,9,12,10,10,139,140,
137,138,10,12,9,11,11,10,9,9,10,9,10,12,11,23,23,23,9,9,10,9,10,138,139,11,11,10,40,165,179,179,179,179,173,38,11,10,9,139,11,10,9,9,10,24,131,132,129,130,131,132,129,130,131,132,22,12,11,9,11,10,139,140,
137,138,12,11,12,11,11,9,9,12,9,10,10,11,9,11,11,9,9,12,9,10,10,138,139,11,11,9,40,165,179,179,179,179,173,38,11,9,9,11,11,9,9,12,9,10,10,24,129,130,131,132,129,130,22,10,10,11,9,10,9,11,139,140,
137,138,12,11,12,11,11,10,9,9,10,9,10,12,11,11,11,10,9,9,10,9,10,138,139,11,11,10,40,165,179,179,179,179,173,38,11,10,9,11,11,10,9,9,10,9,10,12,23,23,23,23,23,23,10,9,10,12,11,12,10,10,139,140,
137,138,11,9,10,11,11,9,9,12,9,10,10,11,9,11,11,9,9,12,9,10,10,11,9,11,11,9,40,165,179,179,179,179,173,38,11,9,9,11,11,9,154,155,9,10,10,11,9,11,11,9,9,12,9,10,10,11,9,9,12,12,139,140,
137,138,10,10,9,11,154,155,156,9,10,9,10,12,11,11,11,10,9,9,10,9,10,12,11,11,11,10,40,174,175,175,175,175,176,38,11,10,9,11,11,153,154,155,156,9,10,12,11,11,11,10,9,9,10,9,10,12,11,9,9,9,139,140,
137,138,10,10,12,153,154,155,156,153,9,10,10,11,9,11,11,9,9,12,9,10,10,11,9,11,11,9,9,23,23,23,23,23,23,11,11,9,9,11,11,153,154,155,156,10,10,11,9,11,11,9,9,12,9,10,10,11,9,12,9,11,139,140,
137,138,10,12,9,153,154,155,156,153,10,9,10,12,11,11,11,10,9,9,10,9,10,12,11,11,11,10,9,55,55,55,55,55,55,11,11,10,9,11,11,10,154,155,10,9,10,12,11,11,11,10,9,9,10,9,10,12,11,12,11,10,139,140,
137,138,9,10,12,153,154,155,156,153,9,10,10,11,9,11,11,9,9,12,9,10,10,11,9,11,11,55,56,130,131,132,129,130,131,54,11,9,9,11,11,9,9,12,9,10,10,11,9,11,11,9,9,12,9,10,10,11,9,12,12,10,139,140,
137,138,11,12,11,11,154,155,156,9,10,9,10,12,11,11,11,10,9,9,10,9,10,12,11,11,56,132,129,130,131,132,129,130,131,132,129,54,9,11,11,10,9,9,10,9,10,12,11,11,11,10,12,11,11,12,11,9,11,9,9,9,139,140,
137,138,11,10,9,11,11,9,9,12,9,10,10,11,9,11,11,9,9,12,9,10,10,11,9,56,131,132,129,130,131,132,129,130,131,132,129,130,54,11,11,9,9,12,9,10,10,11,11,11,10,9,9,10,9,10,12,11,11,11,9,12,139,140,
11,10,9,9,9,11,11,10,9,9,10,9,10,12,11,11,11,10,9,9,10,9,10,12,56,130,131,132,129,130,131,132,129,130,131,132,129,130,131,54,11,10,9,9,10,9,10,12,11,11,9,9,12,9,10,10,11,9,11,11,10,11,139,140,
11,9,9,10,9,11,11,9,9,12,9,10,10,11,9,11,11,9,9,12,9,10,10,40,129,130,131,132,129,130,131,132,129,130,131,132,129,130,131,132,38,9,9,12,9,10,10,11,11,11,10,9,9,10,9,10,12,11,11,11,11,11,139,140,
10,12,10,10,9,11,11,10,9,9,10,9,10,12,11,11,11,10,9,9,10,9,10,40,129,130,131,132,129,130,131,132,129,130,131,132,129,130,131,132,38,10,9,9,10,9,10,12,11,11,9,9,12,9,10,10,11,9,11,11,12,10,139,140,
11,10,9,11,11,11,11,9,9,12,9,10,10,11,9,11,11,9,9,12,9,10,10,40,129,130,131,132,129,130,131,132,129,130,131,132,129,130,131,132,38,9,9,12,9,10,10,11,11,11,10,9,9,10,9,10,12,11,11,11,12,9,139,140,
11,9,9,10,11,11,11,10,9,9,10,9,10,12,11,11,11,10,9,9,10,9,10,40,129,130,131,132,129,130,131,132,129,130,131,132,129,130,131,132,38,10,9,9,10,9,10,12,11,11,9,9,12,9,10,10,11,9,11,11,9,10,139,140,
10,12,10,11,10,11,11,9,9,12,9,10,10,11,9,11,11,9,9,12,9,10,10,40,129,130,131,132,129,130,131,132,129,130,131,132,129,130,131,132,38,9,9,12,9,10,10,11,11,11,10,9,9,10,9,10,12,11,11,11,9,11,139,140,
137,138,9,10,12,11,11,10,9,9,10,9,10,12,11,11,11,10,9,9,10,9,10,12,24,130,131,132,129,130,131,132,129,130,131,132,129,130,131,22,11,10,9,9,10,9,10,12,11,11,9,9,12,9,10,10,11,9,11,11,11,10,139,140,
137,138,12,11,12,11,11,9,9,12,9,10,10,11,9,11,11,9,9,12,9,10,10,11,9,24,131,132,129,130,131,132,129,130,131,132,129,130,22,11,11,9,9,12,9,10,10,11,11,11,10,9,9,10,9,10,12,11,11,11,10,11,139,140,
137,138,10,12,9,137,138,139,140,137,138,139,140,137,138,11,11,10,9,9,10,9,10,12,11,11,24,132,129,130,131,132,129,130,131,132,129,22,9,11,11,10,9,9,10,9,10,12,11,11,9,9,12,9,10,11,11,10,9,9,10,9,139,140,
137,138,138,139,140,137,138,139,140,137,138,139,140,137,138,139,140,137,9,12,9,10,10,11,9,11,11,9,24,130,131,132,129,130,131,22,11,9,9,11,11,9,9,12,9,10,10,11,11,11,10,9,9,10,9,11,11,9,9,12,9,10,139,140,
137,137,138,139,140,137,138,139,140,137,138,139,140,137,138,139,140,137,138,9,10,9,10,12,11,11,11,10,9,23,23,23,23,23,23,11,11,10,9,11,11,10,9,9,10,9,10,12,11,11,9,9,12,9,10,11,11,10,9,9,10,12,139,140,
137,137,138,139,140,137,138,139,140,137,138,139,140,137,138,139,140,137,138,12,9,10,10,11,9,11,11,9,9,12,9,10,10,11,9,11,11,9,9,11,11,9,9,12,9,10,10,11,11,11,10,9,9,10,9,11,11,9,9,12,9,11,139,140,
137,138,138,139,140,137,138,139,140,137,138,139,140,137,138,139,140,137,9,9,10,9,10,12,11,11,11,10,9,9,10,9,10,12,11,11,11,10,9,11,11,10,9,9,10,9,10,12,11,11,9,9,12,9,10,11,11,10,9,9,10,12,139,140,
137,138,12,12,11,137,138,139,140,137,138,139,140,137,138,11,11,9,9,12,9,10,10,11,9,11,11,9,9,12,9,10,10,11,9,11,11,9,9,11,11,9,9,12,9,10,10,11,11,11,10,9,9,10,9,11,11,9,9,12,9,12,139,140,
137,138,11,11,9,11,11,10,9,9,10,9,10,12,11,11,11,10,9,9,10,9,10,12,11,11,11,10,9,9,10,9,10,12,11,11,11,10,9,11,11,10,9,9,10,9,10,12,11,11,9,9,12,9,10,11,154,155,9,9,10,10,139,140,
137,138,11,10,9,11,11,9,9,12,9,10,10,11,9,11,11,9,9,12,9,10,10,11,9,11,11,9,9,12,9,10,55,11,9,11,11,9,9,11,11,9,9,12,9,10,10,11,11,11,10,9,9,10,9,153,154,155,156,12,9,10,139,140,
137,138,12,12,12,11,11,10,9,9,10,9,10,12,11,11,11,10,9,9,10,9,10,12,11,11,11,10,9,9,10,56,131,54,11,11,11,10,9,11,11,10,9,9,10,9,10,12,11,11,9,9,12,9,10,153,154,155,156,9,10,12,139,140,
137,138,12,10,10,11,11,9,9,12,9,10,10,11,9,11,11,9,9,12,9,10,10,11,9,11,11,9,9,12,40,130,131,132,38,11,11,9,9,11,11,9,9,12,9,10,10,11,11,11,10,9,9,10,9,153,154,155,156,12,9,10,139,140,
137,138,9,12,9,11,11,10,9,9,10,9,10,12,11,11,11,10,9,9,10,9,10,12,11,11,11,10,9,9,56,130,131,132,54,11,11,10,9,11,11,10,9,9,10,9,10,12,11,11,9,9,12,9,10,11,154,155,9,9,10,10,139,140,
137,138,11,11,9,11,11,9,9,12,9,10,10,11,9,55,55,55,55,12,9,10,10,11,9,11,11,9,9,40,129,130,131,132,129,38,11,9,9,11,11,9,9,12,9,10,10,11,11,11,10,9,9,10,9,11,11,9,9,12,9,10,139,140,
137,138,10,12,154,155,11,10,9,9,10,9,10,12,56,131,132,129,130,54,10,9,10,12,11,11,11,10,9,40,129,130,131,132,129,38,11,10,9,11,11,10,9,9,10,9,10,12,11,11,9,9,12,9,10,11,11,10,9,9,10,10,139,140,
137,138,11,153,154,155,156,9,9,12,9,10,10,40,130,131,132,129,130,131,38,10,10,11,9,11,11,9,9,40,129,130,131,132,129,38,11,9,9,11,11,9,9,12,9,55,55,55,55,55,55,55,9,10,9,10,12,11,11,11,11,12,139,140,
137,138,12,153,154,155,156,10,9,9,10,9,10,56,130,131,132,129,130,131,54,9,10,12,11,11,11,10,9,40,129,130,131,132,129,38,11,10,9,11,11,10,55,55,56,130,131,132,129,130,131,132,54,55,55,10,11,9,11,11,11,11,139,140,
137,138,10,153,154,155,156,9,9,12,9,10,40,129,130,131,132,129,130,131,132,38,10,11,9,11,11,9,9,40,129,130,131,132,129,38,11,9,9,11,11,56,131,132,129,130,131,132,129,130,131,132,129,130,131,54,12,11,11,11,11,10,139,140,
137,138,11,11,154,155,11,10,9,9,10,9,40,129,130,131,132,129,130,131,132,38,10,12,11,11,11,10,9,40,129,130,131,132,129,38,11,10,9,11,56,130,131,132,129,130,131,132,129,130,131,132,129,130,131,132,54,9,11,11,11,9,139,140,
137,138,12,10,9,11,11,9,9,12,9,10,40,129,130,131,132,129,130,131,132,38,10,11,9,11,11,9,9,40,129,130,131,132,129,38,11,9,9,40,129,130,131,132,129,130,131,132,129,130,131,132,129,130,131,132,129,38,11,11,12,9,139,140,
137,138,12,12,9,11,11,10,9,9,10,9,40,129,130,131,132,129,130,131,132,38,10,12,11,11,11,10,9,40,129,130,131,132,129,38,11,10,9,40,129,130,131,132,129,130,131,132,129,130,131,132,129,130,131,132,129,38,11,11,10,12,139,140,
137,138,10,9,12,11,11,9,9,12,9,10,10,24,130,131,132,129,130,131,22,10,10,11,9,11,11,9,9,40,129,130,131,132,129,38,11,9,9,11,24,130,131,132,129,130,131,132,129,130,131,132,129,130,131,132,22,11,11,11,11,11,139,140,
137,138,10,12,11,11,11,10,9,9,10,9,10,40,130,131,132,129,130,131,38,9,10,12,11,11,11,10,9,40,129,130,131,132,129,38,11,10,9,11,11,24,131,132,129,130,131,132,129,130,131,132,129,130,131,22,10,9,11,11,10,12,139,140,
137,138,10,10,12,11,11,9,9,12,9,10,10,11,24,131,132,129,130,22,9,10,10,11,9,11,11,9,9,12,24,130,131,132,22,11,11,9,9,11,11,9,23,23,24,130,131,132,129,130,131,132,22,23,23,12,9,11,11,11,9,11,139,140,
137,138,9,10,9,11,11,10,9,9,10,9,10,12,11,23,23,23,23,9,10,9,10,12,11,11,11,10,9,9,40,130,131,132,38,11,11,10,9,11,11,10,9,9,10,23,23,23,23,23,23,23,11,10,9,9,10,12,10,12,11,9,139,140,
137,138,10,10,9,11,11,9,9,12,9,10,10,11,9,11,11,9,9,12,9,10,10,11,9,11,11,9,9,12,9,24,131,22,9,11,11,9,9,11,11,9,9,12,9,10,10,11,9,11,11,11,11,9,9,12,9,10,11,140,137,138,139,140,
137,138,139,140,137,138,12,9,10,11,10,9,10,9,11,9,10,10,12,9,11,12,11,11,10,11,9,10,9,12,12,9,23,12,12,12,12,12,9,11,11,10,9,9,10,9,10,12,11,11,11,10,12,12,11,12,9,11,139,140,137,138,139,140,
137,138,139,140,137,138,139,12,12,11,12,12,9,12,10,9,10,9,10,12,12,12,9,9,10,11,9,11,11,138,139,140,137,138,139,140,137,138,139,140,137,138,139,140,137,138,139,140,137,11,11,9,12,11,11,10,12,138,139,140,137,138,139,140,
137,138,139,140,137,138,139,12,11,10,9,9,11,12,9,10,11,9,12,12,9,9,12,12,137,138,139,140,137,138,139,140,137,138,139,140,137,138,139,140,137,138,139,140,137,138,139,140,137,138,139,140,137,138,11,10,10,138,139,140,137,138,139,140,
137,138,139,140,137,138,139,11,12,9,10,10,9,9,10,9,12,11,9,11,10,10,11,11,137,138,139,140,137,138,139,140,137,138,139,140,137,138,139,140,137,138,139,140,137,138,139,140,137,138,139,140,137,138,10,9,12,11,139,140,137,138,139,140,
137,138,139,140,137,138,139,140,137,138,139,140,137,138,139,140,137,138,139,140,137,138,139,140,137,138,139,140,137,138,139,140,137,138,139,140,137,138,139,140,137,138,139,140,137,138,139,140,137,138,139,140,137,138,139,140,137,138,139,140,137,138,139,140,
137,138,139,140,137,138,139,140,137,138,139,140,137,138,139,140,137,138,139,140,137,138,139,140,137,138,139,140,137,138,139,140,137,138,139,140,137,138,139,140,137,138,139,140,137,138,139,140,137,138,139,140,137,138,139,140,137,138,139,140,137,138,139,140
</data>
 </layer>
 <objectgroup id="2" name="Units/Buildings">
  <object id="227" template="../../buildings/P_City_Hall.tx" x="96" y="496"/>
  <object id="228" template="../../buildings/C_City_Hall.tx" x="768" y="432"/>
  <object id="229" template="../../buildings/C_Farm.tx" x="768" y="320"/>
  <object id="230" template="../../buildings/C_Farm.tx" x="800" y="320"/>
  <object id="231" template="../../buildings/C_Farm.tx" x="832" y="320"/>
  <object id="232" template="../../buildings/C_Farm.tx" x="864" y="320"/>
  <object id="233" template="../../buildings/C_Farm.tx" x="896" y="320"/>
  <object id="234" template="../../buildings/C_Barracks.tx" x="640" y="528"/>
  <object id="235" template="../../buildings/C_Blacksmith.tx" x="912" y="288"/>
  <object id="236" template="../../buildings/P_Farm.tx" x="0" y="448"/>
  <object id="237" template="../../buildings/P_Farm.tx" x="32" y="560"/>
  <object id="238" template="../../buildings/P_Farm.tx" x="0" y="512"/>
  <object id="239" template="../../buildings/P_Tower.tx" x="32" y="304"/>
  <object id="240" template="../../units/P_Worker.tx" x="96" y="432"/>
  <object id="241" template="../../units/P_Worker.tx" x="128" y="416"/>
  <object id="242" template="../../units/P_Worker.tx" x="160" y="416"/>
  <object id="243" template="../../units/P_Worker.tx" x="144" y="464"/>
 </objectgroup>
</map>
