<?xml version="1.0" encoding="UTF-8"?>
<map version="1.10" tiledversion="1.12.1" orientation="orthogonal" renderorder="right-down" width="64" height="64" tilewidth="16" tileheight="16" infinite="0" nextlayerid="5" nextobjectid="282">
 <editorsettings>
  <export target="../../../../assets/map/main/main4.fgm" format="Future Glimpses map (*.fgm)"/>
 </editorsettings>
 <properties>
  <property name="AI_MODE" type="int" propertytype="AI_MODE" value="2"/>
  <property name="ENABLE_BARRACKS" type="bool" value="true"/>
  <property name="ENABLE_BLACKSMITH" type="bool" value="true"/>
  <property name="ENABLE_FARM" type="bool" value="true"/>
  <property name="ENABLE_STABLES" type="bool" value="true"/>
  <property name="ENABLE_TOWER" type="bool" value="true"/>
  <property name="ENABLE_TURRET" type="bool" value="true"/>
  <property name="ENABLE_UPGRADE_ARCHER" type="bool" value="true"/>
  <property name="ENABLE_UPGRADE_KNIGHT" type="bool" value="false"/>
  <property name="ENABLE_UPGRADE_MAGE" type="bool" value="false"/>
  <property name="ENABLE_UPGRADE_SOLDIER" type="bool" value="true"/>
  <property name="MAP_CODE" value="7T5AYTVU"/>
  <property name="MSG_DESCRIPTION" value="Al norte hay una gran ciudad enemiga. Tienes todas las unidades y algunas mejoras. ¡Acaba con ellos!"/>
  <property name="MSG_LOSE" value="No has logrado recuperar tu imperio..."/>
  <property name="MSG_TITLE" value="4.Gran ciudad"/>
  <property name="MSG_WIN" value="Buena conquista. Ahora queda la batalla final..."/>
  <property name="PEACE_TIME" type="int" value="600"/>
  <property name="RES_GOLD_COMPUTER" type="int" value="1000"/>
  <property name="RES_GOLD_PLAYER" type="int" value="1000"/>
  <property name="RES_WOOD_COMPUTER" type="int" value="500"/>
  <property name="RES_WOOD_PLAYER" type="int" value="500"/>
  <property name="UPGRADED_ARCHER_COMPUTER" type="bool" value="true"/>
  <property name="UPGRADED_ARCHER_PLAYER" type="bool" value="false"/>
  <property name="UPGRADED_KNIGHT_COMPUTER" type="bool" value="false"/>
  <property name="UPGRADED_KNIGHT_PLAYER" type="bool" value="false"/>
  <property name="UPGRADED_MAGE_COMPUTER" type="bool" value="false"/>
  <property name="UPGRADED_MAGE_PLAYER" type="bool" value="false"/>
  <property name="UPGRADED_SOLDIER_COMPUTER" type="bool" value="true"/>
  <property name="UPGRADED_SOLDIER_PLAYER" type="bool" value="false"/>
  <property name="WIN_CODE" value="UNZEF5AC"/>
 </properties>
 <tileset firstgid="1" source="../../tileset.tsx"/>
 <tileset firstgid="257" source="../../units/units.tsx"/>
 <tileset firstgid="267" source="../../buildings/big_buildings.tsx"/>
 <tileset firstgid="273" source="../../buildings/small_buildings.tsx"/>
 <layer id="1" name="Map" width="64" height="64">
  <data encoding="csv">
137,137,137,138,139,140,138,138,138,137,140,140,137,140,137,140,139,138,137,138,138,137,138,140,140,137,139,139,137,138,140,139,137,140,137,137,138,139,140,140,139,138,139,137,138,139,137,140,139,139,140,140,138,139,138,139,138,137,139,140,138,140,140,138,
139,138,137,139,139,139,139,138,138,200,200,200,200,200,200,200,200,200,200,200,200,200,200,200,200,200,200,200,200,200,200,200,200,200,200,200,200,200,200,200,200,200,200,200,200,137,137,137,138,138,140,140,139,137,139,140,139,137,139,140,137,137,137,137,
140,138,137,137,9,9,11,9,12,200,197,197,197,197,197,197,197,197,197,197,197,197,197,197,197,197,197,197,197,197,197,197,197,197,197,197,197,197,197,197,197,197,197,197,200,12,12,11,10,11,11,10,12,9,9,11,137,139,139,140,138,140,140,138,
139,138,140,137,12,10,11,11,9,200,11,9,10,12,10,10,9,10,11,12,9,12,9,11,10,12,11,10,11,12,11,11,11,10,12,11,9,154,155,156,12,11,11,10,200,9,11,10,11,12,12,9,9,11,12,139,139,140,140,138,138,139,139,139,
140,138,139,12,9,10,11,12,10,200,9,9,9,11,139,140,137,138,139,140,10,9,12,11,11,9,11,9,9,9,12,10,11,12,9,11,153,154,155,156,153,10,12,10,200,9,12,11,9,9,12,11,10,9,12,137,138,138,140,137,137,140,140,138,
140,138,12,10,10,154,155,10,10,200,12,12,12,138,139,140,137,138,139,140,137,9,10,12,10,11,10,11,11,10,11,12,9,9,12,11,153,154,155,156,153,11,12,10,200,9,11,11,11,12,12,12,11,12,10,140,139,138,140,139,138,139,140,140,
137,137,11,11,153,154,155,156,12,200,12,12,137,138,139,140,137,138,139,140,137,138,9,11,9,12,11,12,11,12,10,10,11,10,10,11,153,154,155,156,153,9,10,12,200,11,9,10,10,11,12,12,10,11,9,12,138,140,137,140,140,137,139,138,
137,140,9,10,153,154,155,156,10,200,12,11,137,138,139,140,137,138,139,140,137,138,9,12,12,12,10,12,10,9,10,10,12,12,10,11,153,154,155,156,153,10,9,12,200,12,9,11,10,11,11,12,10,9,10,9,11,137,140,137,140,10,139,137,
137,138,11,12,11,154,155,12,9,200,11,137,140,138,139,140,137,138,139,140,137,10,11,9,9,10,12,12,10,10,9,10,12,10,12,10,11,154,155,156,12,12,12,12,200,11,12,139,137,140,137,139,9,11,12,11,9,11,12,9,10,12,139,137,
139,140,12,9,10,11,10,10,11,200,137,140,139,138,139,140,137,138,139,140,9,11,9,10,11,11,11,9,9,12,9,10,9,10,10,9,11,12,11,10,11,12,9,11,200,12,140,138,139,139,139,137,139,9,10,12,9,10,12,11,10,11,138,138,
137,138,11,10,12,11,10,11,12,200,140,139,139,138,140,140,139,137,10,12,10,11,10,12,10,10,12,10,9,11,9,9,10,11,11,10,12,11,138,139,140,10,9,200,200,140,140,137,140,137,137,139,137,139,10,9,10,9,10,154,10,12,140,140,
138,137,11,10,11,10,9,10,9,200,140,138,138,139,138,138,140,139,10,10,10,12,12,10,9,12,10,10,10,9,11,12,10,9,9,10,11,137,138,139,140,137,200,200,197,139,139,140,138,137,140,139,137,140,139,9,10,9,153,154,155,9,138,139,
139,138,9,11,10,11,9,12,10,200,137,139,139,137,137,9,55,55,55,55,55,55,9,9,55,55,55,55,55,10,10,11,10,10,9,12,11,137,138,139,140,137,200,196,137,139,139,137,137,140,140,137,137,139,139,138,9,12,153,154,155,10,138,139,
140,137,11,11,11,11,12,9,10,200,138,140,137,137,139,40,169,170,170,170,170,171,38,40,169,170,170,170,171,54,55,10,9,11,10,10,9,137,138,139,140,137,200,140,140,140,139,140,139,138,137,137,139,139,140,138,9,11,12,154,11,10,139,138,
138,140,12,9,11,12,11,9,12,200,139,137,140,139,137,40,172,178,178,178,178,173,38,40,172,178,178,178,178,170,171,54,9,10,11,9,12,137,138,139,140,137,200,140,140,138,139,140,140,138,137,139,138,138,140,139,10,9,10,9,10,11,138,139,
137,140,11,10,9,12,12,9,12,200,139,137,137,137,137,40,165,179,179,179,179,173,38,40,165,179,179,179,179,178,178,171,54,10,9,10,10,9,138,139,140,11,200,137,139,140,137,140,138,139,138,138,137,140,138,138,9,9,12,12,10,10,140,138,
137,140,10,12,9,12,12,12,9,200,11,139,140,138,138,40,174,175,175,175,175,176,38,40,174,175,175,175,175,179,179,178,171,54,55,10,11,10,9,10,11,11,200,140,137,138,137,138,139,137,139,138,140,140,138,140,9,11,12,9,11,10,140,140,
140,140,12,11,12,10,10,9,10,200,9,11,138,139,139,9,23,23,23,23,23,23,9,9,23,23,23,23,40,174,175,179,178,170,171,54,55,55,9,9,9,10,200,12,139,140,140,137,138,140,140,137,137,137,137,9,11,12,11,10,9,11,138,137,
137,137,12,11,12,10,10,12,11,200,12,12,137,138,139,140,137,12,9,10,10,10,12,9,12,12,9,10,9,23,24,174,179,178,178,170,170,171,38,9,9,11,200,200,10,139,139,140,137,139,138,137,138,139,11,10,10,10,12,12,10,10,137,138,
138,137,11,9,10,10,10,9,12,200,12,9,137,138,139,140,137,11,9,12,12,200,9,10,10,11,12,10,11,11,11,24,174,179,179,178,178,173,38,9,12,12,196,200,12,9,139,140,137,138,140,137,138,9,11,10,9,10,10,9,12,12,137,138,
138,138,10,10,9,12,12,11,9,200,10,10,10,12,12,9,10,9,9,9,11,200,10,9,11,10,138,139,140,137,12,9,24,174,175,179,179,173,38,10,10,11,10,200,11,10,10,137,139,140,139,139,12,9,10,11,12,9,9,9,9,9,139,139,
139,140,10,10,12,10,10,11,10,200,200,200,200,200,200,200,200,200,200,200,200,200,10,12,11,137,138,139,140,137,138,10,10,23,24,174,175,176,38,9,10,12,10,200,200,10,9,9,10,12,10,12,12,11,11,9,10,10,12,12,9,11,138,140,
138,140,10,12,9,9,12,9,138,197,197,196,197,196,197,196,196,197,197,197,200,197,10,10,9,137,138,139,140,137,138,10,10,11,11,23,23,23,9,200,200,11,9,197,200,11,10,11,10,10,10,11,12,10,10,9,9,9,9,12,11,10,138,139,
139,138,9,10,12,12,138,140,138,138,137,137,137,140,138,138,139,140,138,10,200,10,12,10,12,10,138,139,140,137,12,11,12,12,9,10,12,11,11,197,200,12,9,9,200,10,10,9,9,9,10,12,10,9,9,10,9,10,10,12,12,10,138,138,
138,138,11,12,11,139,138,138,139,139,139,138,137,140,137,140,138,137,137,140,200,12,12,11,9,12,12,12,12,10,9,12,12,9,11,10,10,9,10,12,200,11,9,9,200,11,9,11,9,11,9,12,12,11,11,12,11,9,11,9,9,9,139,137,
140,137,11,10,9,11,140,140,140,140,138,139,137,139,137,140,139,139,138,11,200,11,9,200,200,200,200,200,200,200,200,200,200,11,9,11,10,10,12,9,200,11,11,12,200,12,12,9,9,9,9,10,9,12,9,9,12,10,9,11,9,12,139,138,
139,137,11,9,9,10,11,12,139,138,138,140,137,140,137,139,139,11,9,12,197,11,12,200,196,197,197,197,197,197,197,197,200,200,200,200,200,200,200,200,200,11,9,11,200,9,11,11,10,10,10,10,12,12,12,12,9,10,10,9,10,11,138,139,
137,139,10,10,9,11,12,10,11,11,12,10,10,10,10,9,9,11,11,11,11,11,10,200,10,137,139,137,137,139,138,140,196,196,197,196,197,196,197,200,200,12,12,10,197,11,10,9,11,12,9,10,12,9,12,9,11,10,12,11,11,11,139,139,
140,140,10,10,9,10,10,10,11,9,12,11,12,10,11,12,10,10,9,11,12,10,10,200,137,140,138,137,138,140,139,139,138,137,139,140,138,11,9,196,200,11,10,9,10,9,11,12,11,11,11,11,12,10,10,9,10,11,11,12,12,10,139,139,
137,139,9,11,11,11,10,9,9,10,9,10,12,11,12,9,12,12,12,10,12,10,12,196,140,138,140,137,137,139,140,139,138,138,138,140,139,137,12,12,197,9,12,11,11,11,9,9,9,12,12,11,12,9,9,11,9,10,9,9,12,9,138,139,
138,137,9,10,11,11,9,9,12,9,10,10,11,9,12,10,11,11,9,10,10,10,139,137,140,140,138,138,137,140,137,139,137,140,138,139,139,140,139,12,9,10,10,9,11,9,10,12,9,11,12,12,9,12,9,10,10,11,12,11,9,10,139,139,
139,138,12,11,10,10,12,10,11,138,140,139,139,137,11,9,11,12,9,11,10,10,138,140,139,137,139,9,55,55,55,55,9,139,137,140,140,137,139,11,9,9,10,12,9,9,9,10,12,11,9,11,9,11,12,10,9,11,10,10,9,11,140,139,
139,139,9,10,12,12,11,138,138,139,137,137,138,137,139,140,10,11,10,9,10,140,139,140,138,139,138,40,169,170,170,171,38,138,137,138,139,137,138,139,12,11,11,12,10,9,9,9,11,9,11,140,137,138,140,140,11,9,9,12,11,10,137,138,
138,137,12,11,12,12,138,139,137,139,138,139,140,139,138,137,140,11,11,12,11,137,139,138,139,138,138,40,172,178,180,173,38,137,137,137,139,138,137,137,12,12,9,10,12,11,10,10,11,137,139,139,140,138,140,137,140,139,11,12,10,11,139,137,
139,137,10,12,9,140,140,140,140,137,137,138,140,137,140,138,140,139,10,10,11,139,137,140,140,139,138,40,165,179,178,173,38,140,140,137,139,138,139,139,11,10,11,11,11,11,11,10,138,138,137,139,138,138,137,137,140,140,140,12,10,9,139,140,
137,138,10,11,12,140,139,138,138,140,139,137,140,137,139,138,138,138,9,11,11,137,140,139,139,137,139,40,174,175,175,176,38,137,138,139,139,138,139,138,12,11,10,11,9,9,11,137,137,138,139,140,138,140,139,139,139,138,138,137,10,10,140,140,
138,138,9,11,10,138,139,140,140,140,137,138,137,140,139,138,139,140,9,11,11,139,139,137,138,137,137,9,23,23,23,23,9,139,139,137,138,137,138,137,11,11,11,11,9,9,139,140,137,137,140,137,139,138,137,137,137,138,138,140,139,12,139,138,
137,138,12,10,9,139,140,139,137,139,138,140,137,140,139,140,139,139,9,12,9,10,138,138,137,139,139,140,138,140,137,139,138,137,138,139,140,138,138,11,9,10,12,11,10,12,139,139,138,137,138,138,140,140,138,140,140,138,137,137,138,11,138,140,
140,139,11,11,10,10,140,139,140,137,137,137,137,140,137,137,138,12,11,10,10,11,138,138,138,140,140,137,140,139,140,139,138,137,139,140,139,139,139,12,11,12,12,10,10,11,137,138,138,140,139,138,139,140,138,138,138,139,140,140,138,12,140,139,
137,138,12,12,11,11,11,138,140,138,139,140,137,140,138,137,11,12,9,12,10,12,9,140,138,139,139,140,138,139,140,140,137,137,137,138,137,140,12,11,10,9,9,12,10,12,137,137,140,137,139,137,139,139,138,139,140,139,137,140,137,12,139,140,
138,140,11,11,9,9,9,11,10,138,138,140,137,137,11,12,11,9,9,9,12,10,9,12,138,138,140,137,138,139,137,139,137,140,138,138,140,12,12,9,12,11,10,12,10,12,137,140,139,137,137,138,139,139,139,140,140,139,139,137,137,10,140,138,
137,140,11,10,9,9,12,10,11,11,12,10,9,9,10,12,11,12,9,10,10,10,12,12,11,137,140,137,137,137,138,138,137,140,139,138,11,11,12,9,9,11,9,11,12,12,11,140,138,138,137,140,140,139,140,140,140,139,140,138,9,10,137,138,
137,139,12,12,12,9,11,9,12,11,11,9,12,9,9,11,12,10,11,11,12,11,9,11,10,10,11,138,138,138,138,139,137,137,10,10,10,11,11,11,12,12,9,10,10,11,12,11,137,140,140,138,139,138,139,138,139,138,140,9,10,12,137,138,
139,137,12,10,10,12,11,12,11,11,11,12,12,12,9,11,12,12,11,10,10,10,10,9,12,11,10,9,9,11,11,9,11,9,11,12,11,9,9,12,11,12,12,12,10,10,12,9,12,140,138,140,139,138,139,139,137,139,9,11,10,10,138,137,
139,140,9,12,9,9,12,11,12,11,11,9,12,10,10,11,12,12,10,10,9,10,10,11,12,11,11,12,11,12,11,12,9,9,12,9,11,12,11,10,10,11,11,12,10,12,9,9,9,11,11,137,137,139,137,137,12,11,11,9,11,10,138,139,
138,137,11,11,9,10,12,9,12,10,9,12,11,11,9,12,12,12,11,12,9,11,11,11,154,155,156,11,11,12,10,12,12,9,10,10,12,9,11,12,9,11,10,12,9,12,11,10,9,11,11,10,10,9,11,12,11,10,9,11,11,10,138,137,
137,139,10,12,9,10,9,12,9,10,10,9,137,140,138,138,137,12,9,12,10,11,12,153,154,155,156,153,10,11,9,12,9,11,12,11,9,12,11,9,10,11,12,10,12,10,11,11,9,9,9,12,12,9,9,11,9,11,11,9,10,10,137,137,
137,138,11,12,10,11,10,10,9,10,138,137,138,137,139,138,140,138,140,10,9,9,10,153,154,155,156,153,12,9,12,11,11,11,12,12,11,10,11,9,11,9,12,12,12,9,11,12,11,10,9,11,10,11,10,9,10,10,9,12,11,12,139,140,
140,140,12,9,11,10,12,10,9,140,140,137,139,140,140,140,137,137,137,139,12,11,11,153,154,155,156,153,11,10,12,12,11,11,11,11,12,12,11,9,10,12,11,12,9,12,9,9,11,9,139,139,139,139,137,11,9,11,9,9,11,11,139,138,
139,137,10,10,12,9,11,12,138,137,139,139,138,138,138,137,137,139,138,139,140,11,11,10,154,155,156,12,12,11,12,10,11,9,9,10,11,12,10,11,12,9,11,12,11,12,12,9,11,137,140,138,140,138,138,138,12,10,9,11,11,10,139,138,
140,139,11,11,12,9,11,140,139,139,139,138,137,138,140,138,139,140,138,139,140,139,11,10,10,10,12,9,10,11,12,10,11,10,9,11,12,9,11,10,9,11,12,11,10,10,10,11,138,137,139,138,140,137,137,140,139,12,10,12,11,9,139,139,
137,139,12,10,9,9,11,138,139,137,140,138,138,137,137,138,139,140,138,137,139,137,9,11,11,9,12,10,9,12,9,10,12,12,10,9,11,10,10,11,11,10,10,10,9,10,9,140,139,138,140,138,137,140,139,140,140,138,11,12,12,9,140,140,
137,139,12,12,9,10,11,140,140,140,137,137,138,137,137,139,140,140,139,139,138,140,9,11,12,9,11,11,9,11,10,10,11,10,10,12,11,9,12,11,9,10,9,12,10,11,11,138,138,139,138,137,138,139,138,138,137,139,10,10,10,12,139,138,
137,139,10,9,12,10,11,9,140,140,139,138,137,137,137,140,138,139,139,138,139,9,10,10,9,12,11,12,10,11,11,9,10,12,10,10,11,12,12,10,9,9,9,12,10,10,12,138,137,137,140,139,140,140,138,137,140,138,10,11,11,11,138,139,
139,138,10,12,11,11,10,9,10,137,137,137,140,138,137,140,139,139,139,137,10,10,11,12,10,9,12,10,10,11,9,10,9,12,10,10,12,10,9,9,10,11,10,9,12,11,11,137,137,137,137,139,137,137,140,138,140,138,11,11,10,12,137,137,
137,140,10,10,12,9,11,10,9,9,137,139,139,138,139,137,138,140,139,10,12,9,10,9,10,10,12,12,10,12,11,12,12,9,11,9,10,12,11,9,12,11,154,155,9,9,9,10,139,138,137,138,140,138,137,139,137,10,9,11,9,11,137,137,
138,138,9,10,9,9,9,12,10,9,12,12,139,140,137,138,138,11,12,10,10,11,9,12,9,11,11,12,12,10,9,12,12,12,12,11,11,11,10,9,12,153,154,155,156,10,10,10,10,139,138,140,139,137,138,140,11,12,10,12,11,9,139,137,
137,139,10,10,9,11,11,12,12,10,12,10,10,9,12,11,12,10,11,11,9,12,12,11,10,11,10,11,11,11,9,10,11,10,11,9,11,10,12,12,9,153,154,155,156,10,12,11,12,10,138,137,139,138,138,9,9,10,11,139,138,137,138,137,
140,140,137,137,139,137,12,9,10,11,10,9,10,9,11,9,10,10,12,9,11,12,11,11,10,11,9,10,9,12,12,9,9,12,12,12,12,12,9,11,11,9,154,155,11,11,10,10,9,10,12,11,12,12,11,12,9,11,140,138,140,139,138,140,
138,137,140,139,139,138,137,12,12,11,12,12,9,12,10,9,10,9,10,12,12,12,9,9,10,11,9,11,11,11,11,11,9,11,10,12,12,9,11,10,11,9,11,12,11,10,9,11,12,9,9,12,12,11,11,10,12,137,137,137,137,137,139,140,
139,139,139,138,137,140,139,12,11,10,9,9,11,12,9,10,11,9,12,12,9,9,12,12,10,11,10,10,11,11,9,12,10,10,9,11,9,9,11,10,11,9,12,10,10,12,12,11,10,11,11,12,12,11,11,10,10,137,137,140,140,138,139,140,
139,139,137,137,138,137,137,11,12,9,10,10,9,9,10,9,12,11,9,11,10,10,11,11,9,9,11,12,10,11,10,10,12,12,11,9,11,12,9,10,9,9,12,12,11,11,9,11,10,9,12,10,10,9,10,9,12,11,139,138,139,139,138,138,
138,138,139,139,138,137,139,137,140,137,137,137,138,137,139,137,140,137,137,140,138,137,140,138,139,140,137,137,11,10,10,12,12,9,140,138,137,139,139,137,137,137,140,140,138,140,138,138,138,139,138,138,138,138,137,140,140,139,140,139,139,137,140,140,
139,137,138,137,140,140,140,138,140,140,138,138,139,140,140,138,139,137,137,137,139,137,140,137,139,138,137,137,12,9,12,12,11,10,137,137,140,138,137,140,140,140,139,138,140,138,139,137,138,138,138,139,139,139,140,138,138,138,137,138,138,137,140,139
</data>
 </layer>
 <objectgroup id="2" name="Units/Buildings">
  <object id="260" template="../../buildings/P_City_Hall.tx" x="480" y="912"/>
  <object id="261" template="../../buildings/P_Farm.tx" x="352" y="992"/>
  <object id="262" template="../../buildings/P_Farm.tx" x="384" y="992"/>
  <object id="263" template="../../buildings/P_Farm.tx" x="416" y="992"/>
  <object id="264" template="../../units/P_Worker.tx" x="496" y="816"/>
  <object id="265" template="../../units/P_Worker.tx" x="544" y="848"/>
  <object id="266" template="../../units/P_Worker.tx" x="448" y="848"/>
  <object id="267" template="../../units/P_Worker.tx" x="448" y="912"/>
  <object id="268" template="../../buildings/C_City_Hall.tx" x="464" y="112"/>
  <object id="269" template="../../buildings/C_Farm.tx" x="672" y="80"/>
  <object id="270" template="../../buildings/C_Farm.tx" x="672" y="112"/>
  <object id="271" template="../../buildings/C_Farm.tx" x="672" y="144"/>
  <object id="272" template="../../buildings/C_Farm.tx" x="464" y="224"/>
  <object id="273" template="../../buildings/C_Farm.tx" x="512" y="256"/>
  <object id="274" template="../../buildings/C_Stables.tx" x="416" y="320"/>
  <object id="275" template="../../buildings/C_Blacksmith.tx" x="288" y="192"/>
  <object id="277" template="../../buildings/C_Barracks.tx" x="400" y="208"/>
  <object id="278" template="../../buildings/C_Turret.tx" x="608" y="416"/>
  <object id="279" template="../../buildings/C_Turret.tx" x="304" y="336"/>
  <object id="280" template="../../units/C_Worker.tx" x="528" y="64"/>
  <object id="281" template="../../units/C_Worker.tx" x="528" y="96"/>
 </objectgroup>
</map>
