<?xml version="1.0" encoding="UTF-8"?>
<map version="1.10" tiledversion="1.12.1" orientation="orthogonal" renderorder="right-down" width="64" height="64" tilewidth="16" tileheight="16" infinite="0" nextlayerid="5" nextobjectid="227">
 <editorsettings>
  <export target="../../../../assets/map/initial/init4.fgm" format="Future Glimpses map (*.fgm)"/>
 </editorsettings>
 <properties>
  <property name="AI_MODE" type="int" propertytype="AI_MODE" value="0"/>
  <property name="ENABLE_BARRACKS" type="bool" value="true"/>
  <property name="ENABLE_BLACKSMITH" type="bool" value="true"/>
  <property name="ENABLE_FARM" type="bool" value="true"/>
  <property name="ENABLE_STABLES" type="bool" value="true"/>
  <property name="ENABLE_TOWER" type="bool" value="true"/>
  <property name="ENABLE_TURRET" type="bool" value="false"/>
  <property name="ENABLE_UPGRADE_ARCHER" type="bool" value="false"/>
  <property name="ENABLE_UPGRADE_KNIGHT" type="bool" value="false"/>
  <property name="ENABLE_UPGRADE_MAGE" type="bool" value="false"/>
  <property name="ENABLE_UPGRADE_SOLDIER" type="bool" value="false"/>
  <property name="MAP_CODE" value="4ZXG4SK3"/>
  <property name="MSG_DESCRIPTION" value="Crea una torre y desde ella magos para frenar las torretas de los magos enemigos."/>
  <property name="MSG_LOSE" value="No has logrado recuperar tu imperio..."/>
  <property name="MSG_TITLE" value="4.Magos"/>
  <property name="MSG_WIN" value="Ya dominas a tus magos."/>
  <property name="PEACE_TIME" type="int" value="0"/>
  <property name="RES_GOLD_COMPUTER" type="int" value="0"/>
  <property name="RES_GOLD_PLAYER" type="int" value="1000"/>
  <property name="RES_WOOD_COMPUTER" type="int" value="0"/>
  <property name="RES_WOOD_PLAYER" type="int" value="500"/>
  <property name="UPGRADED_ARCHER_COMPUTER" type="bool" value="false"/>
  <property name="UPGRADED_ARCHER_PLAYER" type="bool" value="false"/>
  <property name="UPGRADED_KNIGHT_COMPUTER" type="bool" value="false"/>
  <property name="UPGRADED_KNIGHT_PLAYER" type="bool" value="false"/>
  <property name="UPGRADED_MAGE_COMPUTER" type="bool" value="false"/>
  <property name="UPGRADED_MAGE_PLAYER" type="bool" value="false"/>
  <property name="UPGRADED_SOLDIER_COMPUTER" type="bool" value="false"/>
  <property name="UPGRADED_SOLDIER_PLAYER" type="bool" value="false"/>
  <property name="WIN_CODE" value="32FQKRXA"/>
 </properties>
 <tileset firstgid="1" source="../../tileset.tsx"/>
 <tileset firstgid="257" source="../../units/units.tsx"/>
 <tileset firstgid="267" source="../../buildings/big_buildings.tsx"/>
 <tileset firstgid="273" source="../../buildings/small_buildings.tsx"/>
 <layer id="1" name="Map" width="64" height="64">
  <data encoding="csv">
129,130,131,132,129,130,131,132,129,130,131,132,129,130,130,130,130,131,130,130,130,131,132,130,130,130,130,131,132,132,132,132,132,132,132,132,132,132,132,132,132,132,130,130,130,130,131,132,129,130,131,131,131,132,129,130,129,130,131,132,129,130,131,132,
129,130,130,130,130,131,132,129,130,131,131,131,132,129,130,130,130,130,130,130,130,130,130,130,130,130,130,130,130,130,130,130,130,130,130,130,130,130,130,130,130,130,132,130,130,130,131,132,129,130,131,131,131,132,129,130,129,130,131,132,129,130,131,132,
129,130,130,130,130,131,132,129,130,131,131,131,132,129,130,131,131,131,131,131,131,131,131,131,131,131,131,131,131,131,131,131,130,130,130,130,130,130,130,130,130,130,130,131,132,129,130,131,131,131,132,129,130,132,129,130,129,130,131,132,129,130,131,132,
129,130,130,130,130,131,132,129,130,131,131,131,132,129,130,131,131,131,131,131,131,131,131,131,131,131,131,131,131,130,130,130,132,132,132,132,132,132,132,132,130,130,130,130,131,132,129,130,131,131,131,132,129,130,129,130,129,130,131,132,129,130,131,132,
129,130,130,130,130,131,132,129,130,131,131,131,132,129,130,131,131,131,131,131,131,131,131,131,131,130,130,130,130,132,132,132,130,130,130,130,130,130,130,130,132,130,130,130,130,131,132,129,130,131,131,131,132,129,130,131,129,130,131,132,129,130,131,132,
129,130,130,130,130,130,131,132,129,130,131,131,131,132,129,130,131,131,131,131,130,130,130,130,130,132,132,132,132,130,130,130,130,130,130,130,130,130,130,130,130,132,130,130,130,130,131,132,129,130,131,131,131,132,129,130,129,130,131,132,129,130,131,132,
129,130,132,130,130,130,130,131,132,129,130,131,131,131,132,130,130,130,130,130,132,132,132,132,132,130,130,130,130,130,130,130,130,130,130,130,130,130,130,130,130,130,132,130,130,130,130,131,132,129,130,131,131,131,132,129,130,130,131,132,129,130,131,132,
129,130,130,132,132,130,130,130,130,130,130,130,130,130,130,132,132,132,132,132,130,130,130,130,130,130,130,130,130,130,130,130,132,132,132,132,132,132,132,132,130,130,130,132,130,130,130,131,132,129,130,131,131,131,132,129,130,130,131,132,129,130,131,132,
129,130,130,130,130,132,132,132,132,132,132,132,132,132,132,130,130,130,130,130,130,130,130,130,130,130,130,130,130,132,132,132,129,130,131,131,131,131,131,132,132,130,130,130,130,130,130,130,131,132,129,130,131,131,131,132,129,130,131,132,129,130,131,132,
129,130,130,130,130,130,130,130,130,130,130,130,130,130,130,130,130,130,130,130,130,130,130,130,130,132,132,132,132,129,130,131,131,131,131,131,132,129,130,131,130,132,130,130,132,130,130,130,131,132,129,130,131,131,131,132,129,130,131,132,129,130,131,132,
129,130,132,130,130,130,130,130,130,130,130,130,130,130,130,130,130,130,130,130,132,132,132,132,132,129,130,131,131,131,131,131,132,129,130,131,130,130,131,132,130,130,132,130,130,130,130,130,131,132,129,130,131,131,131,132,129,130,131,132,129,130,131,132,
129,130,131,132,132,130,130,130,130,130,130,130,130,130,130,132,132,132,132,132,129,130,131,131,131,131,131,132,129,130,131,130,129,130,131,130,131,130,131,130,130,130,131,132,130,130,130,130,131,132,129,130,131,131,131,132,129,130,131,132,129,130,131,132,
129,130,131,132,129,132,132,132,132,132,132,132,132,132,132,129,130,131,131,131,131,131,132,129,130,131,130,131,130,131,132,129,130,131,131,131,132,130,130,130,130,131,132,129,130,132,130,130,130,131,132,129,130,131,131,131,132,129,130,132,129,130,131,132,
129,130,131,137,138,139,140,132,129,130,131,137,137,138,139,137,138,139,140,130,130,130,131,132,129,130,130,130,130,131,132,129,130,131,131,131,131,131,130,131,132,129,130,131,132,130,130,130,130,131,132,129,130,131,131,131,132,129,130,132,129,130,131,132,
129,130,131,137,138,139,140,140,129,137,137,138,139,140,130,137,138,139,140,130,131,130,131,132,130,130,130,130,131,132,129,130,131,131,130,131,131,129,130,131,131,131,131,131,131,130,130,130,130,131,132,129,130,131,131,131,132,129,130,132,129,130,131,132,
129,130,131,132,137,138,137,137,137,138,139,140,130,131,130,137,138,139,140,130,130,131,132,205,205,205,130,131,132,129,130,131,131,132,129,130,131,205,205,205,131,131,131,131,130,130,132,130,130,130,131,132,129,130,131,131,131,132,129,130,129,130,131,132,
129,130,131,132,137,137,137,138,139,140,131,132,130,131,137,138,139,140,140,130,131,132,129,205,68,205,130,131,132,129,130,131,131,132,129,130,131,205,68,205,131,130,130,130,130,132,130,130,130,130,131,132,129,130,131,131,131,132,129,130,130,130,131,132,
129,130,131,132,137,138,139,140,138,139,140,132,137,137,138,139,140,140,130,130,131,132,129,205,205,205,130,131,132,129,130,131,129,130,130,130,130,205,205,205,130,130,130,130,130,130,130,132,130,130,130,131,132,129,130,131,131,131,132,129,130,130,131,132,
129,130,131,137,138,139,140,137,137,138,137,138,139,140,137,138,139,140,140,140,140,129,130,195,195,195,130,131,132,129,130,131,130,130,130,130,130,195,195,195,130,131,132,130,130,130,130,130,130,130,130,131,132,129,130,131,131,131,132,129,130,130,131,132,
129,130,137,138,139,140,131,132,137,137,137,137,137,137,137,137,137,137,137,138,139,140,130,195,195,195,130,130,131,132,129,130,130,130,130,130,131,195,195,195,131,131,131,130,130,130,132,130,132,130,130,130,131,132,129,130,131,131,131,132,129,130,130,131,
129,130,137,138,139,140,140,140,129,130,137,137,137,138,139,140,130,130,130,131,132,130,130,196,196,196,130,130,131,132,130,130,130,130,130,130,131,196,196,196,131,131,131,131,130,130,131,130,130,132,130,130,130,131,132,129,130,131,131,131,132,129,130,131,
129,130,131,132,137,138,139,140,140,130,131,137,138,139,140,140,140,140,130,130,130,130,130,131,132,129,130,131,131,131,131,131,131,131,131,130,130,130,131,132,129,130,131,130,130,130,131,132,130,130,130,130,130,130,131,132,129,130,131,131,131,132,129,130,
130,131,132,129,130,137,138,139,140,140,140,140,140,195,195,195,195,195,195,195,195,195,195,195,195,195,195,195,195,195,195,195,195,195,195,195,195,195,195,195,195,195,195,195,130,130,130,131,130,130,132,130,130,130,131,132,129,130,131,131,131,132,129,130,
130,131,132,129,130,131,131,131,131,131,131,131,131,195,196,196,196,196,196,196,196,196,196,196,196,196,196,196,196,196,196,196,196,196,196,196,196,196,196,196,196,196,196,195,130,130,131,132,132,130,130,132,130,130,130,130,131,132,129,130,131,131,131,132,
130,131,132,129,130,131,132,195,195,195,195,195,131,195,2,2,2,2,22,11,12,9,10,11,9,10,11,12,9,10,11,12,9,42,2,3,2,3,2,2,1,1,2,195,130,130,130,132,130,132,130,130,132,130,130,130,130,131,132,129,130,131,131,131,
130,131,132,195,195,195,195,195,196,196,196,196,195,195,2,2,2,2,38,11,12,12,12,12,12,12,12,12,12,12,12,12,12,42,3,2,1,2,2,1,3,1,3,195,130,130,131,132,130,131,130,130,130,132,132,130,130,131,132,129,130,131,131,131,
129,130,131,195,196,196,196,196,22,23,23,24,196,196,2,2,2,22,9,9,10,195,205,205,205,205,205,205,205,205,205,205,205,205,205,205,205,205,205,205,205,195,2,195,130,130,130,130,130,131,132,130,130,130,130,130,131,132,129,130,131,131,131,131,
129,130,131,195,22,23,23,23,9,10,11,12,23,23,24,2,22,12,9,10,11,195,196,196,196,196,196,196,196,196,196,196,196,196,196,196,196,196,196,196,196,195,2,195,130,130,130,130,130,131,130,132,130,130,130,130,131,132,129,130,131,131,129,130,
129,130,131,195,38,9,9,9,9,10,11,12,9,10,40,2,54,12,9,10,11,195,130,131,131,129,130,131,132,129,130,130,130,130,130,129,129,129,131,129,129,195,1,195,129,130,130,130,130,131,130,131,132,130,130,131,132,129,130,131,131,131,132,129,
129,130,131,195,38,153,154,154,154,10,11,12,9,10,40,2,2,38,12,9,10,195,130,131,132,129,130,131,132,129,130,131,132,129,129,129,129,129,129,129,129,195,1,195,129,131,129,130,130,131,130,130,130,132,132,129,130,131,131,131,131,131,132,129,
131,132,129,195,38,153,154,154,154,10,11,12,9,10,40,2,2,54,12,9,10,195,130,131,132,129,130,131,132,129,130,131,132,129,129,129,129,129,129,129,129,195,1,195,129,129,129,129,129,129,129,130,130,130,131,130,131,130,131,132,129,130,131,130,
131,132,129,195,38,10,11,12,9,10,11,12,9,10,40,2,2,2,54,195,195,195,140,140,130,131,132,129,130,131,132,132,132,129,129,129,129,129,129,129,129,195,1,195,129,129,129,129,129,129,129,130,130,130,130,130,131,130,131,132,129,130,131,130,
131,132,129,195,38,10,11,12,9,10,11,12,9,10,40,2,22,23,195,195,196,195,139,140,131,205,205,205,131,132,129,130,131,132,132,129,205,205,205,129,129,195,1,195,129,130,132,129,205,205,205,130,130,130,130,131,130,131,132,129,130,131,130,132,
138,139,140,195,38,10,11,12,9,10,11,12,9,10,11,42,38,11,196,196,138,195,140,130,131,205,68,205,131,132,129,130,131,132,132,129,205,68,205,130,129,195,2,195,132,129,130,132,205,68,205,130,130,130,130,131,130,131,132,129,130,131,130,132,
138,139,140,195,38,10,11,12,9,10,11,12,9,10,9,24,2,11,137,137,138,195,140,130,131,205,205,205,130,130,132,129,130,130,132,129,205,205,205,129,130,195,1,195,131,132,129,130,205,205,205,130,130,130,131,130,131,132,129,130,131,130,131,132,
138,139,140,195,38,10,11,12,9,9,10,11,12,10,9,9,9,12,137,138,139,195,129,130,131,195,195,195,130,130,132,129,130,130,132,129,195,195,195,129,130,195,2,195,131,132,129,130,195,195,195,130,130,130,131,130,131,132,129,130,131,130,131,132,
138,139,140,195,38,10,11,12,9,9,10,11,12,10,9,9,9,137,137,138,139,195,129,130,131,195,195,195,130,130,132,129,130,130,132,129,195,195,195,129,130,195,2,195,130,132,129,130,195,195,195,130,130,130,131,130,131,132,129,130,131,130,131,132,
138,139,140,195,38,10,11,12,9,9,10,11,9,9,9,9,137,137,138,139,140,195,129,130,131,196,196,196,130,130,132,129,130,130,132,129,196,196,196,129,130,195,1,195,130,132,129,130,196,196,196,129,129,130,130,132,129,130,131,132,129,130,131,132,
131,132,129,195,54,55,55,55,9,9,10,11,9,9,9,137,137,138,139,140,129,195,129,130,131,132,129,130,130,130,132,129,130,130,132,129,130,130,132,129,130,195,3,195,131,129,130,132,129,130,130,132,129,130,130,132,129,130,131,132,129,130,131,132,
131,132,129,195,129,129,130,131,55,55,55,55,55,9,137,137,138,139,140,129,129,195,130,131,132,129,130,132,130,130,132,129,130,130,132,129,130,130,132,129,130,195,1,195,132,129,130,132,129,130,130,132,129,130,130,132,129,130,131,132,129,130,131,132,
131,132,129,195,129,129,130,131,132,129,130,131,132,54,137,138,139,140,129,129,130,195,132,129,130,132,129,130,130,130,132,129,130,130,132,129,130,130,132,129,130,195,3,195,132,129,130,132,129,130,130,132,130,130,132,129,130,130,132,129,130,130,132,129,
131,131,132,195,129,129,130,131,132,129,130,131,130,130,130,129,129,129,129,130,131,195,129,130,132,129,130,130,130,130,132,129,130,130,132,129,130,130,132,129,130,195,3,195,132,129,130,132,129,130,130,130,130,130,132,129,130,130,132,129,130,130,132,129,
131,131,132,195,130,130,131,132,129,130,130,130,130,130,130,129,129,129,130,131,132,195,130,132,129,130,130,132,130,130,132,129,130,130,132,129,130,130,132,129,130,195,1,195,132,129,130,130,130,132,129,130,130,130,132,129,130,130,132,129,130,130,132,129,
131,131,132,195,195,195,195,195,195,195,195,195,195,195,195,195,195,195,195,195,195,195,130,132,129,130,130,132,130,130,132,129,130,130,132,129,130,130,132,129,130,195,1,195,132,130,130,132,129,130,130,130,130,130,130,132,129,130,130,132,129,130,130,132,
130,131,132,196,196,196,196,196,196,196,196,196,196,196,196,196,196,196,196,196,196,196,129,130,130,132,129,131,130,130,132,129,130,130,132,129,130,130,132,129,130,195,3,195,132,130,130,132,129,130,130,130,130,130,130,132,129,130,130,132,129,130,130,132,
130,130,131,129,130,130,131,132,129,130,130,130,130,130,130,130,131,130,131,132,129,130,130,131,132,132,130,131,130,130,132,129,130,130,132,129,130,130,132,129,130,195,2,195,130,130,132,129,130,130,130,130,130,130,130,132,129,130,130,132,129,130,130,132,
130,131,132,129,130,130,131,132,129,130,130,130,130,130,130,130,131,130,131,132,129,130,130,131,132,132,130,131,130,130,132,129,130,130,132,129,130,130,132,129,130,195,1,195,130,130,132,129,130,130,130,130,130,130,130,132,129,130,130,132,129,130,130,132,
130,131,132,129,130,130,131,132,129,130,130,130,130,131,132,129,130,130,131,132,129,130,130,131,132,132,130,131,130,130,132,129,130,130,132,129,130,130,132,129,130,195,3,195,130,132,129,130,130,132,130,130,130,130,130,132,129,130,130,132,129,130,130,132,
130,131,132,129,130,130,131,132,129,130,130,131,132,129,130,130,131,130,131,132,129,130,130,131,132,132,130,131,130,130,132,129,130,130,132,129,130,130,132,129,130,195,1,195,130,132,129,130,130,130,130,130,130,130,130,132,129,130,130,132,129,130,130,132,
130,131,132,129,130,130,131,132,129,130,130,131,132,129,130,130,131,130,131,132,129,130,130,131,132,129,130,131,130,130,132,129,130,130,132,129,130,130,132,129,130,195,1,195,130,132,129,130,130,130,130,130,130,130,130,132,129,130,130,132,129,130,130,132,
130,131,132,129,130,130,131,132,129,130,130,131,132,129,130,130,131,132,129,130,129,129,130,131,132,129,130,131,130,130,132,205,205,205,132,129,205,205,205,129,130,195,3,195,130,132,129,130,130,205,205,205,132,130,130,132,129,130,130,132,129,130,130,132,
130,131,132,129,130,130,131,132,129,130,130,131,132,129,130,130,131,132,129,130,129,129,130,131,132,129,130,131,130,130,132,205,68,205,132,129,205,68,205,129,130,195,2,195,130,130,132,130,130,205,68,205,132,130,130,132,129,130,130,132,129,130,130,132,
130,131,132,129,130,130,131,132,129,130,130,131,132,129,130,130,131,132,129,130,129,129,130,131,132,129,130,131,130,130,132,205,205,205,132,129,205,205,205,129,130,195,2,195,130,130,130,130,130,205,205,205,132,130,130,132,129,130,130,132,129,130,130,132,
130,131,132,129,130,130,131,132,129,130,130,131,132,129,130,130,131,132,129,130,129,129,130,131,132,129,130,131,130,130,132,195,195,195,132,129,195,195,195,129,130,195,3,195,130,130,130,130,130,195,195,195,130,130,132,129,130,130,132,129,130,130,132,129,
130,131,132,129,130,130,131,132,129,130,130,131,132,129,130,130,131,132,129,130,129,130,130,132,129,130,130,132,130,130,132,195,195,195,132,129,195,195,195,129,130,195,1,195,130,130,130,130,130,195,195,195,130,130,132,129,130,130,132,129,130,130,132,129,
130,131,132,129,130,130,131,132,129,130,130,131,132,129,130,130,131,132,129,130,129,130,130,132,129,130,130,132,130,130,132,196,196,196,132,129,196,196,196,129,130,195,3,195,130,130,130,130,130,196,196,196,130,130,132,129,130,130,132,129,130,130,132,129,
130,131,132,129,130,130,131,132,129,130,130,131,132,129,130,130,131,132,129,130,129,130,130,132,129,130,130,132,130,130,132,129,130,130,132,129,130,130,132,129,130,195,195,195,130,130,130,130,130,132,129,130,130,130,132,129,130,130,132,129,130,130,132,129,
130,131,132,129,130,130,131,132,129,130,130,131,132,129,130,130,131,132,129,130,129,130,130,132,129,130,130,132,130,130,132,129,130,130,132,129,130,130,132,129,130,196,196,196,130,130,130,130,132,129,130,130,130,130,132,129,130,130,132,129,130,130,132,129,
130,131,132,129,130,130,131,132,129,130,130,131,132,129,130,130,131,132,129,130,129,130,130,132,129,130,130,132,130,130,132,129,130,130,132,129,130,130,132,129,130,1,1,3,130,130,130,132,129,130,130,132,130,130,132,129,130,130,132,129,130,130,132,129,
130,131,132,129,130,130,131,132,129,130,130,131,132,129,130,130,131,132,129,130,129,130,130,132,129,130,130,132,130,130,132,129,130,130,132,129,130,130,132,129,130,1,1,2,130,130,130,132,129,130,130,132,129,130,130,132,129,130,131,132,129,130,131,132,
130,131,132,129,130,130,131,132,129,130,130,131,132,129,130,130,131,132,129,130,129,130,130,132,129,130,130,132,130,130,132,129,130,130,132,129,130,130,132,129,130,2,1,2,129,130,130,132,129,130,130,132,129,130,130,132,129,130,131,132,129,130,131,132,
130,131,132,129,130,130,131,132,129,130,130,131,132,129,130,130,131,132,129,130,129,130,130,132,129,130,130,132,130,130,132,129,130,130,132,129,130,130,132,129,130,2,3,2,129,130,130,130,129,130,130,132,129,130,130,132,129,130,131,132,129,130,131,132,
130,131,132,129,130,130,131,132,129,130,130,131,132,129,130,130,131,132,129,130,129,130,130,132,129,130,130,132,129,130,130,132,129,130,130,132,129,130,130,132,130,3,2,3,129,130,130,132,129,130,130,132,129,130,130,132,129,130,131,132,129,130,131,132,
129,130,131,132,129,130,131,132,129,130,131,132,129,130,131,132,129,130,131,132,129,130,130,132,129,130,130,132,129,130,130,132,129,130,130,132,129,130,130,132,129,130,130,132,129,130,130,132,129,130,130,132,129,130,130,132,129,130,131,132,129,130,131,132
</data>
 </layer>
 <objectgroup id="2" name="Units/Buildings">
  <object id="168" template="../../buildings/P_City_Hall.tx" x="80" y="576"/>
  <object id="169" template="../../units/P_Worker.tx" x="80" y="512"/>
  <object id="170" template="../../units/P_Worker.tx" x="96" y="512"/>
  <object id="171" template="../../units/P_Worker.tx" x="112" y="512"/>
  <object id="172" template="../../units/P_Worker.tx" x="96" y="528"/>
  <object id="180" template="../../buildings/P_Barracks.tx" x="176" y="544"/>
  <object id="181" template="../../buildings/P_Farm.tx" x="224" y="416"/>
  <object id="182" template="../../buildings/P_Farm.tx" x="192" y="464"/>
  <object id="183" template="../../buildings/P_Farm.tx" x="256" y="416"/>
  <object id="184" template="../../buildings/P_Farm.tx" x="224" y="448"/>
  <object id="213" template="../../buildings/P_Farm.tx" x="256" y="448"/>
  <object id="216" template="../../buildings/P_Blacksmith.tx" x="256" y="576"/>
  <object id="217" template="../../buildings/P_Stables.tx" x="144" y="464"/>
  <object id="218" template="../../units/C_Mage.tx" x="384" y="272"/>
  <object id="219" template="../../units/C_Mage.tx" x="416" y="544"/>
  <object id="220" template="../../units/C_Mage.tx" x="608" y="272"/>
  <object id="222" template="../../units/C_Mage.tx" x="592" y="544"/>
  <object id="223" template="../../units/C_Mage.tx" x="784" y="544"/>
  <object id="224" template="../../units/C_Mage.tx" x="800" y="832"/>
  <object id="226" template="../../units/C_Mage.tx" x="592" y="832"/>
 </objectgroup>
</map>
