<?xml version="1.0" encoding="UTF-8"?>
<map version="1.10" tiledversion="1.12.1" orientation="orthogonal" renderorder="right-down" width="64" height="64" tilewidth="16" tileheight="16" infinite="0" nextlayerid="5" nextobjectid="260">
 <editorsettings>
  <export target="../../../../assets/map/initial/init5.fgm" format="Future Glimpses map (*.fgm)"/>
 </editorsettings>
 <properties>
  <property name="AI_MODE" type="int" propertytype="AI_MODE" value="2"/>
  <property name="ENABLE_BARRACKS" type="bool" value="false"/>
  <property name="ENABLE_BLACKSMITH" type="bool" value="false"/>
  <property name="ENABLE_FARM" type="bool" value="false"/>
  <property name="ENABLE_STABLES" type="bool" value="false"/>
  <property name="ENABLE_TOWER" type="bool" value="false"/>
  <property name="ENABLE_TURRET" type="bool" value="true"/>
  <property name="ENABLE_UPGRADE_ARCHER" type="bool" value="false"/>
  <property name="ENABLE_UPGRADE_KNIGHT" type="bool" value="false"/>
  <property name="ENABLE_UPGRADE_MAGE" type="bool" value="false"/>
  <property name="ENABLE_UPGRADE_SOLDIER" type="bool" value="false"/>
  <property name="MAP_CODE" value="7T5AYTVU"/>
  <property name="MSG_DESCRIPTION" value="Crea torretas para defenderte de los enemigos que vendrán a por ti. Usa tus caballeros para repeler a los magos."/>
  <property name="MSG_LOSE" value="No has logrado recuperar tu imperio..."/>
  <property name="MSG_TITLE" value="5.Torretas"/>
  <property name="MSG_WIN" value="Ya dominas las torretas."/>
  <property name="PEACE_TIME" type="int" value="60"/>
  <property name="RES_GOLD_COMPUTER" type="int" value="0"/>
  <property name="RES_GOLD_PLAYER" type="int" value="3000"/>
  <property name="RES_WOOD_COMPUTER" type="int" value="0"/>
  <property name="RES_WOOD_PLAYER" type="int" value="600"/>
  <property name="UPGRADED_ARCHER_COMPUTER" type="bool" value="false"/>
  <property name="UPGRADED_ARCHER_PLAYER" type="bool" value="false"/>
  <property name="UPGRADED_KNIGHT_COMPUTER" type="bool" value="false"/>
  <property name="UPGRADED_KNIGHT_PLAYER" type="bool" value="false"/>
  <property name="UPGRADED_MAGE_COMPUTER" type="bool" value="false"/>
  <property name="UPGRADED_MAGE_PLAYER" type="bool" value="false"/>
  <property name="UPGRADED_SOLDIER_COMPUTER" type="bool" value="false"/>
  <property name="UPGRADED_SOLDIER_PLAYER" type="bool" value="false"/>
  <property name="WIN_CODE" value="UNZEF5AC"/>
 </properties>
 <tileset firstgid="1" source="../../tileset.tsx"/>
 <tileset firstgid="257" source="../../units/units.tsx"/>
 <tileset firstgid="267" source="../../buildings/big_buildings.tsx"/>
 <tileset firstgid="273" source="../../buildings/small_buildings.tsx"/>
 <layer id="1" name="Map" width="64" height="64">
  <data encoding="csv">
138,140,139,139,140,137,139,137,140,137,137,140,140,139,140,138,137,139,138,137,138,140,140,137,140,139,140,139,137,138,137,138,140,138,138,139,137,139,139,139,140,137,138,138,139,139,140,138,140,137,139,139,137,137,137,137,140,140,138,137,140,137,138,139,
140,137,138,140,137,138,137,140,137,140,140,139,138,140,140,138,140,138,138,140,138,139,139,140,139,139,140,137,139,140,140,139,140,137,139,137,139,140,139,140,138,138,140,139,139,139,139,138,139,138,138,139,137,138,139,137,137,139,137,140,140,139,139,137,
137,137,139,140,140,139,140,139,138,137,137,139,137,138,140,140,140,137,138,137,137,139,139,137,139,139,138,137,139,140,139,139,137,138,137,137,139,138,139,137,138,137,140,138,137,138,137,139,139,137,140,140,139,137,138,140,140,138,137,139,138,139,139,139,
137,140,137,140,139,140,138,140,139,137,139,140,140,139,139,137,137,139,139,138,139,138,139,140,137,139,140,138,137,138,139,138,137,138,137,139,137,138,139,138,138,140,139,138,137,138,139,140,137,137,137,139,138,137,138,140,138,140,138,137,138,140,140,140,
140,139,139,138,139,138,139,140,139,137,137,138,137,139,138,139,138,138,137,138,138,138,137,138,139,137,138,140,139,139,139,140,139,137,137,140,138,139,137,139,138,140,139,137,137,140,138,137,139,138,137,138,139,138,137,137,137,140,139,139,138,139,138,140,
137,138,140,140,138,140,140,139,137,137,139,137,140,138,138,140,138,138,138,137,139,138,138,137,140,139,139,139,139,138,139,138,137,138,138,140,138,137,139,138,140,139,138,140,140,138,139,138,139,140,137,139,137,140,139,137,139,140,138,140,137,138,137,137,
140,138,140,137,137,140,139,138,138,137,137,140,138,138,140,140,138,138,140,140,138,138,137,137,139,140,139,139,137,137,139,137,139,138,138,138,140,140,139,140,139,140,140,137,138,138,139,139,137,139,140,140,138,139,138,139,138,137,140,140,140,138,138,137,
139,140,137,137,140,138,140,139,140,138,138,138,137,138,137,137,138,137,138,138,137,137,139,139,137,138,139,140,137,140,138,139,137,138,140,137,137,138,139,139,139,138,137,140,138,137,139,140,138,140,139,139,140,137,137,139,137,140,139,139,138,137,140,137,
138,139,140,139,138,138,140,137,137,137,138,137,140,138,139,138,140,137,137,137,140,138,137,138,139,137,137,138,139,139,138,137,137,139,138,139,138,139,139,138,138,139,140,137,138,139,138,139,137,138,140,139,137,138,137,139,140,137,139,139,139,137,138,137,
140,140,137,140,138,137,140,139,139,138,140,138,139,140,140,138,137,140,138,137,138,138,138,137,140,139,137,140,139,137,140,137,137,137,138,137,139,139,140,137,140,140,140,138,138,137,139,139,139,140,139,138,137,138,139,137,139,138,138,140,140,139,139,138,
140,139,140,138,139,140,140,140,138,139,137,140,140,140,139,137,139,138,139,137,139,140,137,139,139,138,140,138,140,140,140,138,138,138,138,140,137,137,140,138,139,137,140,140,138,139,139,138,138,137,140,139,137,138,138,139,140,140,139,137,140,138,137,139,
139,138,138,137,138,137,137,137,139,138,137,140,138,139,138,138,137,140,140,139,137,139,139,140,137,140,138,139,140,139,140,138,137,140,137,138,137,140,140,139,139,140,140,139,140,140,140,139,138,139,140,140,140,138,140,139,137,139,137,138,140,140,138,137,
139,137,140,139,137,137,139,138,138,140,140,138,139,138,138,140,138,137,137,137,138,140,138,138,138,139,139,140,137,140,137,139,137,137,140,137,140,137,137,137,137,140,138,140,138,138,140,140,139,140,139,140,137,137,137,140,138,139,137,138,137,139,139,140,
140,139,137,140,139,139,137,137,138,139,137,138,139,140,139,139,138,137,138,137,138,137,140,138,140,138,139,140,140,137,140,138,140,140,138,138,138,137,137,139,140,137,139,140,138,139,138,138,139,140,140,140,140,137,137,140,137,138,138,138,140,137,138,137,
137,137,138,137,140,140,140,140,137,138,137,137,137,140,140,137,139,139,138,138,139,138,137,137,139,138,137,138,137,139,139,139,139,140,139,138,137,137,137,138,140,140,140,137,139,138,137,137,140,137,140,137,139,138,139,140,138,139,140,139,140,140,138,139,
140,140,140,139,140,139,139,137,139,138,139,139,139,139,137,138,140,137,139,140,138,137,140,139,138,139,140,139,139,139,140,140,140,140,140,138,137,139,140,139,137,138,140,140,139,138,137,140,138,140,138,138,140,139,138,140,140,138,138,137,140,140,137,138,
137,137,137,138,140,139,138,137,139,137,138,140,140,139,138,137,137,138,139,140,137,139,138,138,140,139,140,138,140,137,138,138,138,138,137,139,138,139,137,137,137,138,137,137,138,139,138,137,137,139,139,139,140,140,138,137,139,137,139,138,139,137,139,137,
137,140,139,138,137,139,138,140,137,139,137,137,139,140,138,140,139,140,140,138,139,137,140,137,137,137,137,140,140,139,138,140,140,138,139,138,139,137,140,137,137,139,139,138,137,138,140,137,137,140,140,139,138,137,140,139,139,139,138,140,139,137,140,139,
139,138,139,138,140,138,137,138,139,139,140,138,140,140,138,139,138,138,138,139,138,139,137,137,140,138,138,140,139,140,138,140,139,137,140,137,137,137,140,138,140,138,140,140,138,140,137,138,137,140,138,138,140,138,139,139,139,138,137,139,137,139,140,140,
138,138,138,140,137,137,139,140,139,140,140,140,140,139,140,140,137,139,140,140,139,138,140,138,137,137,137,139,139,139,139,139,138,138,138,137,140,140,138,140,139,137,139,138,140,139,137,139,140,137,138,137,137,139,138,137,138,137,140,138,140,139,139,137,
138,138,137,137,140,140,138,137,140,139,140,138,139,140,138,140,137,139,140,138,138,140,139,137,138,137,138,139,137,138,138,140,139,137,139,140,138,138,137,137,138,139,139,137,137,137,139,139,138,137,137,137,138,138,139,138,139,138,137,138,139,137,138,138,
137,139,140,137,138,137,137,137,138,139,137,137,137,137,140,138,139,139,137,139,140,140,139,137,137,138,140,139,140,138,139,137,138,138,137,140,140,139,137,138,137,140,139,138,138,140,138,138,138,138,140,138,139,139,139,138,138,137,140,139,140,139,140,138,
138,139,138,137,137,139,138,140,138,138,137,137,137,195,195,195,195,195,195,195,195,195,140,140,137,139,139,137,137,140,137,138,137,138,137,140,139,140,137,137,139,139,138,140,140,137,140,137,139,139,140,137,138,138,140,140,138,140,139,140,139,139,137,137,
138,138,140,139,137,140,138,140,138,140,139,140,140,195,196,196,195,195,195,195,195,195,139,140,140,139,137,140,138,138,138,140,139,140,137,139,138,138,137,137,137,139,139,139,137,137,139,138,139,137,140,12,12,12,11,10,12,12,12,11,140,138,138,137,
140,140,140,137,138,137,139,195,195,195,195,195,139,195,2,2,196,196,196,196,196,195,139,139,140,140,138,137,137,139,138,138,137,137,139,138,138,140,137,138,138,139,138,140,139,139,138,138,137,139,12,10,12,11,11,12,11,12,12,10,10,137,139,139,
137,140,140,195,195,195,195,195,196,196,196,196,195,195,2,2,2,2,38,11,10,195,138,137,140,137,140,137,137,140,140,139,140,140,137,137,140,137,140,138,139,140,138,139,139,137,138,138,140,137,12,10,10,10,10,11,11,12,11,12,10,138,140,140,
139,137,138,195,196,196,196,196,22,23,23,24,196,196,2,2,195,22,9,10,12,195,140,140,139,137,139,138,138,137,138,138,137,140,139,140,138,138,137,137,139,140,137,140,140,138,140,137,12,12,11,12,10,12,12,11,11,11,12,12,12,140,137,137,
138,138,137,195,22,23,23,23,9,10,11,12,23,23,24,2,195,195,195,195,195,195,139,139,140,139,140,140,138,137,140,139,139,140,138,138,138,137,137,137,140,140,139,138,138,140,139,137,10,11,12,12,10,11,12,12,12,11,11,12,12,139,137,137,
137,137,138,195,38,9,9,9,9,10,11,12,9,10,40,2,196,196,196,196,196,195,139,139,140,137,137,137,139,140,138,139,139,139,140,137,139,137,137,140,139,137,140,137,138,138,140,140,11,10,10,12,10,12,10,12,10,11,11,12,11,138,137,139,
139,137,137,195,38,153,154,154,154,10,11,12,9,10,40,2,2,54,55,55,55,196,55,55,55,55,55,55,55,55,55,55,55,55,55,55,55,55,55,55,55,55,55,55,55,55,55,55,11,10,11,12,12,12,11,12,11,12,10,10,11,137,137,137,
137,138,140,195,38,153,154,154,154,10,11,12,9,10,40,2,2,2,2,2,2,2,2,2,2,2,2,2,2,2,2,2,2,2,2,2,2,2,2,2,2,2,2,2,2,2,2,2,38,11,10,11,12,11,11,12,10,12,12,12,12,138,139,139,
140,139,139,195,38,10,11,12,9,10,11,12,9,10,40,2,2,2,2,2,2,2,2,2,2,2,2,2,2,2,2,2,2,2,2,2,2,2,2,2,2,2,2,2,2,2,2,2,38,11,11,11,11,10,12,12,10,11,12,10,12,139,137,139,
137,140,137,195,38,10,11,12,9,10,11,12,9,10,12,23,23,23,23,23,23,195,23,23,23,23,23,23,23,23,23,23,23,23,23,23,23,23,23,23,23,23,23,23,23,23,23,23,12,10,12,11,10,11,12,12,10,12,12,12,10,138,137,138,
139,138,138,195,38,10,11,12,9,10,11,12,9,10,11,10,10,195,195,195,195,195,140,137,138,139,140,139,139,140,139,140,137,139,138,140,137,139,140,140,137,139,138,137,139,140,140,10,10,12,10,12,11,12,12,10,12,12,12,12,10,137,139,138,
138,140,140,195,38,10,11,12,9,10,11,12,9,10,9,12,195,196,196,196,196,195,137,140,139,138,140,140,140,140,138,137,137,137,139,137,137,139,137,138,139,139,140,139,137,138,139,12,10,12,11,11,10,12,11,10,10,12,12,12,12,139,138,137,
137,138,138,195,38,10,11,12,9,9,10,11,12,10,9,9,196,11,10,11,10,195,140,137,137,139,138,138,137,140,140,137,140,138,138,140,138,137,140,138,137,137,139,140,137,138,137,11,12,12,12,11,10,11,10,12,12,10,11,11,10,140,137,137,
140,137,140,195,38,10,11,12,9,9,10,11,12,10,9,9,9,10,11,11,10,195,138,137,140,140,139,138,137,138,140,138,137,137,140,140,140,140,139,137,139,140,139,137,138,140,137,138,140,139,10,10,12,12,10,10,11,12,11,12,10,140,138,139,
140,140,139,195,38,10,11,12,9,9,10,11,9,9,9,9,137,140,138,140,138,195,138,140,137,137,139,139,137,139,138,139,139,140,140,138,139,140,140,137,137,139,137,140,138,140,138,140,140,137,12,11,12,11,10,12,11,12,12,12,12,137,140,137,
139,137,139,195,54,55,55,55,9,9,10,11,9,9,9,10,137,138,139,140,129,195,138,139,139,139,137,137,137,138,137,137,138,137,137,137,138,138,140,138,137,139,137,139,138,140,140,139,138,139,137,11,10,12,12,12,12,11,11,11,140,138,140,140,
137,138,139,195,129,129,130,131,55,55,55,55,55,9,137,137,138,139,140,129,129,195,139,137,138,140,138,137,140,139,137,140,139,138,140,140,140,140,138,139,140,139,137,140,137,138,137,138,140,140,137,137,139,138,138,139,137,137,140,138,140,140,140,140,
138,139,139,195,129,129,130,131,132,129,130,131,132,54,137,138,139,140,129,129,130,195,138,138,138,139,137,140,138,139,137,140,140,139,140,138,137,140,139,137,138,139,140,138,140,140,138,137,137,139,137,137,138,139,138,139,137,140,139,140,137,138,140,139,
138,140,137,195,129,129,130,131,132,129,130,131,130,130,130,129,129,129,129,130,131,195,137,139,138,140,137,140,138,137,137,137,137,138,137,140,139,137,139,138,138,137,139,137,139,139,139,138,139,140,137,138,137,140,138,140,140,140,140,139,137,139,137,140,
140,140,137,195,130,130,131,132,129,130,130,130,130,130,130,129,129,129,130,131,132,195,140,138,139,140,140,139,139,138,137,139,138,140,137,140,140,137,140,140,139,140,138,140,139,137,139,138,139,138,140,139,137,137,140,140,137,139,138,138,138,139,139,140,
138,140,137,195,195,195,195,195,195,195,195,195,195,195,195,195,195,195,195,195,195,195,137,137,137,138,137,138,139,139,137,139,137,137,140,137,140,140,138,137,140,137,139,139,139,140,140,138,139,137,139,137,140,138,137,137,138,137,138,137,138,138,139,140,
139,139,137,196,196,196,196,196,196,196,196,196,196,196,196,196,196,196,196,196,196,196,140,140,139,138,138,140,139,140,139,137,138,137,139,138,138,139,139,139,139,140,139,140,138,138,137,139,140,139,138,138,140,140,138,140,140,137,137,139,138,140,137,138,
139,137,139,138,137,139,139,137,137,140,139,139,140,138,137,138,140,140,140,138,137,138,139,140,140,137,138,139,138,138,138,138,137,140,140,139,140,140,139,140,139,139,137,139,139,138,137,137,137,139,137,138,137,138,140,137,137,138,137,138,137,137,137,140,
138,138,137,139,138,138,139,140,139,138,137,140,140,139,139,139,140,140,140,140,137,139,140,140,137,138,137,139,139,138,139,139,138,139,140,139,140,138,137,140,139,138,137,138,140,138,140,138,137,137,137,140,139,139,137,137,140,140,139,137,140,138,138,140,
139,139,138,140,139,137,137,138,137,138,139,140,139,139,137,137,139,139,139,138,137,137,139,140,137,140,138,138,140,137,138,140,139,139,137,137,138,138,139,140,137,140,138,137,137,138,139,139,138,138,140,137,139,138,138,139,138,140,138,138,137,139,138,140,
138,137,140,137,140,140,140,139,138,138,137,137,137,138,137,138,139,137,139,138,137,140,139,138,140,140,139,137,138,140,138,137,137,140,139,140,139,138,138,137,137,138,140,138,138,138,140,140,137,140,139,138,137,139,138,138,137,138,137,139,137,140,137,140,
137,138,140,140,138,137,140,139,139,139,139,138,138,138,140,140,140,140,138,140,139,140,138,139,139,137,138,137,138,137,138,137,137,138,140,139,137,140,137,137,140,138,140,138,139,139,137,138,139,138,139,139,137,139,139,139,138,138,137,139,138,139,140,139,
139,138,140,139,139,140,139,137,138,138,138,140,137,139,138,140,140,137,138,138,137,138,138,139,140,140,140,137,140,139,138,139,140,139,138,139,139,140,137,137,137,139,140,140,137,140,137,138,139,137,139,140,139,139,140,140,138,140,139,140,140,138,140,137,
138,137,137,140,137,138,140,139,139,139,140,140,137,139,140,137,140,140,140,139,140,139,138,137,137,137,139,139,137,139,140,137,137,138,137,137,137,137,140,138,139,140,137,139,137,139,137,140,140,139,140,139,137,138,139,137,139,140,140,139,140,140,140,139,
137,137,140,139,139,137,140,137,140,140,140,140,140,137,140,139,138,139,139,137,140,140,138,139,137,139,138,139,139,138,140,139,140,138,140,140,137,140,137,140,138,137,139,138,137,138,138,140,137,139,140,137,138,139,137,140,140,140,140,140,137,138,140,137,
138,139,138,139,140,140,137,138,139,140,138,140,140,140,139,138,140,138,139,139,140,139,139,140,139,137,139,138,140,139,138,137,138,140,137,138,138,138,140,137,138,137,137,137,137,140,137,138,137,140,137,137,140,138,138,140,139,139,137,137,138,138,139,139,
138,140,140,138,138,137,137,138,138,140,139,140,139,139,138,139,139,140,137,137,140,137,140,140,139,140,137,137,140,138,139,139,138,139,139,139,137,140,139,139,140,138,139,138,140,139,137,139,140,138,140,138,138,140,137,138,140,139,138,140,140,139,139,140,
140,138,137,140,140,139,140,137,137,137,140,137,140,140,138,137,139,137,138,140,137,139,139,139,137,139,140,140,140,137,138,137,140,140,138,138,140,138,139,140,139,139,138,137,139,137,138,140,140,137,137,137,138,140,139,137,138,138,138,138,139,139,137,137,
139,137,140,140,137,137,139,138,139,138,138,138,138,139,140,137,140,139,140,137,139,140,138,137,138,138,138,138,138,137,137,140,139,137,140,139,138,139,137,137,137,137,138,139,139,140,138,137,138,137,137,138,138,138,140,138,140,139,140,138,138,138,140,140,
138,139,138,139,140,138,139,138,140,139,138,138,137,137,138,137,137,137,139,137,137,139,139,137,139,138,140,139,137,138,138,137,138,138,139,140,139,138,140,140,137,137,137,140,139,137,137,140,138,138,140,139,140,139,139,140,140,137,140,138,138,139,140,139,
137,140,138,138,138,139,139,140,138,139,140,139,140,137,139,140,137,137,138,139,140,140,137,138,139,138,139,137,137,139,139,138,137,138,137,139,139,140,139,137,139,138,140,138,138,140,140,139,140,138,140,139,137,139,140,137,140,139,139,137,138,139,138,138,
137,137,137,138,138,138,137,137,139,138,138,140,140,139,138,138,139,138,138,138,138,138,140,140,140,138,137,137,139,140,139,140,139,138,137,140,138,138,140,137,139,137,140,140,139,137,139,137,139,137,140,137,137,138,139,137,139,137,137,139,139,138,138,137,
137,138,140,138,137,140,137,140,138,137,139,140,137,138,140,139,139,137,139,138,140,138,139,138,140,139,137,137,137,137,140,139,138,138,140,139,139,138,140,139,137,138,139,140,140,140,140,139,138,138,138,140,138,140,137,139,138,140,139,139,139,139,137,139,
139,140,139,140,138,137,140,140,137,139,140,139,140,139,138,140,137,140,140,138,140,137,139,138,139,137,138,140,140,137,138,140,140,138,140,138,140,138,139,137,140,140,138,139,140,137,140,140,138,139,140,139,140,137,140,140,139,138,139,139,137,139,138,138,
138,138,139,137,137,137,138,140,137,140,140,140,139,139,137,139,139,139,138,137,138,140,138,137,138,137,137,140,139,139,137,139,137,139,140,140,137,138,140,137,137,139,138,139,137,139,137,139,138,137,139,139,140,137,138,137,140,139,138,140,140,140,140,139,
139,140,137,139,137,139,138,140,140,139,138,137,140,140,138,137,139,139,140,138,139,139,139,137,139,137,138,137,138,137,138,137,138,137,140,138,137,140,138,139,140,137,139,138,140,138,139,139,139,140,139,138,139,140,139,138,137,138,140,138,139,139,139,137
</data>
 </layer>
 <objectgroup id="2" name="Units/Buildings">
  <object id="168" template="../../buildings/P_City_Hall.tx" x="80" y="592"/>
  <object id="169" template="../../units/P_Worker.tx" x="80" y="512"/>
  <object id="170" template="../../units/P_Worker.tx" x="96" y="512"/>
  <object id="171" template="../../units/P_Worker.tx" x="112" y="512"/>
  <object id="172" template="../../units/P_Worker.tx" x="96" y="528"/>
  <object id="182" template="../../buildings/P_Farm.tx" x="128" y="448"/>
  <object id="183" template="../../buildings/P_Farm.tx" x="128" y="640"/>
  <object id="184" template="../../buildings/P_Farm.tx" x="160" y="448"/>
  <object id="213" template="../../buildings/P_Farm.tx" x="160" y="640"/>
  <object id="216" template="../../buildings/P_Blacksmith.tx" x="64" y="464"/>
  <object id="227" template="../../units/C_Soldier.tx" x="816" y="480"/>
  <object id="228" template="../../units/C_Soldier.tx" x="816" y="496"/>
  <object id="229" template="../../units/C_Soldier.tx" x="816" y="512"/>
  <object id="230" template="../../units/C_Soldier.tx" x="816" y="528"/>
  <object id="231" template="../../units/C_Soldier.tx" x="864" y="464"/>
  <object id="232" template="../../units/C_Soldier.tx" x="864" y="544"/>
  <object id="234" template="../../units/C_Archer.tx" x="864" y="480"/>
  <object id="237" template="../../units/C_Archer.tx" x="864" y="496"/>
  <object id="238" template="../../units/C_Archer.tx" x="864" y="512"/>
  <object id="239" template="../../units/C_Archer.tx" x="864" y="528"/>
  <object id="240" template="../../units/C_Archer.tx" x="896" y="448"/>
  <object id="241" template="../../units/C_Archer.tx" x="896" y="464"/>
  <object id="242" template="../../units/C_Archer.tx" x="896" y="560"/>
  <object id="243" template="../../units/C_Archer.tx" x="896" y="544"/>
  <object id="245" template="../../units/C_Knight.tx" x="896" y="528"/>
  <object id="246" template="../../units/C_Archer.tx" x="896" y="480"/>
  <object id="247" template="../../units/C_Mage.tx" x="896" y="496"/>
  <object id="249" template="../../units/C_Mage.tx" x="896" y="512"/>
  <object id="250" template="../../units/C_Mage.tx" x="912" y="496"/>
  <object id="251" template="../../units/C_Mage.tx" x="912" y="512"/>
  <object id="252" template="../../units/C_Mage.tx" x="928" y="496"/>
  <object id="253" template="../../units/C_Mage.tx" x="928" y="512"/>
  <object id="254" template="../../units/P_Knight.tx" x="192" y="592"/>
  <object id="255" template="../../units/P_Knight.tx" x="192" y="608"/>
  <object id="256" template="../../units/P_Knight.tx" x="208" y="592"/>
  <object id="257" template="../../units/P_Knight.tx" x="224" y="592"/>
  <object id="258" template="../../units/P_Knight.tx" x="208" y="608"/>
  <object id="259" template="../../units/P_Knight.tx" x="224" y="608"/>
 </objectgroup>
</map>
