<?xml version="1.0" encoding="UTF-8"?>
<map version="1.10" tiledversion="1.12.1" orientation="orthogonal" renderorder="right-down" width="64" height="64" tilewidth="16" tileheight="16" infinite="0" nextlayerid="5" nextobjectid="302">
 <editorsettings>
  <export target="../../../../assets/map/main/main5.fgm" format="Future Glimpses map (*.fgm)"/>
 </editorsettings>
 <properties>
  <property name="AI_MODE" type="int" propertytype="AI_MODE" value="2"/>
  <property name="ENABLE_BARRACKS" type="bool" value="true"/>
  <property name="ENABLE_BLACKSMITH" type="bool" value="true"/>
  <property name="ENABLE_CITY_HALL" type="bool" value="true"/>
  <property name="ENABLE_FARM" type="bool" value="true"/>
  <property name="ENABLE_STABLES" type="bool" value="true"/>
  <property name="ENABLE_TOWER" type="bool" value="true"/>
  <property name="ENABLE_TURRET" type="bool" value="true"/>
  <property name="ENABLE_UPGRADE_ARCHER" type="bool" value="true"/>
  <property name="ENABLE_UPGRADE_KNIGHT" type="bool" value="true"/>
  <property name="ENABLE_UPGRADE_MAGE" type="bool" value="true"/>
  <property name="ENABLE_UPGRADE_SOLDIER" type="bool" value="true"/>
  <property name="MAP_CODE" value="UNZEF5AC"/>
  <property name="MSG_DESCRIPTION" value="Estás frente a la capital enemiga. ¡Usa todos los medios a tu alcance para conquistarla! El héroe Randalf debe sobrevivir."/>
  <property name="MSG_LOSE" value="No has logrado recuperar tu imperio..."/>
  <property name="MSG_TITLE" value="5.La capital"/>
  <property name="MSG_WIN" value="¡Al fin has recuperado la grandeza de tu imperio! Aquí acaba Atisbos del Futuro. ¡Pero tú puedes ampliarlo!"/>
  <property name="PEACE_TIME" type="int" value="300"/>
  <property name="RES_GOLD_COMPUTER" type="int" value="2000"/>
  <property name="RES_GOLD_PLAYER" type="int" value="1000"/>
  <property name="RES_WOOD_COMPUTER" type="int" value="500"/>
  <property name="RES_WOOD_PLAYER" type="int" value="500"/>
  <property name="UPGRADED_ARCHER_COMPUTER" type="bool" value="false"/>
  <property name="UPGRADED_ARCHER_PLAYER" type="bool" value="false"/>
  <property name="UPGRADED_KNIGHT_COMPUTER" type="bool" value="false"/>
  <property name="UPGRADED_KNIGHT_PLAYER" type="bool" value="false"/>
  <property name="UPGRADED_MAGE_COMPUTER" type="bool" value="false"/>
  <property name="UPGRADED_MAGE_PLAYER" type="bool" value="false"/>
  <property name="UPGRADED_SOLDIER_COMPUTER" type="bool" value="false"/>
  <property name="UPGRADED_SOLDIER_PLAYER" type="bool" value="false"/>
  <property name="WIN_CODE" value=""/>
 </properties>
 <tileset firstgid="1" source="../../tileset.tsx"/>
 <tileset firstgid="257" source="../../units/units.tsx"/>
 <tileset firstgid="267" source="../../buildings/big_buildings.tsx"/>
 <tileset firstgid="273" source="../../buildings/small_buildings.tsx"/>
 <layer id="1" name="Map" width="64" height="64">
  <data encoding="csv">
200,200,200,200,200,200,200,200,200,200,200,200,200,200,200,200,200,200,200,200,200,200,200,200,200,200,200,200,200,200,200,200,200,200,200,200,200,200,200,200,200,200,200,200,200,200,200,200,200,200,200,200,200,200,200,200,200,200,200,200,200,200,200,200,
200,196,196,196,196,196,196,196,196,196,196,196,196,196,196,196,196,196,196,196,196,196,196,196,196,196,196,196,196,196,196,196,196,196,196,196,196,196,196,196,196,196,196,196,196,196,196,196,196,196,196,196,196,196,196,196,196,196,196,196,196,196,196,200,
200,9,10,11,12,9,10,11,12,9,10,11,12,9,10,11,12,9,10,11,12,9,10,11,12,9,10,11,12,9,10,11,12,9,10,11,12,9,10,11,12,9,10,11,12,9,10,11,12,9,10,11,12,9,10,11,12,9,10,11,12,9,10,200,
200,9,10,11,12,9,10,11,12,9,139,140,12,9,10,11,12,9,10,11,12,9,10,11,12,9,10,11,12,154,155,156,12,9,10,11,12,9,10,11,12,9,10,11,12,9,10,11,12,9,10,11,12,9,10,11,139,140,137,11,12,9,10,200,
200,9,10,11,12,9,10,11,12,138,139,140,137,9,10,11,12,9,10,11,12,9,10,11,12,9,10,11,153,154,155,156,153,9,10,11,12,9,10,11,12,9,10,11,12,9,10,11,12,9,10,11,12,138,10,138,139,140,137,138,12,9,10,200,
200,9,10,11,12,9,10,11,137,138,139,140,137,138,10,11,12,9,10,11,12,9,10,11,12,9,10,11,153,154,155,156,153,9,10,11,12,9,10,11,12,9,10,11,12,9,10,11,12,9,10,11,137,138,139,138,139,140,137,138,139,9,10,200,
200,9,10,11,12,9,10,11,137,138,139,140,137,138,10,11,12,9,10,11,12,9,10,11,12,9,10,11,153,154,155,156,153,9,10,11,12,9,10,11,12,9,10,11,12,9,10,11,12,9,10,11,137,138,139,138,139,140,137,138,139,9,10,200,
200,9,10,11,12,9,10,11,137,138,139,140,137,138,10,11,12,9,10,11,12,9,10,11,12,9,10,11,12,154,155,156,12,9,10,11,12,9,10,11,12,9,10,11,12,9,10,11,12,9,10,11,12,138,137,138,139,140,137,138,139,9,10,200,
200,9,10,11,12,9,10,11,12,138,139,140,137,9,10,11,12,9,10,11,12,9,10,11,12,9,10,11,12,9,10,11,12,9,10,11,12,9,10,11,12,9,10,11,12,9,10,11,12,9,10,11,12,9,137,138,139,140,137,138,139,9,10,200,
200,9,10,11,12,9,140,137,138,139,140,137,138,139,140,11,12,9,10,11,12,9,10,11,12,9,10,11,12,9,10,11,12,9,10,11,12,9,10,11,12,9,10,11,12,9,10,11,12,9,10,11,12,9,10,138,139,140,137,138,12,9,10,200,
200,9,10,11,138,139,140,137,138,139,140,137,138,139,140,137,138,9,10,11,12,9,10,11,12,9,10,11,12,9,10,11,12,9,10,11,12,9,10,11,12,9,10,11,12,9,10,11,12,9,10,11,12,9,10,11,139,140,137,11,12,9,10,200,
200,9,10,137,138,139,140,137,138,139,140,137,138,139,140,137,138,139,10,11,12,9,10,11,12,9,10,11,12,9,10,11,12,9,10,11,12,9,10,11,12,9,10,11,12,9,10,11,12,9,10,11,12,9,10,11,12,9,10,11,12,9,10,200,
200,9,10,11,138,139,140,137,138,139,140,137,138,139,140,137,138,9,10,11,12,9,10,11,12,9,10,11,12,9,10,11,12,9,10,11,12,9,10,11,12,9,10,11,12,9,10,11,12,9,10,11,12,9,10,11,12,9,10,11,12,9,10,200,
200,9,10,11,12,9,140,137,138,139,140,137,138,139,140,11,12,9,10,11,12,9,10,11,12,9,10,11,12,9,10,11,12,9,10,11,12,9,10,11,12,9,10,11,12,9,10,11,12,9,10,11,12,9,10,11,12,9,10,11,12,9,10,200,
200,9,10,11,12,9,10,11,12,9,10,11,12,9,10,11,12,9,10,11,12,9,10,11,12,9,10,11,12,139,140,137,138,9,10,11,12,9,10,11,12,9,10,11,12,9,10,11,12,9,10,139,140,137,10,11,12,9,10,11,12,9,10,200,
200,9,10,11,12,9,10,11,12,9,10,11,12,9,10,11,12,9,10,11,12,9,10,11,12,9,10,11,138,139,140,137,138,139,10,11,12,9,10,11,12,9,10,11,12,9,10,11,12,9,138,139,140,137,138,11,12,9,10,11,12,9,10,200,
200,9,10,11,12,9,10,11,12,9,10,11,12,9,10,11,12,9,10,11,12,9,10,11,12,9,10,137,138,139,140,137,138,139,140,11,12,9,10,11,12,9,10,11,12,9,10,11,12,137,138,139,140,137,138,139,12,9,10,11,12,9,10,200,
200,9,10,11,12,9,10,11,12,9,10,11,12,9,10,11,12,9,10,11,12,9,10,11,12,9,10,137,138,139,140,137,138,139,140,11,12,9,10,11,12,9,10,11,12,9,10,11,12,137,138,139,140,137,138,139,12,9,10,11,12,9,10,200,
200,9,10,11,12,9,10,11,12,9,10,139,140,137,10,11,12,9,10,11,12,9,10,11,12,9,10,137,138,139,140,137,138,139,140,11,12,9,10,11,12,9,10,11,12,9,10,11,12,137,138,139,140,137,138,139,12,9,10,11,12,9,10,200,
200,9,10,11,12,9,10,11,12,9,138,139,140,137,138,11,12,9,10,11,12,9,10,11,12,9,10,11,138,139,140,137,138,139,10,11,12,9,10,11,12,9,10,11,12,9,10,11,12,137,138,139,140,137,138,139,12,9,10,11,12,9,10,200,
200,9,10,11,12,9,10,11,12,9,138,139,140,137,138,139,140,9,10,11,12,9,10,11,12,9,10,11,12,139,140,137,138,139,140,137,12,9,10,11,12,9,10,11,12,9,10,11,12,137,138,139,140,137,138,139,12,9,10,11,12,9,10,200,
200,9,10,11,12,9,10,11,12,137,138,139,140,137,138,139,140,9,10,11,12,9,10,11,12,9,10,11,138,139,140,137,138,139,140,137,138,9,10,11,12,9,10,11,12,9,10,11,12,9,138,139,140,137,138,11,12,9,10,11,12,9,10,200,
200,9,10,11,12,9,10,11,12,137,138,139,140,137,138,139,12,9,10,11,12,9,10,11,12,9,10,137,138,139,140,137,138,139,140,137,138,139,10,11,12,9,10,11,12,9,10,11,12,137,138,139,140,137,10,11,12,9,10,11,12,9,10,200,
200,9,10,11,12,9,10,11,12,137,138,139,140,137,138,139,12,9,10,11,12,9,10,11,12,9,10,11,138,139,140,137,138,139,140,137,138,9,10,11,12,9,10,11,12,9,10,11,12,137,138,139,140,9,10,11,12,9,10,11,12,9,10,200,
200,9,10,11,12,9,10,11,12,137,138,139,140,137,138,139,12,9,10,11,12,9,10,11,12,9,10,11,12,139,140,137,138,139,140,137,12,9,10,11,12,9,10,11,12,9,10,11,12,9,138,139,12,9,10,11,12,9,10,11,12,153,154,200,
200,9,10,11,12,9,10,11,12,9,138,139,140,137,138,11,12,9,10,11,12,9,10,11,12,9,10,11,12,9,10,11,12,9,10,11,12,9,10,11,12,9,10,11,12,9,10,11,12,9,10,11,12,9,10,11,12,9,10,11,12,153,154,200,
200,9,10,11,12,9,10,11,12,9,138,139,140,137,138,11,12,9,10,11,12,9,10,11,12,9,10,11,12,9,10,11,12,9,10,11,12,9,10,11,12,9,10,11,12,9,10,11,12,9,10,11,12,9,10,11,12,9,10,11,12,9,10,200,
200,9,10,11,12,9,10,11,12,9,10,139,140,137,10,11,12,9,10,11,12,9,10,11,12,9,10,11,12,9,10,11,12,9,10,11,12,9,10,11,12,9,10,11,12,9,10,11,12,9,10,11,12,9,10,11,12,9,10,11,12,9,10,200,
200,9,10,11,12,9,10,11,12,9,10,11,12,9,10,11,12,9,10,11,12,9,10,11,200,200,200,200,12,9,10,11,12,9,200,200,200,200,12,9,10,11,12,9,10,11,12,9,10,11,12,11,12,9,10,11,9,10,11,12,12,9,10,200,
200,153,154,11,12,9,10,11,12,9,10,11,12,9,10,11,12,9,10,11,12,9,10,11,196,196,196,200,12,9,10,11,12,9,200,196,196,196,12,9,10,11,12,9,10,11,12,9,10,11,12,11,12,9,10,11,9,10,11,12,12,9,10,200,
200,153,154,11,12,9,10,11,12,9,10,11,12,9,10,11,12,9,10,11,12,9,10,11,12,9,10,200,12,9,10,11,12,9,200,9,10,11,12,9,10,11,12,9,10,11,12,9,10,11,12,11,12,9,10,11,9,10,11,12,12,9,10,200,
200,9,10,11,12,9,10,11,12,9,10,11,12,9,10,11,12,9,10,11,12,9,10,11,12,9,10,200,12,9,10,11,12,9,200,9,10,11,12,9,10,11,12,9,10,11,12,9,10,11,12,11,12,9,10,11,9,10,11,12,12,9,10,200,
200,200,200,200,200,200,200,200,200,200,200,200,200,200,200,200,200,200,200,200,200,200,200,200,200,200,200,200,12,9,10,11,12,9,200,200,200,200,200,200,200,200,200,200,200,200,200,200,200,200,200,200,200,200,200,200,200,200,200,200,200,200,200,200,
196,196,196,196,196,196,196,196,196,196,196,196,196,196,196,196,196,196,196,196,196,196,196,196,196,196,196,196,12,9,10,11,12,9,196,196,196,196,196,196,196,196,196,196,196,196,196,196,196,196,196,196,196,196,196,196,196,196,196,196,196,196,196,196,
9,10,11,12,9,10,11,12,9,10,11,12,9,10,11,12,9,10,11,12,9,10,11,12,9,10,11,12,12,9,10,11,12,9,11,12,9,10,11,12,9,10,11,12,9,10,11,12,9,10,11,12,9,10,11,12,9,10,11,12,9,10,11,12,
9,10,11,12,9,10,11,12,9,10,11,12,9,10,11,12,9,10,11,12,9,10,11,12,9,10,11,12,9,10,11,12,9,10,11,12,9,10,11,12,9,10,11,12,9,10,11,12,9,10,11,12,9,10,11,12,9,10,11,12,9,10,11,12,
9,10,11,12,9,10,11,12,9,10,11,12,9,10,11,12,9,10,11,12,9,10,11,12,9,10,11,12,9,10,11,12,9,10,11,12,9,10,11,12,9,10,11,12,9,10,11,12,9,10,11,12,9,10,11,12,9,10,11,12,9,10,11,12,
9,10,11,12,9,10,11,12,9,10,11,12,9,10,11,12,9,10,11,12,9,10,11,12,9,10,11,12,9,10,11,12,9,10,11,12,9,10,11,12,9,10,11,12,9,10,11,12,9,10,11,12,9,10,11,12,9,10,11,12,9,10,11,12,
9,10,11,12,9,10,11,9,10,11,12,12,9,10,11,12,9,10,11,12,9,10,11,12,9,10,11,12,9,10,11,12,9,10,11,12,9,10,11,12,9,10,11,12,9,10,11,12,9,10,11,12,9,10,11,12,9,10,11,12,9,10,11,12,
55,55,55,55,55,55,55,55,55,55,55,55,55,55,55,55,55,55,55,55,55,55,55,55,55,55,55,55,55,55,9,9,55,55,55,55,55,55,55,55,55,55,55,55,55,55,55,55,55,55,55,55,55,55,55,55,55,55,55,55,55,55,55,55,
170,170,170,170,170,170,170,170,170,170,170,170,170,170,170,170,170,170,170,170,170,170,170,170,170,170,170,170,170,171,38,40,169,170,170,170,170,170,170,170,170,170,170,170,170,170,170,170,170,170,170,170,170,170,170,170,170,170,170,170,170,170,170,170,
178,178,178,178,178,178,178,178,178,178,178,178,178,178,178,178,178,178,178,178,178,178,178,178,178,178,178,178,178,173,38,40,172,178,178,178,178,178,178,178,178,178,178,178,178,178,178,178,178,178,178,178,178,178,178,178,178,178,178,178,178,178,178,178,
179,179,179,179,179,179,179,179,179,179,179,179,179,179,179,179,179,179,179,179,179,179,179,179,179,179,179,179,179,173,38,40,165,179,179,179,179,179,179,179,179,179,179,179,179,179,179,179,179,179,179,179,179,179,179,179,179,179,179,179,179,179,179,179,
175,175,175,175,175,175,175,175,175,175,175,175,175,175,175,175,175,175,175,175,175,175,175,175,175,175,175,175,175,176,38,40,174,175,175,175,175,175,175,175,175,175,175,175,175,175,175,175,175,175,175,175,175,175,175,175,175,175,175,175,175,175,175,175,
23,23,23,23,23,23,23,23,23,23,23,23,23,23,23,23,23,23,23,23,23,23,23,23,23,23,23,23,23,23,9,9,23,23,23,23,23,23,23,23,23,23,23,23,23,23,23,23,23,23,23,23,23,23,23,23,23,23,23,23,23,23,23,23,
138,137,11,11,9,10,12,9,12,10,9,12,11,11,9,12,12,12,11,12,9,11,11,11,10,9,10,11,11,12,10,12,12,9,10,10,12,9,11,12,9,11,10,12,9,12,11,10,9,11,11,10,10,9,11,12,11,10,9,11,11,10,138,137,
137,139,10,12,9,10,9,12,9,10,10,9,137,140,138,138,137,12,9,12,10,11,12,12,10,10,9,11,10,11,9,12,9,11,12,11,9,12,11,9,10,11,12,10,12,10,11,138,139,140,9,12,12,9,9,138,139,140,11,9,10,10,137,137,
137,138,11,12,10,11,10,10,9,10,138,137,138,137,139,138,140,138,140,10,9,9,10,12,11,9,12,10,12,9,12,11,11,11,12,12,11,10,11,9,11,9,12,12,12,9,137,138,139,140,137,11,10,11,137,138,139,140,137,12,11,12,139,140,
140,140,12,9,11,10,12,10,9,140,140,137,139,140,140,140,137,137,137,139,12,11,11,10,10,10,12,10,11,155,156,153,154,155,156,153,154,12,11,9,10,12,11,12,9,12,137,138,139,140,137,139,139,139,137,138,139,140,137,9,11,11,139,138,
139,137,10,10,12,9,11,12,138,137,139,139,138,138,138,137,137,139,138,139,140,11,11,10,9,11,9,153,154,155,156,153,154,155,156,153,154,155,156,11,12,9,11,12,11,12,137,138,139,140,137,138,140,138,137,138,139,140,137,11,11,10,139,138,
140,139,11,11,12,9,11,140,139,139,139,138,137,138,140,138,139,140,138,139,140,139,11,10,10,10,12,153,154,155,156,153,154,155,156,153,154,155,156,10,9,11,12,11,10,10,10,138,139,140,139,138,140,137,137,138,139,140,137,12,11,9,139,139,
137,139,12,10,9,9,11,138,139,137,140,138,138,137,137,138,139,140,138,137,139,137,9,11,11,9,12,10,9,155,156,153,154,155,156,153,154,10,10,11,11,10,10,10,9,10,9,140,139,138,140,138,137,140,139,138,139,140,11,12,12,9,140,140,
137,139,12,12,9,10,11,140,140,140,137,137,138,137,137,139,140,140,139,139,138,140,9,11,12,9,11,11,9,11,10,10,11,10,10,12,11,9,12,11,9,10,9,12,10,11,11,138,138,139,138,137,138,139,138,138,137,139,10,10,10,12,139,138,
137,139,10,9,12,10,11,9,140,140,139,138,137,137,137,140,138,139,139,138,139,9,10,10,9,12,11,12,10,11,11,9,10,12,10,10,11,12,12,10,9,9,9,12,10,10,12,138,137,137,140,139,140,140,138,137,140,138,10,11,11,11,138,139,
139,138,10,12,11,11,10,9,10,137,137,137,140,138,137,138,139,139,139,137,10,10,11,12,10,9,12,10,10,11,9,10,9,12,10,10,12,10,9,9,10,11,10,9,12,11,11,137,137,137,137,139,137,137,140,138,140,138,11,11,10,12,137,137,
137,140,10,10,12,9,11,10,9,9,137,139,139,138,137,138,138,140,139,10,12,9,10,9,10,10,12,12,10,12,11,12,12,9,11,9,10,12,11,9,12,11,11,9,9,9,9,10,139,138,137,138,140,138,137,139,137,10,9,11,9,11,137,137,
138,138,9,10,9,9,9,12,10,9,12,12,139,140,137,138,138,11,12,10,10,11,9,12,9,11,11,12,12,10,9,12,12,12,12,11,11,11,10,9,12,9,11,12,9,10,10,10,10,139,138,140,139,137,138,140,11,12,10,12,11,9,139,137,
137,139,10,10,9,11,11,12,12,10,12,10,10,9,137,138,12,10,11,11,9,12,12,11,10,11,10,138,139,11,9,10,11,10,11,11,138,139,10,12,9,11,10,10,9,10,12,11,12,10,138,137,139,138,138,9,9,10,11,139,138,137,138,137,
140,140,137,137,139,137,12,9,10,11,10,9,10,9,137,138,10,10,12,9,11,12,11,11,10,11,9,138,139,11,12,9,10,11,12,12,138,139,12,11,11,9,10,11,11,11,10,10,9,10,12,11,12,12,11,12,9,11,140,138,140,139,138,140,
138,137,140,139,139,138,137,12,12,11,12,12,9,12,10,9,10,9,10,12,12,12,9,9,10,11,137,9,10,11,12,9,10,11,12,12,9,10,140,10,11,9,11,12,11,10,9,11,12,9,9,12,12,11,11,10,12,137,137,137,137,137,139,140,
139,139,139,138,137,140,139,12,11,10,9,9,11,12,9,10,11,9,12,12,9,9,12,12,10,11,137,9,10,11,12,9,10,11,12,12,9,10,140,10,11,9,12,10,10,12,12,11,10,11,11,12,12,11,11,10,10,137,137,140,140,138,139,140,
139,139,137,137,138,137,137,11,12,9,10,10,9,9,10,9,12,11,9,11,10,10,11,11,9,9,137,138,139,11,12,9,10,11,12,12,138,139,140,10,9,9,12,12,11,11,9,11,10,9,12,10,10,9,10,9,12,11,139,138,139,139,138,138,
138,138,139,139,138,137,139,137,140,137,137,137,138,137,139,137,140,137,137,140,138,137,140,138,139,140,137,138,139,137,10,12,12,9,11,137,138,139,140,137,137,137,140,140,138,140,138,138,138,139,138,138,138,138,137,140,140,139,140,139,139,137,140,140,
139,137,138,137,140,140,140,138,140,140,138,138,139,140,140,138,139,137,137,137,139,137,140,137,139,138,137,138,139,137,12,12,11,10,11,137,138,139,138,140,140,140,139,138,140,138,139,137,138,138,138,139,139,139,140,138,138,138,137,138,138,137,140,139
</data>
 </layer>
 <objectgroup id="2" name="Units/Buildings">
  <object id="260" template="../../buildings/P_City_Hall.tx" x="496" y="944"/>
  <object id="261" template="../../buildings/P_Farm.tx" x="432" y="976"/>
  <object id="262" template="../../buildings/P_Farm.tx" x="576" y="976"/>
  <object id="263" template="../../buildings/P_Farm.tx" x="384" y="992"/>
  <object id="264" template="../../buildings/P_Farm.tx" x="624" y="992"/>
  <object id="265" template="../../units/P_Worker.tx" x="480" y="864"/>
  <object id="266" template="../../units/P_Worker.tx" x="496" y="848"/>
  <object id="267" template="../../units/P_Worker.tx" x="512" y="864"/>
  <object id="268" template="../../units/P_Worker.tx" x="544" y="864"/>
  <object id="269" template="../../units/P_Worker.tx" x="528" y="848"/>
  <object id="270" template="../../buildings/C_City_Hall.tx" x="656" y="128"/>
  <object id="271" template="../../buildings/C_Turret.tx" x="400" y="512"/>
  <object id="272" template="../../buildings/C_Turret.tx" x="560" y="512"/>
  <object id="275" template="../../buildings/C_Barracks.tx" x="928" y="256"/>
  <object id="277" template="../../buildings/C_Barracks.tx" x="352" y="224"/>
  <object id="278" template="../../buildings/C_Stables.tx" x="736" y="80"/>
  <object id="279" template="../../buildings/C_Blacksmith.tx" x="784" y="64"/>
  <object id="281" template="../../buildings/C_Tower.tx" x="704" y="64"/>
  <object id="283" template="../../buildings/C_Farm.tx" x="272" y="64"/>
  <object id="284" template="../../buildings/C_Farm.tx" x="304" y="64"/>
  <object id="285" template="../../buildings/C_Farm.tx" x="336" y="64"/>
  <object id="286" template="../../buildings/C_Farm.tx" x="336" y="64"/>
  <object id="287" template="../../buildings/C_Farm.tx" x="272" y="96"/>
  <object id="288" template="../../buildings/C_Farm.tx" x="304" y="96"/>
  <object id="289" template="../../buildings/C_Farm.tx" x="336" y="96"/>
  <object id="290" template="../../buildings/C_Farm.tx" x="336" y="96"/>
  <object id="291" template="../../buildings/C_Farm.tx" x="272" y="128"/>
  <object id="292" template="../../buildings/C_Farm.tx" x="304" y="128"/>
  <object id="293" template="../../buildings/C_Farm.tx" x="336" y="128"/>
  <object id="294" template="../../buildings/C_Farm.tx" x="336" y="128"/>
  <object id="295" template="../../units/P_Archer.tx" name="Randalf" x="576" y="896">
   <properties>
    <property name="ARMOR" type="int" value="1"/>
    <property name="CUSTOM" type="bool" value="true"/>
    <property name="MAX_DAMAGE" type="int" value="25"/>
    <property name="MAX_HEALTH" type="int" value="150"/>
    <property name="MIN_DAMAGE" type="int" value="15"/>
    <property name="MUST_SURVIVE" type="bool" value="true"/>
   </properties>
  </object>
  <object id="297" template="../../units/C_Knight.tx" x="464" y="464"/>
  <object id="298" template="../../units/C_Knight.tx" x="512" y="464"/>
  <object id="301" template="../../units/C_Worker.tx" x="592" y="96"/>
 </objectgroup>
</map>
