<?xml version="1.0" encoding="UTF-8"?>
<map version="1.10" tiledversion="1.11.2" class="The test map" orientation="orthogonal" renderorder="right-down" width="64" height="64" tilewidth="16" tileheight="16" infinite="0" nextlayerid="5" nextobjectid="68">
 <editorsettings>
  <export target="../../assets/map/test.map" format="Custom Binary (*.map)"/>
 </editorsettings>
 <properties>
  <property name="DESCRIPTION" value="Bla bla bla long description"/>
 </properties>
 <tileset firstgid="1" source="tileset.tsx"/>
 <tileset firstgid="257" source="units/units.tsx"/>
 <layer id="1" name="Capa de patrones 1" width="64" height="64">
  <data encoding="csv">
1,2,3,4,1,2,3,4,1,2,3,4,1,2,3,4,1,2,129,130,131,132,129,130,131,132,129,130,131,132,129,130,131,132,129,130,131,132,129,130,131,132,129,130,131,132,129,130,131,2,3,4,1,2,3,4,1,2,3,4,1,2,3,4,
1,2,3,4,1,2,3,4,1,2,3,4,1,2,3,4,1,2,3,130,131,132,129,130,131,132,129,130,131,132,129,130,131,132,129,130,131,132,129,130,131,132,129,130,131,132,129,130,1,2,3,4,1,2,3,4,1,2,3,4,1,2,3,4,
1,2,3,4,1,2,3,4,1,2,3,4,1,2,3,4,1,2,3,4,131,132,129,130,131,132,129,130,131,132,129,130,131,132,129,130,131,132,129,130,131,132,129,130,131,132,129,130,1,145,146,147,148,2,3,4,1,2,3,4,1,2,3,4,
1,2,3,4,1,2,3,4,1,2,3,4,1,2,3,4,1,2,3,4,1,132,129,130,131,132,129,130,131,132,129,130,131,132,129,130,131,132,129,130,131,132,129,130,131,132,129,130,1,145,146,147,148,2,3,4,1,2,3,4,1,2,3,4,
1,2,3,4,1,2,3,4,1,2,3,4,1,2,3,4,1,146,147,148,148,132,129,130,131,132,129,130,131,132,129,130,131,132,129,130,131,132,129,130,131,132,129,130,131,132,129,130,1,145,146,147,148,2,3,4,1,2,3,4,1,2,3,4,
1,2,3,4,1,2,3,4,1,2,3,4,1,2,3,4,1,145,146,147,148,2,129,130,131,132,129,130,131,132,129,130,131,132,129,130,131,132,129,130,131,132,129,130,131,132,129,4,1,145,146,147,148,2,3,4,1,2,3,4,1,2,3,4,
1,2,3,4,1,2,3,4,1,2,3,4,1,2,3,4,1,145,146,147,148,2,3,130,131,132,129,130,131,132,129,130,131,132,129,130,131,132,129,130,131,132,129,130,131,132,129,4,1,2,3,4,1,2,3,4,1,2,3,4,1,2,3,4,
1,2,3,4,1,2,3,4,1,2,3,4,1,2,3,4,1,145,146,147,148,2,3,130,131,132,129,130,131,132,129,130,131,132,129,130,131,132,129,130,131,132,129,130,131,132,3,4,1,2,3,4,1,2,3,4,1,2,3,4,1,2,3,4,
1,2,3,4,1,2,3,4,1,2,3,4,1,2,3,4,1,2,3,4,1,2,3,4,131,132,129,130,131,132,129,130,131,132,129,130,131,132,129,130,131,132,129,130,131,132,3,4,1,2,3,4,1,2,3,4,1,2,3,4,1,2,3,4,
1,2,3,4,1,2,3,4,1,2,3,4,1,2,3,4,1,2,3,4,1,2,3,4,1,132,129,130,131,132,129,130,131,132,129,130,131,132,129,130,131,132,129,130,131,2,3,4,1,2,3,4,1,2,3,4,1,2,3,4,1,2,3,4,
1,2,3,4,1,2,3,4,1,2,3,4,1,2,3,4,1,2,3,4,1,2,3,4,1,132,129,130,131,132,129,130,131,132,129,130,131,132,129,130,131,132,129,130,131,2,3,4,1,2,3,4,1,2,3,4,1,2,3,4,1,2,3,4,
1,2,3,4,1,2,3,4,1,2,3,4,1,2,3,4,1,2,3,4,1,2,3,4,1,2,129,130,131,132,129,130,131,132,129,130,131,132,129,130,131,132,129,130,1,2,3,4,1,2,3,4,1,2,3,4,1,2,3,4,1,2,3,4,
1,2,3,4,1,2,3,4,1,2,3,4,1,2,3,4,1,2,3,4,1,2,3,4,1,2,3,130,131,132,129,130,131,132,129,130,131,132,129,130,131,132,129,4,1,2,3,4,1,2,3,4,1,2,3,4,1,2,3,4,1,2,3,4,
1,2,3,4,1,2,3,4,1,2,3,4,1,2,3,4,1,2,3,4,1,2,3,4,1,2,3,4,131,132,129,130,131,132,129,130,131,132,129,130,131,132,129,4,1,2,3,4,1,2,3,4,1,2,3,4,1,2,3,4,1,2,3,4,
1,2,3,4,1,2,3,4,1,2,3,4,1,2,3,4,1,2,3,195,1,2,3,4,1,2,3,4,1,132,129,130,131,132,129,130,131,132,129,130,131,132,3,4,1,2,3,4,1,2,3,4,1,2,3,4,1,2,3,4,1,2,3,4,
129,130,131,132,129,2,3,4,1,2,3,4,1,2,3,4,1,2,196,200,1,2,3,4,1,2,3,4,1,132,129,130,131,132,129,130,131,132,129,130,131,132,3,4,1,2,3,4,1,2,3,4,1,2,3,4,1,2,3,4,1,2,3,4,
129,130,131,132,129,130,131,4,1,2,3,4,1,2,3,4,1,2,3,196,1,2,3,4,1,2,3,4,1,2,129,130,131,132,129,130,131,132,129,130,131,2,3,4,1,2,3,4,1,2,3,4,1,2,3,4,1,2,3,4,1,2,3,4,
129,130,131,132,129,130,131,132,1,2,3,4,1,2,3,4,1,2,3,4,200,2,3,4,1,2,3,4,1,2,3,130,131,132,129,130,131,132,129,130,131,2,3,4,1,2,3,4,1,2,3,4,1,2,3,4,1,2,3,4,1,2,3,4,
129,130,131,132,129,130,131,132,129,130,3,4,1,2,3,4,1,2,3,4,196,200,3,4,1,2,3,4,1,2,3,4,131,132,129,130,131,132,129,130,1,2,3,4,1,2,3,4,1,2,3,4,1,2,3,4,1,2,3,4,1,2,3,4,
129,130,131,132,129,130,131,132,129,130,131,132,1,2,3,4,1,2,3,4,1,196,200,4,1,2,3,4,1,2,3,4,1,2,3,4,1,2,3,4,1,2,3,4,1,2,3,4,1,2,3,4,1,2,3,4,1,2,3,4,1,130,131,132,
129,130,131,132,129,130,131,132,129,130,131,132,129,130,3,4,1,2,3,4,1,2,196,200,1,2,3,4,1,2,3,4,1,2,3,4,1,2,3,4,1,2,3,4,1,2,3,4,1,2,3,4,1,2,3,4,1,2,3,4,129,130,131,132,
129,130,131,132,129,130,131,132,129,130,131,132,129,130,131,4,1,2,3,4,1,2,3,196,200,2,3,4,1,2,3,4,1,2,3,4,1,2,3,4,1,2,3,4,1,2,3,4,1,2,3,4,1,2,3,4,1,130,131,132,129,130,131,132,
129,130,131,132,129,130,131,132,129,130,131,132,129,130,131,132,1,2,3,4,1,2,3,4,200,2,3,4,1,2,3,4,1,2,3,4,1,2,3,4,1,2,3,4,1,2,3,4,1,2,3,4,1,2,3,132,129,130,131,132,129,130,131,132,
129,130,131,132,129,130,131,132,129,130,131,132,129,130,131,132,129,2,3,4,1,2,3,4,196,196,3,4,1,2,3,4,1,2,3,4,1,2,3,4,1,2,3,4,1,2,3,4,1,2,3,4,1,2,131,132,129,130,131,132,129,130,131,132,
129,130,131,132,129,130,131,132,129,130,131,132,129,130,131,132,129,130,3,4,1,2,3,4,1,2,3,4,1,2,3,4,1,2,3,4,1,2,3,4,1,2,3,4,1,2,3,4,1,2,3,132,129,130,131,132,129,130,131,132,129,130,131,132,
129,130,131,132,129,130,131,132,129,130,131,132,129,130,131,132,129,130,131,4,1,2,3,4,1,2,3,4,1,2,3,4,1,2,3,4,1,2,3,4,1,2,3,4,1,2,3,4,1,130,131,132,129,130,131,132,129,130,131,132,129,130,131,132,
129,130,131,132,129,130,131,132,129,130,131,132,129,130,131,132,129,130,131,132,129,2,3,4,1,2,3,4,1,2,3,4,1,2,3,4,1,2,3,4,1,2,3,4,1,2,3,4,129,130,131,132,129,130,131,132,129,130,131,132,129,130,131,132,
129,130,131,132,129,130,131,132,129,130,131,132,129,130,131,132,129,130,131,132,129,2,3,4,1,2,3,4,1,2,3,4,1,2,3,4,1,2,3,4,1,2,3,4,1,2,131,132,129,130,131,132,129,130,131,132,129,130,131,132,129,130,131,132,
129,130,131,132,129,130,131,132,129,130,131,132,129,130,131,132,129,130,131,132,129,2,3,4,1,2,3,4,1,2,3,4,1,2,3,4,1,2,3,4,1,2,3,4,129,130,131,132,129,130,131,132,129,130,131,132,129,130,131,132,129,130,131,132,
129,130,131,132,129,130,131,132,129,130,131,132,129,130,131,132,129,130,131,132,129,2,3,4,1,2,3,4,1,2,3,4,1,2,3,4,1,2,3,4,1,2,3,4,129,130,131,132,129,130,131,132,129,130,131,132,129,130,131,132,129,130,131,132,
129,130,131,132,129,130,131,132,129,130,131,132,129,130,131,132,129,130,131,132,129,2,3,4,1,2,3,4,1,2,169,170,170,170,170,170,170,170,170,171,1,2,3,4,129,130,131,132,129,130,131,132,129,130,131,132,129,130,131,132,129,130,131,132,
129,130,131,132,129,130,131,132,129,130,131,132,129,130,131,132,129,130,131,132,129,2,3,4,1,2,3,4,1,2,172,177,178,179,180,177,178,179,180,173,1,2,3,4,129,130,131,132,129,130,131,132,129,130,131,132,129,130,131,132,129,130,131,132,
129,130,131,132,129,130,131,132,129,130,131,132,129,130,131,132,129,130,131,132,129,2,3,4,1,2,3,4,1,2,172,177,178,179,180,177,178,179,180,173,1,2,3,4,129,130,131,132,129,130,131,132,129,130,131,132,129,130,131,132,129,130,131,132,
129,130,131,132,129,130,131,132,129,130,131,132,129,130,131,132,129,130,131,132,1,2,3,4,1,2,3,4,1,2,172,177,178,179,180,177,178,179,180,173,1,2,3,4,129,130,131,132,129,130,131,132,129,130,131,132,129,130,131,132,129,130,131,132,
129,130,131,132,129,130,131,132,129,130,131,132,129,130,131,132,129,130,131,132,1,2,3,4,1,2,3,4,1,2,172,177,178,179,180,177,178,179,180,173,1,2,3,4,129,130,131,132,129,130,131,132,129,130,131,132,129,130,131,132,129,130,131,132,
129,130,131,132,129,130,131,132,129,130,131,132,129,130,131,132,129,130,131,4,1,2,3,4,1,2,3,4,1,2,172,177,178,179,180,177,178,179,180,173,1,2,3,4,129,130,131,132,129,130,131,132,129,130,131,132,129,130,131,132,129,130,131,132,
129,130,131,132,129,130,131,132,129,130,131,132,129,130,131,132,129,130,131,4,1,2,3,4,1,2,3,4,1,2,172,177,178,179,180,177,178,179,180,173,1,2,3,4,1,130,131,132,129,130,131,132,129,130,131,132,129,130,131,132,129,130,131,132,
129,130,131,132,129,130,131,132,129,130,131,132,129,130,131,132,129,130,3,4,1,2,3,4,1,2,3,4,1,2,172,177,178,179,180,177,178,179,180,173,1,2,3,4,1,2,131,132,129,130,131,132,129,130,131,132,129,130,131,132,129,130,131,132,
129,130,131,132,129,130,131,132,129,130,131,132,129,130,131,132,1,2,3,4,1,2,3,4,1,2,3,4,1,2,172,177,178,179,180,177,178,179,180,173,1,2,3,4,1,2,3,132,129,130,131,132,129,130,131,132,129,130,131,132,129,130,131,132,
129,130,131,132,129,130,131,132,129,130,131,132,129,130,131,4,1,2,3,4,1,2,3,4,1,2,3,4,1,2,174,175,175,175,175,175,175,175,175,176,1,2,3,4,1,2,3,4,129,130,131,132,129,130,131,132,129,130,131,132,129,130,131,132,
129,130,131,132,129,130,131,132,129,130,131,132,129,130,3,4,1,2,3,4,1,2,3,4,1,2,3,4,1,2,3,4,1,2,3,4,1,2,3,4,1,2,3,4,1,2,3,4,1,2,131,132,129,130,131,132,129,130,131,132,129,130,131,132,
129,130,131,132,129,130,131,132,129,130,131,132,129,2,3,4,1,2,3,4,1,2,3,4,1,2,3,4,1,2,3,4,1,2,3,4,1,2,3,4,1,2,3,4,1,2,3,4,1,2,131,132,129,130,131,132,129,130,131,132,129,130,131,132,
129,130,131,132,129,130,131,132,129,130,131,132,1,2,3,4,1,2,3,4,1,2,3,4,1,2,3,4,1,2,3,4,1,2,3,4,1,2,3,4,1,2,3,4,1,2,3,4,1,2,3,4,129,130,131,132,129,130,131,132,129,130,131,132,
129,130,131,132,129,130,131,132,129,130,131,4,1,2,3,4,1,2,3,4,22,23,24,4,1,2,3,4,1,2,3,4,1,2,3,4,1,2,3,4,1,2,3,4,22,23,23,23,24,195,195,195,195,195,131,132,129,130,131,132,129,130,131,132,
129,130,131,132,129,130,131,132,129,130,3,4,1,2,3,4,1,2,3,4,38,9,40,4,1,2,3,4,1,2,3,4,1,2,3,4,1,2,3,4,1,2,3,4,38,10,11,12,12,196,196,196,196,195,195,195,129,130,131,132,129,130,131,132,
129,130,131,132,129,130,131,132,1,2,3,4,1,2,3,4,1,2,3,4,54,55,56,4,1,2,3,4,1,2,3,4,1,2,3,4,1,2,3,4,1,2,3,4,54,10,11,12,12,11,12,9,10,196,196,195,1,2,3,4,1,130,131,132,
129,130,131,132,129,130,131,4,1,2,3,4,1,2,3,4,1,2,3,4,1,2,3,4,1,2,3,4,1,2,3,4,1,2,3,4,1,2,3,4,1,2,3,4,22,10,11,12,12,11,12,9,10,11,12,195,195,195,195,195,195,195,195,195,
129,130,131,132,129,145,146,147,148,2,3,4,1,2,3,4,1,2,3,4,1,2,3,4,1,2,3,4,1,2,3,4,1,2,3,4,1,2,3,4,1,2,3,195,9,10,11,12,12,11,12,9,10,10,11,196,196,196,196,196,196,196,196,195,
129,130,131,132,1,145,146,147,148,2,3,4,1,2,3,4,1,2,3,4,1,2,3,4,1,2,3,4,1,2,3,129,130,131,132,129,130,131,132,129,130,2,3,195,9,10,11,12,12,11,12,9,10,10,11,12,9,10,11,153,154,155,156,195,
129,130,3,4,1,145,146,147,148,2,3,4,1,2,3,4,1,2,3,4,1,2,3,4,1,2,3,4,130,131,132,129,130,131,132,129,130,131,132,129,130,2,3,195,195,9,10,11,12,11,12,9,10,10,11,12,9,10,11,153,154,155,156,195,
1,2,3,4,1,145,146,147,148,2,3,4,1,2,3,4,1,2,3,4,1,2,3,4,1,2,3,129,130,131,132,129,130,131,132,129,130,131,132,129,130,131,3,196,195,9,10,11,12,11,12,9,10,10,11,12,9,10,11,153,154,155,156,195,
1,2,3,4,1,2,3,4,1,2,3,4,1,2,3,4,1,2,3,4,1,2,3,4,1,2,132,129,130,131,132,129,130,131,132,129,130,131,132,129,130,131,132,4,195,9,10,11,12,11,12,9,10,10,11,12,9,10,11,153,154,155,156,195,
1,2,3,4,1,2,3,4,1,2,3,4,1,2,3,4,1,2,3,4,1,2,3,4,1,131,132,129,130,131,132,129,130,131,132,129,130,131,132,129,130,131,132,129,195,9,10,11,12,11,12,9,10,10,11,12,9,10,11,12,9,10,11,195,
1,2,3,4,1,2,3,4,1,2,3,4,1,2,3,4,1,2,3,4,1,2,3,4,130,131,132,129,130,131,132,129,130,131,132,129,130,131,132,129,130,131,132,129,195,195,9,10,10,11,12,9,10,10,11,12,9,10,11,12,9,10,11,195,
1,2,3,4,1,2,3,4,1,2,3,4,1,2,3,4,1,2,3,4,1,2,3,4,130,131,132,129,130,131,132,129,130,131,132,129,130,131,132,129,130,131,132,129,196,195,195,9,10,11,12,9,10,10,11,12,9,10,11,12,9,10,11,195,
1,2,3,4,1,2,3,4,1,2,3,4,1,2,3,4,1,2,3,4,1,2,3,129,130,131,132,129,130,131,132,129,130,131,132,129,130,131,132,129,130,131,132,129,130,196,195,195,10,11,12,9,10,10,11,12,9,10,11,12,9,12,9,195,
1,2,3,4,1,2,3,4,1,2,3,4,1,2,3,4,1,2,3,4,1,2,3,129,130,131,132,129,130,131,132,129,130,131,132,129,130,131,132,129,130,131,132,129,130,131,195,195,9,10,11,12,9,10,11,12,9,10,11,12,9,12,9,195,
1,2,3,4,1,2,3,4,1,2,3,4,1,2,3,4,1,2,3,4,1,2,132,129,130,131,132,129,130,131,132,129,130,131,132,129,130,131,132,129,130,131,132,129,130,131,196,195,9,10,11,12,9,10,11,12,9,10,11,12,12,9,9,195,
1,2,3,4,1,2,3,4,1,2,3,4,1,2,3,4,1,2,3,4,1,2,132,129,130,131,132,129,130,131,132,129,130,131,132,129,130,131,132,129,130,131,132,129,130,131,132,195,9,10,11,12,9,10,11,12,9,10,11,12,12,12,9,195,
1,2,3,4,1,2,3,4,1,2,3,4,1,2,3,4,1,2,3,4,1,131,132,129,130,131,132,129,130,131,132,129,130,131,132,129,130,131,132,129,130,131,132,129,130,131,132,195,9,10,11,12,9,10,11,12,9,10,11,12,12,12,9,195,
1,2,3,4,1,2,3,4,1,2,3,4,1,2,3,4,1,2,3,4,130,131,132,129,130,131,132,129,130,131,132,129,130,131,132,129,130,131,132,129,130,131,132,129,130,131,132,195,9,10,11,12,9,10,11,12,9,10,11,12,12,12,9,195,
1,2,3,4,1,2,3,4,1,2,3,4,1,2,3,4,1,2,3,4,130,131,132,129,130,131,132,129,130,131,132,129,130,131,132,129,130,131,132,129,130,131,132,129,130,131,132,195,9,10,11,12,9,10,11,12,9,10,11,12,12,12,9,195,
1,2,3,4,1,2,3,4,1,2,3,4,1,2,3,4,1,2,3,129,130,131,132,129,130,131,132,129,130,131,132,129,130,131,132,129,130,131,132,129,130,131,132,129,130,131,132,195,9,10,11,12,9,10,11,12,9,10,11,12,9,10,11,195,
1,2,3,4,1,2,3,4,1,2,3,4,1,2,3,4,1,2,3,129,130,131,132,129,130,131,132,129,130,131,132,129,130,131,132,129,130,131,132,129,130,131,132,129,130,131,132,195,195,195,195,195,195,195,195,195,195,195,195,195,195,195,195,195
</data>
 </layer>
 <objectgroup id="2" name="Capa de Objetos 1"/>
</map>
