<?xml version="1.0" encoding="UTF-8"?>
<map version="1.10" tiledversion="1.12.1" orientation="orthogonal" renderorder="right-down" width="64" height="64" tilewidth="16" tileheight="16" infinite="0" nextlayerid="5" nextobjectid="528">
 <editorsettings>
  <export target="../../../assets/map/changetgt.fgm" format="Future Glimpses map (*.fgm)"/>
 </editorsettings>
 <properties>
  <property name="AI_MODE" type="int" propertytype="AI_MODE" value="2"/>
  <property name="ENABLE_BARRACKS" type="bool" value="true"/>
  <property name="ENABLE_BLACKSMITH" type="bool" value="true"/>
  <property name="ENABLE_FARM" type="bool" value="true"/>
  <property name="ENABLE_STABLES" type="bool" value="true"/>
  <property name="ENABLE_TOWER" type="bool" value="true"/>
  <property name="ENABLE_TURRET" type="bool" value="false"/>
  <property name="ENABLE_UPGRADE_ARCHER" type="bool" value="true"/>
  <property name="ENABLE_UPGRADE_KNIGHT" type="bool" value="true"/>
  <property name="ENABLE_UPGRADE_MAGE" type="bool" value="true"/>
  <property name="ENABLE_UPGRADE_SOLDIER" type="bool" value="true"/>
  <property name="MSG_DESCRIPTION" value="La guerra total, para probar rendimiento."/>
  <property name="MSG_LOSE" value="Perdiste."/>
  <property name="MSG_TITLE" value="Cambiar objetivo"/>
  <property name="MSG_WIN" value="Ganaste."/>
  <property name="PEACE_TIME" type="int" value="0"/>
  <property name="RES_GOLD_COMPUTER" type="int" value="1000"/>
  <property name="RES_GOLD_PLAYER" type="int" value="1000"/>
  <property name="RES_WOOD_COMPUTER" type="int" value="500"/>
  <property name="RES_WOOD_PLAYER" type="int" value="500"/>
  <property name="UPGRADED_ARCHER_COMPUTER" type="bool" value="false"/>
  <property name="UPGRADED_ARCHER_PLAYER" type="bool" value="false"/>
  <property name="UPGRADED_KNIGHT_COMPUTER" type="bool" value="false"/>
  <property name="UPGRADED_KNIGHT_PLAYER" type="bool" value="false"/>
  <property name="UPGRADED_MAGE_COMPUTER" type="bool" value="false"/>
  <property name="UPGRADED_MAGE_PLAYER" type="bool" value="false"/>
  <property name="UPGRADED_SOLDIER_COMPUTER" type="bool" value="false"/>
  <property name="UPGRADED_SOLDIER_PLAYER" type="bool" value="false"/>
 </properties>
 <tileset firstgid="1" source="../tileset.tsx"/>
 <tileset firstgid="257" source="../units/units.tsx"/>
 <tileset firstgid="267" source="../buildings/big_buildings.tsx"/>
 <tileset firstgid="273" source="../buildings/small_buildings.tsx"/>
 <layer id="1" name="Map" width="64" height="64">
  <data encoding="csv">
138,137,138,138,140,139,140,139,139,138,137,140,140,137,137,138,137,138,137,139,140,140,138,138,137,139,137,137,139,137,139,139,137,139,138,140,139,139,139,140,139,138,137,138,139,137,140,138,140,140,138,140,140,139,137,140,137,138,140,140,139,137,140,138,
137,140,140,137,139,137,138,139,138,138,138,139,140,138,138,140,138,140,137,140,140,139,137,140,138,140,139,140,138,140,140,137,140,137,138,139,140,137,139,139,140,140,138,137,138,137,137,139,137,140,140,139,140,138,140,138,140,139,140,137,140,140,140,140,
140,138,138,137,140,139,139,138,137,140,140,140,139,140,140,139,138,139,138,139,139,137,139,140,137,137,137,138,137,140,137,137,138,140,140,140,139,138,137,139,137,137,139,137,137,138,140,140,138,138,139,139,137,138,140,138,137,137,140,138,138,137,140,137,
137,139,140,140,139,140,137,140,140,140,138,137,138,140,137,137,138,140,139,140,137,140,138,138,138,140,138,137,137,138,139,137,140,140,139,137,137,137,139,138,140,140,140,140,138,137,138,137,137,140,138,139,140,140,139,139,139,138,140,140,140,138,139,137,
139,140,140,137,140,139,137,137,137,139,138,140,138,138,138,140,139,138,139,140,138,137,137,139,137,139,137,138,139,139,140,138,140,138,140,139,138,137,139,137,139,137,138,140,139,140,140,139,140,138,138,137,140,140,137,139,139,137,138,139,137,139,140,137,
139,138,139,137,138,139,137,137,137,137,137,138,140,139,137,138,139,139,137,139,140,137,137,139,138,138,138,139,139,137,138,140,140,139,139,137,140,138,137,140,137,137,140,140,138,140,139,137,140,139,137,138,140,137,138,138,139,140,137,140,137,137,139,140,
140,137,140,138,138,137,137,138,140,138,140,140,138,137,139,137,137,137,138,137,139,137,137,139,138,139,140,138,139,137,140,137,137,139,138,137,137,140,140,140,137,137,137,140,139,137,137,138,140,140,139,138,137,137,139,140,137,137,137,137,137,140,140,137,
137,137,137,139,140,137,137,140,137,139,138,139,137,140,137,137,137,140,137,137,139,137,140,140,137,140,137,140,139,138,140,139,140,140,137,137,139,138,138,137,137,140,139,138,140,139,140,138,138,139,138,138,139,138,139,140,137,140,139,137,138,137,140,139,
137,138,138,138,137,138,138,138,138,138,139,138,139,138,138,140,139,138,137,138,139,140,139,137,140,138,137,138,139,140,138,139,140,138,138,138,140,138,138,138,140,138,140,137,139,138,138,138,140,137,140,140,140,137,139,140,137,140,138,138,139,139,139,140,
138,140,139,139,138,137,138,138,140,137,140,137,140,140,138,139,140,139,138,137,137,140,140,140,140,138,139,138,138,138,140,139,139,138,139,138,137,140,137,137,137,137,137,138,139,139,137,139,138,138,137,139,138,139,139,137,139,137,139,139,140,138,138,138,
137,137,139,140,137,140,140,138,139,138,140,137,138,139,138,137,140,140,140,138,140,138,137,138,140,140,140,140,137,137,139,140,137,139,137,137,137,138,140,140,140,139,139,137,137,137,140,140,138,137,140,140,137,138,140,139,139,137,138,140,137,140,137,140,
139,139,140,138,137,137,139,138,137,137,140,137,140,139,138,137,139,140,139,140,138,140,138,139,140,140,140,137,138,140,137,138,139,139,140,137,138,137,138,138,138,140,138,138,137,138,140,139,137,139,140,137,138,139,137,139,140,138,140,140,139,140,137,137,
139,138,139,140,140,140,138,138,138,138,138,138,137,140,137,138,139,138,137,138,138,138,138,138,139,140,138,139,138,140,137,139,139,138,140,137,140,137,137,137,138,140,137,139,138,140,138,139,140,139,139,140,137,137,139,140,140,140,139,138,140,138,137,140,
139,138,140,137,139,140,138,137,139,138,139,139,139,137,138,139,139,139,138,139,139,138,140,138,140,137,138,140,139,140,138,137,140,138,138,138,138,139,137,137,140,139,140,137,140,139,139,140,139,138,140,138,140,139,139,137,140,137,137,138,139,137,137,138,
138,138,139,139,137,138,138,138,137,140,138,137,137,139,139,138,138,139,139,138,140,137,137,137,138,139,137,140,138,138,139,137,138,140,139,138,138,137,138,139,139,137,139,137,138,137,140,138,138,137,138,140,139,140,138,137,137,138,137,138,137,139,139,140,
138,137,140,138,137,138,138,138,138,139,137,139,140,140,137,137,139,138,140,139,137,139,137,137,138,139,138,138,139,138,137,140,140,138,138,138,138,140,139,139,140,137,139,140,137,137,139,139,138,138,137,137,138,140,140,137,139,139,137,139,139,137,138,137,
138,138,139,138,138,139,138,138,138,139,139,138,139,138,139,137,138,138,140,138,139,137,140,139,137,137,137,139,138,137,138,140,137,140,138,139,139,139,137,138,138,139,137,140,138,137,137,138,137,138,138,139,138,139,138,139,140,139,140,138,140,140,137,139,
137,139,137,139,140,137,137,139,139,140,139,138,140,139,138,138,140,137,139,138,140,137,140,140,138,138,139,137,140,139,140,137,139,139,137,139,137,137,139,137,138,139,137,140,140,139,138,139,140,138,139,140,137,137,137,139,138,139,139,140,140,139,138,139,
139,138,139,140,140,138,137,139,140,137,137,137,137,138,139,139,140,139,140,140,140,138,138,138,139,137,140,139,137,140,138,137,140,138,138,137,140,138,140,138,138,140,139,140,138,140,139,138,137,137,138,139,137,140,137,138,140,137,137,137,137,138,140,137,
138,139,139,140,139,138,138,140,137,139,140,140,138,139,138,140,137,140,139,137,140,137,137,139,139,138,138,138,139,139,137,138,140,137,138,138,137,139,138,140,139,138,138,140,137,140,140,138,139,137,137,138,138,140,138,137,139,139,140,137,138,138,138,140,
139,139,140,140,137,137,140,140,139,138,139,139,139,139,140,138,140,137,137,138,139,137,139,138,139,137,140,138,138,138,139,139,137,137,140,140,137,140,137,138,139,138,137,137,139,138,140,140,140,137,140,139,138,139,138,137,139,138,138,138,137,140,137,137,
137,137,140,139,140,137,138,140,138,140,140,140,139,139,137,139,137,137,140,140,140,2,3,2,3,2,3,2,3,2,3,2,3,2,3,2,3,2,3,2,3,2,138,138,137,138,140,139,139,140,140,140,140,138,138,140,137,139,139,137,138,139,138,138,
140,138,138,137,138,139,139,138,137,140,139,137,138,137,137,140,138,138,137,137,139,2,3,2,3,2,3,2,3,2,3,2,3,2,3,2,3,2,3,2,3,2,137,140,139,139,137,137,138,138,138,138,140,138,140,137,137,140,139,137,137,140,137,139,
138,137,139,139,138,137,138,140,139,137,137,139,138,140,140,137,140,138,138,139,138,2,3,2,3,2,3,2,3,2,3,2,3,2,3,2,3,2,3,2,3,2,137,138,140,139,140,137,139,140,138,138,137,139,140,137,138,137,137,137,139,138,138,139,
139,140,140,137,137,138,137,139,140,140,138,138,137,139,140,137,140,138,139,140,137,2,3,2,3,2,3,2,3,2,3,2,3,2,3,2,3,2,3,2,3,2,138,137,140,139,139,137,140,140,139,139,138,140,140,140,138,139,137,137,140,140,139,137,
139,139,140,139,140,140,138,138,137,139,137,140,138,137,140,138,139,138,140,137,137,2,3,2,3,2,3,2,3,2,3,2,3,2,3,2,3,2,3,2,3,2,137,138,140,139,140,137,139,140,140,139,139,139,138,138,140,137,140,139,140,139,138,138,
140,140,139,138,137,138,137,140,139,140,139,138,137,139,138,139,139,140,137,139,138,2,3,2,3,2,3,2,3,2,3,2,3,2,3,2,3,2,3,2,3,2,140,138,140,138,139,139,140,137,138,138,140,139,139,140,137,140,139,140,139,139,140,138,
140,138,138,140,138,139,137,139,137,137,140,139,138,138,140,137,138,137,138,138,139,2,3,2,3,2,3,2,3,2,3,2,3,2,3,2,3,2,3,2,3,2,138,140,137,140,137,140,139,139,139,138,140,140,137,139,139,137,140,138,139,140,138,140,
140,139,139,139,139,137,139,140,139,139,140,140,139,139,140,139,139,138,140,138,140,2,3,2,3,2,3,2,3,2,3,2,3,2,3,2,3,2,3,2,3,2,137,137,140,140,140,137,137,140,139,140,140,139,139,137,138,137,137,137,140,137,139,137,
137,140,139,140,139,140,137,140,137,140,138,140,140,137,137,138,137,140,140,140,139,2,3,2,3,2,3,2,3,2,3,2,3,2,3,2,3,2,3,2,3,2,138,139,140,140,139,137,138,139,140,140,139,139,138,140,140,139,138,138,137,138,138,139,
137,140,140,138,140,139,139,140,138,137,138,137,139,137,139,138,139,140,138,137,138,2,3,2,3,2,3,2,3,2,3,2,3,2,3,2,3,2,3,2,3,2,138,140,138,140,137,140,138,139,139,138,140,137,139,137,138,139,139,138,137,139,137,137,
138,138,140,140,140,138,138,140,140,138,139,139,139,140,139,139,140,139,139,138,139,2,3,2,3,2,3,2,3,2,3,2,3,2,3,2,3,2,3,2,3,2,138,140,140,138,138,139,138,137,138,139,137,138,137,140,138,137,139,140,139,137,139,140,
139,138,139,139,138,140,138,137,139,140,138,138,139,137,137,139,140,137,138,138,138,2,3,2,3,2,3,2,3,2,3,2,3,2,3,2,3,2,3,2,3,2,140,140,138,140,138,140,137,137,137,138,137,138,140,140,137,138,140,139,140,139,137,138,
137,139,138,137,138,139,139,138,137,139,138,137,139,140,139,138,138,139,138,2,3,2,3,2,3,2,3,2,3,2,3,2,3,2,3,2,3,2,3,2,3,2,2,3,139,137,137,139,139,139,137,140,138,140,138,140,137,137,140,140,140,137,138,138,
137,137,139,138,138,139,139,139,140,137,139,140,137,137,139,139,137,138,139,2,3,2,3,2,3,2,3,2,3,2,3,2,3,2,3,2,3,2,3,2,3,2,2,3,139,137,138,140,140,138,140,140,138,139,138,139,138,139,139,137,139,137,140,138,
137,139,137,138,139,138,138,137,139,138,139,140,139,138,138,138,140,138,140,140,137,2,3,2,3,2,3,2,3,2,3,2,3,2,3,2,3,2,3,2,3,2,138,137,140,138,140,137,139,139,137,139,140,139,139,137,139,137,139,138,140,140,139,139,
139,138,137,139,140,139,137,137,137,137,140,140,140,139,138,138,138,138,137,139,139,2,3,2,3,2,3,2,3,2,3,2,3,2,3,2,3,2,3,2,3,2,138,138,140,137,139,139,140,139,140,139,139,138,139,137,139,140,137,138,139,139,139,139,
137,140,140,140,137,138,139,140,138,140,137,138,139,139,137,139,137,140,137,2,3,2,3,2,3,2,3,2,3,2,3,2,3,2,3,2,3,2,3,2,3,2,2,3,137,138,138,138,139,140,137,139,140,139,137,139,137,137,140,137,139,137,138,140,
137,138,140,139,138,139,139,140,140,138,138,137,137,139,139,138,137,140,138,2,3,2,3,2,3,2,3,2,3,2,3,2,3,2,3,2,3,2,3,2,3,2,2,3,137,138,138,139,137,140,140,139,140,140,137,140,137,140,139,138,137,140,140,139,
140,140,139,137,140,137,138,139,139,138,137,138,137,139,140,137,140,138,140,139,137,2,3,2,3,2,3,2,3,2,3,2,3,2,3,2,3,2,3,2,3,2,140,139,138,140,140,140,138,138,140,140,137,140,138,139,139,138,137,138,137,139,138,139,
139,138,137,140,140,139,137,140,140,137,139,140,139,137,140,140,138,138,140,140,139,2,3,2,3,2,3,2,3,2,3,2,3,2,3,2,3,2,3,2,3,2,139,140,137,138,137,140,137,140,137,140,139,138,140,139,137,138,140,137,139,138,139,139,
137,140,137,138,139,137,139,137,138,139,139,137,138,140,140,140,140,137,138,137,140,2,3,2,3,2,3,2,3,2,3,2,3,2,3,2,3,2,3,2,3,2,140,139,140,137,138,137,140,139,140,137,139,140,140,140,140,138,139,140,139,139,137,137,
140,137,139,138,139,138,139,140,138,140,138,139,139,139,140,140,138,137,139,139,138,2,3,2,3,2,3,2,3,2,3,2,3,2,3,2,3,2,3,2,3,2,137,137,138,139,137,138,140,137,138,138,137,138,138,140,138,139,140,139,137,137,138,139,
139,138,140,140,138,138,137,140,138,137,138,140,140,139,138,137,137,137,137,138,139,2,3,2,3,2,3,2,3,2,3,2,3,2,3,2,3,2,3,2,3,2,138,137,139,137,139,138,140,138,140,138,140,140,140,140,138,139,140,138,140,137,139,139,
140,137,138,140,140,138,139,138,138,137,139,140,138,138,137,137,138,137,138,137,139,2,3,2,3,2,3,2,3,2,3,2,3,2,3,2,3,2,3,2,3,2,137,137,137,140,139,138,139,138,139,137,138,138,138,140,140,140,138,140,140,140,138,140,
140,139,140,137,140,139,138,139,139,137,138,139,137,137,138,138,137,138,137,138,139,2,3,2,3,2,3,2,3,2,3,2,3,2,3,2,3,2,3,2,3,2,138,140,140,138,138,140,139,140,138,138,138,140,139,137,139,139,137,140,140,137,140,138,
138,140,138,137,140,137,139,137,139,137,140,140,138,140,139,138,138,137,138,139,139,2,3,2,3,2,3,2,3,2,3,2,3,2,3,2,3,2,3,2,3,2,140,140,137,140,137,139,140,138,138,138,140,137,139,138,138,137,139,137,140,139,138,140,
140,140,139,139,138,138,137,137,137,139,140,138,140,138,139,138,139,139,137,140,139,2,3,2,3,2,3,2,3,2,3,2,3,2,3,2,3,2,3,2,3,2,139,139,138,137,139,138,140,137,140,138,139,137,138,139,138,137,140,140,140,138,140,139,
138,138,138,138,140,139,139,138,139,137,138,137,137,139,139,140,137,138,140,140,138,137,140,139,139,137,138,139,139,139,139,140,137,139,140,138,139,138,140,138,140,139,139,140,139,139,139,138,137,137,137,139,140,138,140,138,140,138,139,140,138,137,140,139,
137,137,137,140,139,139,139,139,139,138,140,139,137,139,139,139,138,137,137,140,140,140,138,137,140,140,138,140,138,137,137,139,138,137,140,139,139,140,138,137,139,139,139,139,139,139,138,137,140,140,137,139,137,140,139,138,137,137,139,140,138,138,140,137,
138,137,138,138,138,137,138,137,137,137,140,137,140,138,140,139,138,137,140,138,137,140,138,137,137,137,140,140,140,139,138,137,137,140,139,137,140,139,138,140,139,139,139,140,138,139,138,138,138,138,138,138,138,139,137,138,137,138,140,138,140,140,140,139,
137,137,140,137,140,137,140,140,140,138,137,138,137,140,140,139,140,137,137,140,139,138,138,137,137,139,137,139,140,138,137,140,140,138,139,139,139,139,138,137,137,140,138,137,139,139,140,139,138,139,138,138,139,139,140,138,139,138,139,137,139,140,139,140,
138,138,137,140,137,138,137,140,138,138,140,139,137,137,138,139,139,139,138,138,138,140,138,138,138,138,138,139,140,140,138,139,137,139,139,139,137,137,139,139,138,139,138,140,138,140,138,137,139,138,140,138,137,140,137,140,140,137,137,139,137,138,138,138,
140,140,139,137,139,140,139,140,138,140,137,139,138,139,137,137,140,138,139,139,138,139,138,139,137,137,137,137,139,140,139,140,140,137,140,139,139,140,137,137,140,138,137,137,140,139,138,138,137,138,139,140,137,140,137,139,137,137,138,137,140,138,138,139,
138,139,137,140,137,137,137,138,138,140,139,138,140,140,137,139,139,140,137,137,138,137,137,140,140,140,138,139,140,137,138,139,138,140,138,137,139,140,138,139,139,139,137,140,139,137,137,139,139,138,137,140,137,140,139,140,140,137,140,140,138,139,139,139,
138,140,140,138,138,140,139,138,140,138,138,137,139,140,138,138,137,139,140,140,140,137,138,139,137,137,139,137,139,139,140,139,140,138,140,138,139,137,139,138,139,138,137,137,137,138,140,138,139,140,138,138,140,138,138,138,138,138,138,137,139,140,137,138,
137,140,138,140,140,138,139,140,138,137,139,138,138,138,138,140,139,140,137,139,137,139,137,140,140,139,139,139,140,140,138,137,140,140,140,137,139,138,140,138,137,140,137,139,137,140,140,139,139,140,140,139,137,138,139,138,139,138,139,137,140,137,140,139,
140,137,138,138,137,137,137,137,139,140,138,137,139,138,137,139,138,138,140,140,139,139,140,137,137,139,138,140,140,139,138,139,137,138,140,138,139,140,140,138,140,138,137,138,138,140,139,139,138,140,139,137,138,138,139,139,138,138,138,139,139,140,137,140,
140,139,140,139,140,140,139,140,138,139,138,139,139,140,137,137,137,140,138,138,139,138,137,139,138,138,140,140,139,137,139,139,139,140,140,137,137,138,138,138,138,138,140,140,138,140,139,138,138,137,138,139,139,140,139,140,140,138,140,139,140,139,137,140,
137,137,138,138,138,137,139,138,137,140,139,138,138,140,140,138,140,138,137,140,139,140,139,140,140,137,140,138,137,138,139,140,137,139,138,139,139,137,139,138,139,138,137,139,140,138,140,137,138,137,139,140,138,140,138,140,140,140,139,138,138,139,138,138,
140,139,138,138,140,138,137,139,138,140,138,137,140,139,137,140,140,138,140,138,138,140,139,139,140,137,138,137,139,137,138,138,137,137,138,139,137,137,137,137,137,138,139,137,137,140,139,138,138,137,140,139,138,138,138,137,139,138,139,138,139,138,137,140,
137,138,140,137,140,139,139,140,139,137,140,139,138,140,139,140,138,139,140,140,137,137,137,138,137,138,137,138,139,139,139,137,140,140,139,138,139,137,140,138,137,137,138,139,140,140,137,140,140,140,138,139,139,137,138,137,137,137,138,137,139,137,137,137,
140,137,139,140,140,140,140,138,139,139,139,140,138,138,137,137,139,138,140,140,139,138,140,137,140,138,140,137,137,140,140,139,137,138,139,138,139,140,137,139,139,139,140,139,139,139,138,139,137,137,138,138,137,138,140,137,139,138,138,138,137,140,137,137,
138,137,138,139,138,139,140,140,137,138,140,139,139,140,137,140,140,140,139,140,137,137,139,139,138,140,137,139,139,137,138,139,138,140,138,138,138,139,138,137,137,140,138,140,139,138,138,140,139,140,137,140,139,139,140,140,137,137,138,138,137,137,140,137
</data>
 </layer>
 <objectgroup id="2" name="Units/Buildings">
  <object id="296" template="../units/P_Soldier.tx" x="384" y="624"/>
  <object id="420" template="../units/C_Soldier.tx" x="384" y="608"/>
  <object id="423" template="../units/C_Soldier.tx" x="512" y="592"/>
 </objectgroup>
</map>
