<?xml version="1.0" encoding="UTF-8"?>
<map version="1.10" tiledversion="1.12.1" orientation="orthogonal" renderorder="right-down" width="64" height="64" tilewidth="16" tileheight="16" infinite="0" nextlayerid="5" nextobjectid="259">
 <editorsettings>
  <export target="../../../assets/map/clash.fgm" format="Future Glimpses map (*.fgm)"/>
 </editorsettings>
 <properties>
  <property name="AI_MODE" type="int" propertytype="AI_MODE" value="2"/>
  <property name="ENABLE_BARRACKS" type="bool" value="true"/>
  <property name="ENABLE_BLACKSMITH" type="bool" value="true"/>
  <property name="ENABLE_FARM" type="bool" value="true"/>
  <property name="ENABLE_STABLES" type="bool" value="true"/>
  <property name="ENABLE_TOWER" type="bool" value="true"/>
  <property name="MSG_DESCRIPTION" value="Conquista el campamento enemigo"/>
  <property name="MSG_LOSE" value="Has perdido"/>
  <property name="MSG_TITLE" value="Conquista"/>
  <property name="MSG_WIN" value="Has ganado"/>
  <property name="PEACE_TIME" type="int" value="300"/>
  <property name="RES_GOLD_COMPUTER" type="int" value="1000"/>
  <property name="RES_GOLD_PLAYER" type="int" value="1000"/>
  <property name="RES_WOOD_COMPUTER" type="int" value="500"/>
  <property name="RES_WOOD_PLAYER" type="int" value="500"/>
 </properties>
 <tileset firstgid="1" source="../tileset.tsx"/>
 <tileset firstgid="257" source="../units/units.tsx"/>
 <tileset firstgid="267" source="../buildings/big_buildings.tsx"/>
 <tileset firstgid="273" source="../buildings/small_buildings.tsx"/>
 <layer id="1" name="Map" width="64" height="64">
  <data encoding="csv">
195,195,195,195,195,195,195,195,195,195,195,195,195,195,195,195,195,195,195,195,195,195,195,195,195,195,195,195,195,195,195,195,195,195,195,195,131,132,129,130,131,132,129,130,131,132,129,129,129,129,129,129,130,131,132,130,131,129,129,130,129,130,131,132,
195,196,196,196,196,196,196,196,196,196,196,196,196,196,196,196,196,196,196,196,196,196,196,196,196,196,196,196,196,196,196,196,196,196,196,195,131,132,129,130,169,170,170,171,131,132,129,129,129,129,129,129,130,131,132,130,131,129,129,130,129,130,131,132,
195,6,7,8,5,6,6,7,8,5,7,8,5,6,7,8,5,6,6,19,2,3,129,130,131,132,129,130,131,132,129,130,131,132,129,195,131,132,129,130,172,177,178,173,131,132,129,130,1,145,146,147,148,129,129,129,130,129,129,130,129,130,131,132,
195,7,7,8,5,6,6,7,8,5,7,8,5,6,7,8,5,6,6,6,19,2,3,130,131,132,129,130,131,132,129,130,131,132,129,195,131,132,129,130,172,177,178,173,131,132,129,130,1,145,146,147,148,129,129,129,129,129,129,130,129,130,131,132,
195,7,150,149,150,151,152,149,150,7,7,8,5,6,7,8,5,6,6,6,35,2,2,3,131,132,129,130,131,132,129,130,131,132,129,195,131,132,129,130,174,175,175,176,131,132,129,130,1,145,146,147,148,129,129,129,129,129,129,130,129,130,131,132,
195,7,150,5,150,5,152,5,150,7,7,8,5,6,7,8,5,6,7,6,6,19,2,3,131,132,129,130,131,132,129,130,131,132,129,195,131,132,129,130,131,132,129,130,131,132,129,4,1,145,146,147,148,2,129,129,129,129,129,129,129,130,131,132,
195,149,150,5,5,6,6,5,150,151,7,8,5,6,7,8,5,6,7,6,6,6,19,2,3,132,129,130,131,132,129,130,131,132,129,195,131,132,129,130,131,132,129,130,131,132,129,4,1,2,3,4,1,129,130,131,132,132,129,129,129,130,131,132,
195,149,7,8,5,6,7,8,5,149,7,8,5,6,7,8,5,6,7,8,6,6,35,19,3,132,129,130,131,132,129,130,131,132,129,195,131,132,129,130,131,132,129,130,131,132,3,4,1,2,3,4,1,129,130,131,129,130,131,132,129,130,131,132,
195,7,7,8,5,6,7,8,5,6,7,8,5,6,7,8,5,6,7,8,5,6,6,35,3,132,129,130,131,132,129,130,131,132,129,195,131,132,129,130,131,132,129,130,131,132,3,4,1,2,3,4,1,129,130,131,129,130,131,132,129,130,131,132,
195,6,7,8,5,6,7,8,5,6,7,8,5,6,7,8,5,6,7,8,5,6,6,7,195,195,195,195,195,195,195,195,195,195,195,195,131,132,129,130,131,132,129,130,131,2,3,4,22,23,24,4,1,129,130,131,129,130,131,132,129,130,131,132,
195,6,7,8,5,6,7,8,5,6,7,8,5,6,7,8,5,6,7,8,5,6,6,7,195,195,195,195,195,195,196,196,196,196,196,196,131,132,129,130,131,132,129,130,131,2,3,4,38,9,40,4,1,129,129,130,129,130,131,132,129,130,131,132,
195,6,7,8,5,6,7,8,5,6,7,8,5,6,7,8,5,6,7,8,5,6,6,7,195,196,196,196,196,196,129,130,131,132,129,130,131,132,129,130,131,132,129,130,1,2,3,4,54,55,56,4,1,129,129,129,129,130,131,132,129,130,131,132,
195,6,7,8,5,6,7,8,5,6,7,8,5,6,7,8,5,6,7,8,5,6,7,8,195,2,3,130,131,132,129,130,131,132,129,130,131,132,129,130,131,132,129,4,1,2,3,4,1,2,3,4,1,129,129,129,129,130,131,132,129,130,131,132,
195,6,7,6,6,6,6,7,5,6,7,8,5,6,7,8,5,6,7,8,5,6,7,8,195,2,3,4,131,132,129,130,131,132,129,130,131,132,129,130,131,132,129,4,1,2,3,4,1,2,3,4,1,129,129,130,131,132,130,131,129,130,131,132,
196,50,50,50,50,50,6,6,7,6,7,8,5,6,7,8,5,6,7,8,5,6,7,8,195,2,3,4,1,132,129,130,131,132,129,130,131,132,129,130,131,132,3,4,1,2,3,4,1,2,3,4,1,129,130,131,132,132,130,131,129,130,131,132,
129,130,131,132,129,131,49,6,7,6,7,8,5,6,7,8,5,6,7,8,5,6,7,195,195,2,3,4,1,132,129,130,131,132,129,130,131,132,129,130,131,132,3,4,1,2,3,4,1,2,3,4,129,130,131,132,132,132,129,130,129,130,131,132,
129,130,131,132,129,130,131,49,6,6,6,7,5,6,7,8,5,6,7,8,5,6,7,196,196,2,3,4,1,2,129,130,131,132,129,130,131,132,129,130,131,2,3,4,1,2,3,4,1,2,3,129,130,131,132,132,129,129,130,131,132,130,131,132,
129,130,131,132,129,130,131,132,49,50,6,6,7,6,7,8,5,6,7,8,5,6,7,35,1,2,3,4,1,2,3,130,131,132,129,130,131,132,129,130,131,2,3,4,1,2,3,4,1,2,129,130,131,132,129,129,129,129,130,131,132,130,131,132,
129,130,131,132,129,130,131,132,129,130,195,195,195,195,195,8,5,6,7,195,50,50,50,51,1,2,3,4,22,23,24,4,131,132,129,130,131,132,129,130,1,2,3,4,1,2,3,129,130,131,132,132,132,129,129,129,129,129,130,131,132,130,131,132,
129,130,131,132,129,130,131,132,129,130,196,196,196,196,195,195,195,195,195,195,1,1,1,4,1,2,3,4,38,9,40,4,1,2,3,4,1,2,3,4,1,2,3,4,1,2,129,130,131,132,132,132,129,129,129,129,129,129,130,131,132,130,131,132,
129,130,131,132,129,130,131,132,129,130,131,132,129,130,196,195,196,196,196,196,1,1,1,1,1,2,3,4,54,55,56,4,1,2,3,4,1,2,3,4,1,2,3,4,1,129,130,131,132,132,129,129,129,129,129,129,129,129,130,131,132,130,131,132,
129,130,131,132,129,130,131,132,129,130,131,132,129,130,131,195,195,2,3,4,1,1,1,1,1,2,3,4,1,2,169,170,170,171,3,4,169,170,170,171,1,2,3,4,129,130,131,132,132,129,129,129,129,129,129,129,129,130,131,132,129,130,131,132,
129,130,131,132,169,170,170,171,129,130,131,132,129,130,131,132,195,195,3,4,1,2,3,1,1,2,3,4,1,2,172,177,178,173,3,4,172,177,178,173,1,2,3,4,129,130,131,132,129,129,129,129,129,129,129,130,131,132,131,132,129,130,131,132,
129,130,131,132,172,177,178,173,129,130,131,132,129,130,131,132,129,195,195,4,1,2,3,4,22,23,24,4,1,2,172,177,178,173,3,4,172,177,178,173,1,2,3,4,129,130,131,132,129,129,129,129,129,130,131,132,129,130,131,132,129,130,131,132,
129,130,131,132,172,177,178,173,129,130,131,132,129,130,131,132,129,130,195,195,1,2,3,4,38,9,40,4,1,2,172,177,178,173,3,4,172,177,178,173,1,2,3,4,129,130,131,132,129,129,129,129,130,131,132,132,129,130,131,132,129,130,131,132,
129,130,131,132,174,175,175,176,129,130,131,132,129,130,131,132,129,130,131,195,195,2,3,4,54,55,56,4,1,2,172,177,178,173,3,4,172,177,178,173,1,2,3,4,129,130,131,132,129,129,130,131,132,130,131,132,129,169,170,170,171,130,131,132,
129,130,131,132,129,130,131,132,129,130,131,132,129,130,131,132,129,130,131,132,195,2,3,4,1,2,3,4,1,2,172,177,178,173,3,4,172,177,178,173,1,2,3,4,129,130,131,132,129,130,131,132,129,130,131,132,129,172,177,178,173,130,131,132,
129,130,131,132,129,130,131,132,129,130,131,132,129,130,131,132,129,130,131,132,195,2,3,4,1,2,3,4,1,2,172,177,178,173,3,4,172,177,178,173,1,2,3,4,129,130,131,132,129,130,131,132,129,130,131,132,129,172,177,178,173,130,131,132,
129,130,131,132,129,130,131,132,129,130,131,132,129,130,131,132,129,130,131,132,195,2,3,4,1,2,3,4,1,2,172,177,178,173,3,4,172,177,178,173,1,2,3,4,129,130,131,132,129,130,131,132,129,130,131,132,129,174,175,175,176,130,131,132,
195,195,195,195,195,195,195,195,195,195,195,195,195,195,195,195,195,195,195,195,195,2,3,4,1,2,3,4,1,2,172,177,178,173,3,4,172,177,178,173,1,2,3,4,129,130,131,132,129,130,131,132,129,130,131,132,129,130,131,132,129,130,131,132,
196,196,196,196,196,196,196,196,196,196,196,196,196,196,196,196,196,196,196,196,196,2,3,4,1,2,3,4,1,2,172,177,178,173,3,4,172,177,178,173,1,2,3,4,129,130,131,132,129,130,131,132,129,130,131,132,129,130,131,132,129,130,131,132,
129,130,131,132,129,130,131,132,129,130,131,132,129,130,131,132,129,130,131,132,129,2,3,4,1,2,3,4,1,2,172,177,178,173,3,4,172,177,178,173,1,2,3,4,129,130,131,132,195,195,195,195,195,195,195,195,195,195,195,195,195,195,195,195,
129,130,131,132,129,130,131,132,129,130,131,132,129,130,131,132,129,130,131,132,129,2,3,4,1,2,3,4,1,2,172,177,178,173,3,4,172,179,180,173,1,2,3,4,129,195,195,195,195,196,196,196,196,196,196,196,196,196,196,196,196,196,196,196,
129,130,131,132,129,130,131,132,129,130,131,132,129,130,131,132,129,130,131,132,1,2,3,4,1,2,3,4,1,2,174,175,175,176,3,4,174,175,175,176,2,2,3,4,195,195,196,196,196,130,131,132,129,130,131,132,129,130,131,132,129,130,131,132,
129,130,131,169,170,170,171,132,129,130,131,132,129,130,131,132,129,130,131,132,1,2,3,4,1,2,3,4,1,3,4,1,2,2,3,4,2,2,2,2,2,2,3,4,195,196,131,132,129,130,131,132,129,130,131,132,129,130,131,132,129,130,131,132,
129,130,131,172,177,178,173,132,129,130,131,132,129,130,131,132,129,130,131,4,1,2,22,23,24,2,3,4,1,3,4,1,2,2,3,4,2,2,2,2,2,2,3,4,195,130,131,132,129,130,131,132,129,130,131,132,129,130,131,132,129,130,131,132,
129,130,131,172,177,178,173,132,129,130,131,132,129,130,131,132,129,130,131,4,1,2,38,9,40,2,3,4,1,3,1,2,3,4,3,4,1,2,3,4,2,2,3,4,195,195,131,132,129,130,131,132,129,130,131,132,169,170,170,171,129,130,131,132,
129,130,131,174,175,175,176,132,129,130,131,132,129,130,131,132,129,130,3,4,1,2,54,55,56,2,3,4,1,2,1,2,3,4,3,4,1,2,3,4,1,2,3,4,196,195,195,132,129,130,131,132,129,130,131,132,172,177,178,173,129,130,131,132,
129,130,131,132,129,130,131,132,129,130,131,132,129,130,131,132,1,2,3,4,1,2,3,4,1,2,3,4,1,2,22,23,24,4,3,4,1,2,3,4,1,2,3,4,1,196,195,195,129,130,131,132,129,130,131,132,172,177,178,173,129,130,131,132,
129,130,131,132,129,130,131,132,129,130,131,132,129,130,131,4,1,2,3,4,1,2,3,4,1,2,3,4,1,2,38,9,40,4,3,4,1,2,3,4,1,2,3,4,1,2,196,195,195,130,131,132,129,130,131,132,174,175,175,176,129,130,131,132,
129,130,131,132,129,130,131,132,129,130,131,132,129,130,3,4,1,2,3,4,1,2,3,4,1,2,3,4,1,2,54,55,56,2,3,4,1,2,22,23,24,2,3,4,1,2,3,196,195,195,131,132,129,130,131,132,129,130,131,132,129,130,131,132,
129,130,131,132,129,130,131,132,129,130,131,132,129,2,3,4,1,2,3,4,1,2,3,4,1,2,3,4,1,2,3,4,1,2,3,4,1,2,38,9,40,2,3,4,1,2,3,4,196,195,195,195,129,130,131,132,129,130,131,132,129,130,131,132,
129,130,131,132,129,130,131,132,129,130,131,132,1,2,3,4,1,2,3,4,1,2,3,4,1,2,3,4,1,2,3,4,1,2,3,4,1,2,54,55,56,2,3,4,1,2,3,4,1,196,196,195,195,130,131,132,129,130,131,132,129,130,131,132,
129,130,131,132,129,130,131,132,129,130,131,4,1,2,3,4,1,2,3,4,22,23,24,4,1,2,3,4,1,2,3,4,1,2,3,4,1,2,3,4,1,2,3,4,22,23,23,23,24,195,195,195,195,195,131,132,129,130,131,132,129,130,131,132,
129,130,131,132,129,130,131,132,129,130,3,4,1,2,3,4,1,2,3,4,38,9,40,4,1,2,3,4,1,2,3,4,1,2,3,4,1,2,3,4,1,2,3,4,38,10,11,12,12,196,196,196,196,195,132,132,129,130,131,132,129,130,131,132,
129,130,131,132,129,130,131,132,1,2,3,4,1,2,3,4,1,2,3,4,54,55,56,4,1,2,3,4,1,2,3,4,1,2,3,4,1,2,3,4,1,2,3,4,54,10,11,12,12,11,12,9,10,196,4,1,1,1,4,4,1,130,131,132,
129,130,131,132,129,130,131,4,1,2,3,4,1,2,3,4,1,2,3,4,1,2,3,4,1,2,3,4,1,2,3,4,1,2,3,4,1,2,3,4,1,2,3,4,22,10,11,12,12,11,12,9,10,11,23,23,23,23,23,195,195,195,195,195,
129,130,131,132,129,145,146,147,148,2,3,4,1,2,3,4,1,2,3,4,1,2,3,4,1,2,3,4,1,2,3,195,200,200,200,200,200,195,195,4,1,2,3,195,9,10,11,12,12,11,12,9,10,10,11,12,11,12,12,196,196,196,196,195,
129,130,131,132,1,145,146,147,148,2,3,4,1,2,3,4,1,2,3,4,1,2,3,4,1,2,3,4,195,195,195,195,196,196,196,196,196,196,196,195,195,195,3,195,9,10,11,12,12,11,12,9,10,10,11,12,9,10,11,12,9,155,156,195,
129,129,130,131,132,145,146,147,148,2,3,4,1,2,3,4,1,2,3,4,1,2,3,4,1,2,195,195,195,196,196,196,130,131,132,129,130,131,131,196,196,196,195,195,195,9,10,11,12,11,12,9,10,10,11,12,9,10,11,12,9,155,156,200,
129,129,129,130,131,132,146,147,148,2,3,4,1,2,3,4,1,2,3,4,1,2,3,4,1,195,195,196,196,131,132,129,130,131,132,129,130,131,132,129,130,196,196,196,195,9,10,11,12,11,12,9,10,10,11,12,9,10,11,12,9,155,156,200,
129,129,129,130,129,129,130,131,132,2,3,4,1,2,3,4,1,2,3,4,1,2,3,4,195,195,196,129,130,131,132,129,130,131,132,129,130,131,132,129,130,131,132,132,195,9,10,11,12,11,12,10,10,10,11,12,9,10,11,12,9,155,156,200,
129,129,129,130,129,129,129,129,129,129,129,129,129,129,130,131,132,2,3,4,1,2,3,195,195,196,132,129,130,131,132,129,130,131,132,129,130,131,132,129,130,131,132,129,195,9,9,10,12,11,12,9,10,10,11,12,9,10,11,12,9,153,154,200,
129,129,129,130,129,129,129,129,129,129,129,129,129,129,129,130,131,132,3,4,1,2,195,195,196,131,132,129,130,131,132,129,130,131,132,129,130,131,132,129,130,131,132,129,196,11,12,11,12,11,12,9,10,10,11,12,9,10,11,12,9,153,154,200,
129,129,129,130,129,129,129,129,129,129,129,129,129,129,129,130,131,132,3,4,1,195,195,196,130,131,132,129,130,131,132,129,130,131,132,129,130,131,132,129,130,131,132,129,38,10,12,11,12,11,12,9,10,10,11,12,9,10,12,12,9,153,154,200,
129,129,130,131,129,129,129,129,129,129,129,129,129,129,129,130,131,132,3,4,1,195,196,129,130,131,132,129,130,131,132,129,130,131,132,129,130,131,132,129,130,131,132,129,38,10,10,11,12,11,12,9,10,10,11,12,9,10,12,9,9,153,154,200,
129,129,129,130,131,129,129,129,129,129,129,129,129,129,129,130,131,132,3,4,195,195,129,129,130,131,132,129,130,131,132,129,130,131,132,129,130,131,132,129,130,131,132,129,38,10,10,11,12,10,11,12,9,10,11,12,9,10,11,12,9,153,154,200,
129,129,129,129,130,131,132,132,132,132,132,132,132,129,129,130,131,132,3,4,195,196,132,129,130,131,132,129,169,170,170,171,130,131,132,129,130,131,132,129,130,131,132,22,11,12,11,12,12,10,11,12,9,10,11,12,9,10,11,12,12,9,9,200,
129,130,131,132,129,130,131,132,132,132,132,132,132,132,129,130,131,132,3,195,195,129,132,129,130,131,132,129,172,177,178,173,130,131,132,129,130,131,132,129,130,131,132,38,10,11,12,11,12,10,11,12,9,10,11,12,9,10,11,12,12,12,9,200,
129,129,129,129,129,129,129,130,131,132,132,132,132,132,129,130,131,132,3,195,196,131,132,129,130,131,132,129,172,177,178,173,130,131,132,129,130,131,132,129,130,131,132,38,10,11,12,11,12,10,11,12,9,10,11,12,9,10,11,12,12,12,9,200,
129,129,129,129,129,129,129,129,129,129,130,131,132,132,132,130,131,132,195,195,130,131,132,129,130,131,132,129,174,175,175,176,130,131,132,129,130,131,132,129,130,131,132,38,9,10,12,11,12,10,11,12,9,10,11,12,9,10,11,12,12,12,9,200,
129,129,129,129,129,129,129,129,129,129,129,129,129,129,129,130,131,132,195,196,130,131,132,129,130,131,132,129,130,131,132,129,130,131,132,129,130,131,132,129,130,131,132,38,10,10,10,11,12,10,11,12,9,10,11,12,9,10,11,12,12,12,9,200,
129,129,129,129,129,129,129,129,129,129,129,129,129,129,129,130,131,132,195,129,130,131,132,129,130,131,132,129,130,131,132,129,130,131,132,129,130,131,132,129,130,131,132,195,200,200,200,200,200,200,200,200,200,200,200,200,200,200,200,200,200,200,200,195,
129,129,129,129,129,129,129,129,129,129,129,129,129,129,129,130,131,132,196,129,130,131,132,129,130,131,132,129,130,131,132,129,130,131,132,129,130,131,132,129,130,131,132,196,196,206,206,206,206,206,206,206,206,206,206,207,196,196,197,196,197,196,196,196
</data>
 </layer>
 <objectgroup id="2" name="Units/Buildings">
  <object id="71" template="../units/P_Worker.tx" x="880" y="768"/>
  <object id="72" template="../units/P_Worker.tx" x="912" y="832"/>
  <object id="94" template="../buildings/C_City_Hall.tx" x="64" y="192"/>
  <object id="115" template="../units/C_Worker.tx" x="48" y="128"/>
  <object id="120" template="../buildings/C_Barracks.tx" x="256" y="208"/>
  <object id="121" template="../buildings/C_Stables.tx" x="272" y="80" opacity="0.93"/>
  <object id="122" template="../buildings/C_Farm.tx" x="16" y="64"/>
  <object id="123" template="../buildings/C_Blacksmith.tx" x="176" y="96"/>
  <object id="124" template="../buildings/C_Tower.tx" x="192" y="160"/>
  <object id="125" template="../buildings/P_City_Hall.tx" x="848" y="896"/>
  <object id="126" template="../units/P_Worker.tx" x="944" y="864"/>
  <object id="127" template="../units/C_Worker.tx" x="112" y="128"/>
  <object id="132" template="../units/C_Worker.tx" x="80" y="128"/>
  <object id="235" template="../buildings/C_Farm.tx" x="144" y="96"/>
  <object id="239" template="../buildings/C_Farm.tx" x="176" y="64"/>
  <object id="243" template="../buildings/C_Farm.tx" x="48" y="64"/>
  <object id="244" template="../buildings/C_Farm.tx" x="112" y="64"/>
  <object id="245" template="../buildings/C_Farm.tx" x="144" y="64"/>
  <object id="246" template="../buildings/C_Farm.tx" x="80" y="64"/>
  <object id="249" template="../buildings/P_Farm.tx" x="976" y="992"/>
  <object id="250" template="../buildings/P_Farm.tx" x="944" y="992"/>
  <object id="255" template="../units/C_Mage.tx" x="368" y="240"/>
  <object id="256" template="../units/C_Mage.tx" x="288" y="304"/>
  <object id="257" template="../units/C_Knight.tx" x="352" y="272"/>
  <object id="258" template="../units/C_Knight.tx" x="320" y="288"/>
 </objectgroup>
</map>
