<?xml version="1.0" encoding="UTF-8"?>
<map version="1.10" tiledversion="1.12.1" orientation="orthogonal" renderorder="right-down" width="64" height="64" tilewidth="16" tileheight="16" infinite="0" nextlayerid="5" nextobjectid="528">
 <editorsettings>
  <export target="../../../assets/map/goranged.fgm" format="Future Glimpses map (*.fgm)"/>
 </editorsettings>
 <properties>
  <property name="AI_MODE" type="int" propertytype="AI_MODE" value="2"/>
  <property name="ENABLE_BARRACKS" type="bool" value="true"/>
  <property name="ENABLE_BLACKSMITH" type="bool" value="true"/>
  <property name="ENABLE_FARM" type="bool" value="true"/>
  <property name="ENABLE_STABLES" type="bool" value="true"/>
  <property name="ENABLE_TOWER" type="bool" value="true"/>
  <property name="ENABLE_TURRET" type="bool" value="false"/>
  <property name="ENABLE_UPGRADE_ARCHER" type="bool" value="true"/>
  <property name="ENABLE_UPGRADE_KNIGHT" type="bool" value="true"/>
  <property name="ENABLE_UPGRADE_MAGE" type="bool" value="true"/>
  <property name="ENABLE_UPGRADE_SOLDIER" type="bool" value="true"/>
  <property name="MSG_DESCRIPTION" value="La guerra total, para probar rendimiento."/>
  <property name="MSG_LOSE" value="Perdiste."/>
  <property name="MSG_TITLE" value="A por la distancia"/>
  <property name="MSG_WIN" value="Ganaste."/>
  <property name="PEACE_TIME" type="int" value="0"/>
  <property name="RES_GOLD_COMPUTER" type="int" value="1000"/>
  <property name="RES_GOLD_PLAYER" type="int" value="1000"/>
  <property name="RES_WOOD_COMPUTER" type="int" value="500"/>
  <property name="RES_WOOD_PLAYER" type="int" value="500"/>
  <property name="UPGRADED_ARCHER_COMPUTER" type="bool" value="false"/>
  <property name="UPGRADED_ARCHER_PLAYER" type="bool" value="false"/>
  <property name="UPGRADED_KNIGHT_COMPUTER" type="bool" value="false"/>
  <property name="UPGRADED_KNIGHT_PLAYER" type="bool" value="false"/>
  <property name="UPGRADED_MAGE_COMPUTER" type="bool" value="false"/>
  <property name="UPGRADED_MAGE_PLAYER" type="bool" value="false"/>
  <property name="UPGRADED_SOLDIER_COMPUTER" type="bool" value="false"/>
  <property name="UPGRADED_SOLDIER_PLAYER" type="bool" value="false"/>
 </properties>
 <tileset firstgid="1" source="../tileset.tsx"/>
 <tileset firstgid="257" source="../units/units.tsx"/>
 <tileset firstgid="267" source="../buildings/big_buildings.tsx"/>
 <tileset firstgid="273" source="../buildings/small_buildings.tsx"/>
 <layer id="1" name="Map" width="64" height="64">
  <data encoding="csv">
138,137,138,138,140,139,140,139,139,138,137,140,140,137,137,138,137,138,137,139,140,140,138,138,137,139,137,137,139,137,139,139,137,139,138,140,139,139,139,140,139,138,137,138,139,137,140,138,140,140,138,140,140,139,137,140,137,138,140,140,139,137,140,138,
137,140,140,137,139,137,138,139,138,138,138,139,140,138,138,140,138,140,137,140,140,139,137,140,138,140,139,140,138,140,140,137,140,137,138,139,140,137,139,139,140,140,138,137,138,137,137,139,137,140,140,139,140,138,140,138,140,139,140,137,140,140,140,140,
140,138,138,137,140,139,139,138,137,140,140,140,139,140,140,139,138,139,138,139,139,137,139,140,137,137,137,138,137,140,137,137,138,140,140,140,139,138,137,139,137,137,139,137,137,138,140,140,138,138,139,139,137,138,140,138,137,137,140,138,138,137,140,137,
137,139,140,140,139,140,137,140,140,140,138,137,138,140,137,137,138,140,139,140,137,140,138,138,138,140,138,137,137,138,139,137,140,140,139,137,137,137,139,138,140,140,140,140,138,137,138,137,137,140,138,139,140,140,139,139,139,138,140,140,140,138,139,137,
139,140,140,137,140,139,137,137,137,139,138,140,138,138,138,140,139,138,139,140,138,137,137,139,137,139,137,138,139,139,140,138,140,138,140,139,138,137,139,137,139,137,138,140,139,140,140,139,140,138,138,137,140,140,137,139,139,137,138,139,137,139,140,137,
139,138,139,137,138,139,137,137,137,137,137,138,140,139,137,138,139,139,137,139,140,137,137,139,138,138,138,139,139,137,138,140,140,139,139,137,140,138,137,140,137,137,140,140,138,140,139,137,140,139,137,138,140,137,138,138,139,140,137,140,137,137,139,140,
140,137,140,138,138,137,137,138,140,138,140,140,138,137,139,137,137,137,138,137,139,137,137,139,138,139,140,138,139,137,140,137,137,139,138,137,137,140,140,140,137,137,137,140,139,137,137,138,140,140,139,138,137,137,139,140,137,137,137,137,137,140,140,137,
137,137,137,139,140,137,137,140,137,139,138,139,137,140,137,137,137,140,137,137,139,137,140,140,137,140,137,140,139,138,140,139,140,140,137,137,139,138,138,137,137,140,139,138,140,139,140,138,138,139,138,138,139,138,139,140,137,140,139,137,138,137,140,139,
137,138,138,138,137,138,138,138,138,138,139,138,139,138,138,140,139,138,137,138,139,140,139,137,140,138,137,138,139,140,138,139,140,138,138,138,140,138,138,138,140,138,140,137,139,138,138,138,140,137,140,140,140,137,139,140,137,140,138,138,139,139,139,140,
138,140,139,139,138,137,138,138,140,137,140,137,140,140,138,139,140,139,138,137,137,140,140,140,140,138,139,138,138,138,140,139,139,138,139,138,137,140,137,137,137,137,137,138,139,139,137,139,138,138,137,139,138,139,139,137,139,137,139,139,140,138,138,138,
137,137,139,140,137,140,140,138,139,138,140,137,138,139,138,137,140,140,140,138,140,138,137,138,140,140,140,140,137,137,139,140,137,139,137,137,137,138,140,140,140,139,139,137,137,137,140,140,138,137,140,140,137,138,140,139,139,137,138,140,137,140,137,140,
139,139,140,138,137,137,139,138,137,137,140,137,140,139,138,137,139,140,139,140,138,140,138,139,140,140,140,137,138,140,137,138,139,139,140,137,138,137,138,138,138,140,138,138,137,138,140,139,137,139,140,137,138,139,137,139,140,138,140,140,139,140,137,137,
139,138,139,140,140,140,138,138,138,138,138,138,137,140,137,138,139,138,137,138,138,138,138,138,139,140,138,139,138,140,137,139,139,138,140,137,140,137,137,137,138,140,137,139,138,140,138,139,140,139,139,140,137,137,139,140,140,140,139,138,140,138,137,140,
139,138,140,137,139,140,138,137,139,138,139,139,139,137,138,139,139,139,138,139,139,138,140,138,140,137,138,140,139,140,138,137,140,138,138,138,138,139,137,137,140,139,140,137,140,139,139,140,139,138,140,138,140,139,139,137,140,137,137,138,139,137,137,138,
138,138,139,139,137,138,138,138,137,140,138,137,137,139,139,138,138,139,139,138,140,137,137,137,138,139,137,140,138,138,139,137,138,140,139,138,138,137,138,139,139,137,139,137,138,137,140,138,138,137,138,140,139,140,138,137,137,138,137,138,137,139,139,140,
138,137,140,138,137,138,138,138,138,139,137,139,140,140,137,137,139,138,140,139,137,139,137,137,138,139,138,138,139,138,137,140,140,138,138,138,138,140,139,139,140,137,139,140,137,137,139,139,138,138,137,137,138,140,140,137,139,139,137,139,139,137,138,137,
138,138,139,138,138,139,138,138,138,139,139,138,139,138,139,137,138,138,140,138,139,137,140,139,137,137,137,139,138,137,138,140,137,140,138,139,139,139,137,138,138,139,137,140,138,137,137,138,137,138,138,139,138,139,138,139,140,139,140,138,140,140,137,139,
137,139,137,139,140,137,137,139,139,140,139,138,140,139,138,138,140,137,139,138,140,137,140,140,138,138,139,137,140,139,140,137,139,139,137,139,137,137,139,137,138,139,137,140,140,139,138,139,140,138,139,140,137,137,137,139,138,139,139,140,140,139,138,139,
139,138,139,140,140,138,137,139,140,137,137,137,137,138,139,139,140,139,140,140,140,138,138,138,139,137,140,139,137,140,138,137,140,138,138,137,140,138,140,138,138,140,139,140,138,140,139,138,137,137,138,139,137,140,137,138,140,137,137,137,137,138,140,137,
138,139,139,140,139,138,138,140,137,139,140,140,138,139,138,140,137,140,139,137,140,137,137,139,139,138,138,138,139,139,137,138,140,137,138,138,137,139,138,140,139,138,138,140,137,140,140,138,139,137,137,138,138,140,138,137,139,139,140,137,138,138,138,140,
139,139,140,140,137,137,140,140,139,138,139,139,139,139,140,138,140,137,137,138,139,137,139,138,139,137,140,138,138,138,139,139,137,137,140,140,137,140,137,138,139,138,137,137,139,138,140,140,140,137,140,139,138,139,138,137,139,138,138,138,137,140,137,137,
137,137,140,139,140,137,138,140,138,140,140,140,139,139,137,139,137,137,140,140,140,2,3,2,3,2,3,2,3,2,3,2,3,2,3,2,3,2,3,2,3,2,138,138,137,138,140,139,139,140,140,140,140,138,138,140,137,139,139,137,138,139,138,138,
140,138,138,137,138,139,139,138,137,140,139,137,138,137,137,140,138,138,137,137,139,2,3,2,3,2,3,2,3,2,3,2,3,2,3,2,3,2,3,2,3,2,137,140,139,139,137,137,138,138,138,138,140,138,140,137,137,140,139,137,137,140,137,139,
138,137,139,139,138,137,138,140,139,137,137,139,138,140,140,137,140,138,138,139,138,2,3,2,3,2,3,2,3,2,3,2,3,2,3,2,3,2,3,2,3,2,137,138,140,139,140,137,139,140,138,138,137,139,140,137,138,137,137,137,139,138,138,139,
139,140,140,137,137,138,137,139,140,140,138,138,137,139,140,137,140,138,139,140,137,2,3,2,3,2,3,2,3,2,3,2,3,2,3,2,3,2,3,2,3,2,138,137,140,139,139,137,140,140,139,139,138,140,140,140,138,139,137,137,140,140,139,137,
139,139,140,139,140,140,138,138,137,139,137,140,138,137,140,138,139,138,140,137,137,2,3,2,3,2,3,2,3,2,3,2,3,2,3,2,3,2,3,2,3,2,137,138,140,139,140,137,139,140,140,139,139,139,138,138,140,137,140,139,140,139,138,138,
140,140,139,138,137,138,137,140,139,140,139,138,137,139,138,139,139,140,137,139,138,2,3,2,3,2,3,2,3,2,3,2,3,2,3,2,3,2,3,2,3,2,140,138,140,138,139,139,140,137,138,138,140,139,139,140,137,140,139,140,139,139,140,138,
140,138,138,140,138,139,137,139,137,137,140,139,138,138,140,137,138,137,138,138,139,2,3,2,3,2,3,2,3,2,3,2,3,2,3,2,3,2,3,2,3,2,138,140,137,140,137,140,139,139,139,138,140,140,137,139,139,137,140,138,139,140,138,140,
140,139,139,139,139,137,139,140,139,139,140,140,139,139,140,139,139,138,140,138,140,2,3,2,3,2,3,2,3,2,3,2,3,2,3,2,3,2,3,2,3,2,137,137,140,140,140,137,137,140,139,140,140,139,139,137,138,137,137,137,140,137,139,137,
137,140,139,140,139,140,137,140,137,140,138,140,140,137,137,138,137,140,140,140,139,2,3,2,3,2,3,2,3,2,3,2,3,2,3,2,3,2,3,2,3,2,138,139,140,140,139,137,138,139,140,140,139,139,138,140,140,139,138,138,137,138,138,139,
137,140,140,138,140,139,139,140,138,137,138,137,139,137,139,138,139,140,138,137,138,2,3,2,3,2,3,2,3,2,3,2,3,2,3,2,3,2,3,2,3,2,138,140,138,140,137,140,138,139,139,138,140,137,139,137,138,139,139,138,137,139,137,137,
138,138,140,140,140,138,138,140,140,138,139,139,139,140,139,139,140,139,139,138,139,2,3,2,3,2,3,2,3,2,3,2,3,2,3,2,3,2,3,2,3,2,138,140,140,138,138,139,138,137,138,139,137,138,137,140,138,137,139,140,139,137,139,140,
139,138,139,139,138,140,138,137,139,140,138,138,139,137,137,139,140,137,138,138,138,2,3,2,3,2,3,2,3,2,3,2,3,2,3,2,3,2,3,2,3,2,140,140,138,140,138,140,137,137,137,138,137,138,140,140,137,138,140,139,140,139,137,138,
137,139,138,137,138,139,139,138,137,139,138,137,139,140,139,138,138,139,138,2,3,2,3,2,3,2,3,2,3,2,3,2,3,2,3,2,3,2,3,2,3,2,2,3,139,137,137,139,139,139,137,140,138,140,138,140,137,137,140,140,140,137,138,138,
137,137,139,138,138,139,139,139,140,137,139,140,137,137,139,139,137,138,139,2,3,2,3,2,3,2,3,2,3,2,3,2,3,2,3,2,3,2,3,2,3,2,2,3,139,137,138,140,140,138,140,140,138,139,138,139,138,139,139,137,139,137,140,138,
137,139,137,138,139,138,138,137,139,138,139,140,139,138,138,138,140,138,140,140,137,2,3,2,3,2,3,2,3,2,3,2,3,2,3,2,3,2,3,2,3,2,138,137,140,138,140,137,139,139,137,139,140,139,139,137,139,137,139,138,140,140,139,139,
139,138,137,139,140,139,137,137,137,137,140,140,140,139,138,138,138,138,137,139,139,2,3,2,3,2,3,2,3,2,3,2,3,2,3,2,3,2,3,2,3,2,138,138,140,137,139,139,140,139,140,139,139,138,139,137,139,140,137,138,139,139,139,139,
137,140,140,140,137,138,139,140,138,140,137,138,139,139,137,139,137,140,137,2,3,2,3,2,3,2,3,2,3,2,3,2,3,2,3,2,3,2,3,2,3,2,2,3,137,138,138,138,139,140,137,139,140,139,137,139,137,137,140,137,139,137,138,140,
137,138,140,139,138,139,139,140,140,138,138,137,137,139,139,138,137,140,138,2,3,2,3,2,3,2,3,2,3,2,3,2,3,2,3,2,3,2,3,2,3,2,2,3,137,138,138,139,137,140,140,139,140,140,137,140,137,140,139,138,137,140,140,139,
140,140,139,137,140,137,138,139,139,138,137,138,137,139,140,137,140,138,140,139,137,2,3,2,3,2,3,2,3,2,3,2,3,2,3,2,3,2,3,2,3,2,140,139,138,140,140,140,138,138,140,140,137,140,138,139,139,138,137,138,137,139,138,139,
139,138,137,140,140,139,137,140,140,137,139,140,139,137,140,140,138,138,140,140,139,2,3,2,3,2,3,2,3,2,3,2,3,2,3,2,3,2,3,2,3,2,139,140,137,138,137,140,137,140,137,140,139,138,140,139,137,138,140,137,139,138,139,139,
137,140,137,138,139,137,139,137,138,139,139,137,138,140,140,140,140,137,138,137,140,2,3,2,3,2,3,2,3,2,3,2,3,2,3,2,3,2,3,2,3,2,140,139,140,137,138,137,140,139,140,137,139,140,140,140,140,138,139,140,139,139,137,137,
140,137,139,138,139,138,139,140,138,140,138,139,139,139,140,140,138,137,139,139,138,2,3,2,3,2,3,2,3,2,3,2,3,2,3,2,3,2,3,2,3,2,137,137,138,139,137,138,140,137,138,138,137,138,138,140,138,139,140,139,137,137,138,139,
139,138,140,140,138,138,137,140,138,137,138,140,140,139,138,137,137,137,137,138,139,2,3,2,3,2,3,2,3,2,3,2,3,2,3,2,3,2,3,2,3,2,138,137,139,137,139,138,140,138,140,138,140,140,140,140,138,139,140,138,140,137,139,139,
140,137,138,140,140,138,139,138,138,137,139,140,138,138,137,137,138,137,138,137,139,2,3,2,3,2,3,2,3,2,3,2,3,2,3,2,3,2,3,2,3,2,137,137,137,140,139,138,139,138,139,137,138,138,138,140,140,140,138,140,140,140,138,140,
140,139,140,137,140,139,138,139,139,137,138,139,137,137,138,138,137,138,137,138,139,2,3,2,3,2,3,2,3,2,3,2,3,2,3,2,3,2,3,2,3,2,138,140,140,138,138,140,139,140,138,138,138,140,139,137,139,139,137,140,140,137,140,138,
138,140,138,137,140,137,139,137,139,137,140,140,138,140,139,138,138,137,138,139,139,2,3,2,3,2,3,2,3,2,3,2,3,2,3,2,3,2,3,2,3,2,140,140,137,140,137,139,140,138,138,138,140,137,139,138,138,137,139,137,140,139,138,140,
140,140,139,139,138,138,137,137,137,139,140,138,140,138,139,138,139,139,137,140,139,2,3,2,3,2,3,2,3,2,3,2,3,2,3,2,3,2,3,2,3,2,139,139,138,137,139,138,140,137,140,138,139,137,138,139,138,137,140,140,140,138,140,139,
138,138,138,138,140,139,139,138,139,137,138,137,137,139,139,140,137,138,140,140,138,137,140,139,139,137,138,139,139,139,139,140,137,139,140,138,139,138,140,138,140,139,139,140,139,139,139,138,137,137,137,139,140,138,140,138,140,138,139,140,138,137,140,139,
137,137,137,140,139,139,139,139,139,138,140,139,137,139,139,139,138,137,137,140,140,140,138,137,140,140,138,140,138,137,137,139,138,137,140,139,139,140,138,137,139,139,139,139,139,139,138,137,140,140,137,139,137,140,139,138,137,137,139,140,138,138,140,137,
138,137,138,138,138,137,138,137,137,137,140,137,140,138,140,139,138,137,140,138,137,140,138,137,137,137,140,140,140,139,138,137,137,140,139,137,140,139,138,140,139,139,139,140,138,139,138,138,138,138,138,138,138,139,137,138,137,138,140,138,140,140,140,139,
137,137,140,137,140,137,140,140,140,138,137,138,137,140,140,139,140,137,137,140,139,138,138,137,137,139,137,139,140,138,137,140,140,138,139,139,139,139,138,137,137,140,138,137,139,139,140,139,138,139,138,138,139,139,140,138,139,138,139,137,139,140,139,140,
138,138,137,140,137,138,137,140,138,138,140,139,137,137,138,139,139,139,138,138,138,140,138,138,138,138,138,139,140,140,138,139,137,139,139,139,137,137,139,139,138,139,138,140,138,140,138,137,139,138,140,138,137,140,137,140,140,137,137,139,137,138,138,138,
140,140,139,137,139,140,139,140,138,140,137,139,138,139,137,137,140,138,139,139,138,139,138,139,137,137,137,137,139,140,139,140,140,137,140,139,139,140,137,137,140,138,137,137,140,139,138,138,137,138,139,140,137,140,137,139,137,137,138,137,140,138,138,139,
138,139,137,140,137,137,137,138,138,140,139,138,140,140,137,139,139,140,137,137,138,137,137,140,140,140,138,139,140,137,138,139,138,140,138,137,139,140,138,139,139,139,137,140,139,137,137,139,139,138,137,140,137,140,139,140,140,137,140,140,138,139,139,139,
138,140,140,138,138,140,139,138,140,138,138,137,139,140,138,138,137,139,140,140,140,137,138,139,137,137,139,137,139,139,140,139,140,138,140,138,139,137,139,138,139,138,137,137,137,138,140,138,139,140,138,138,140,138,138,138,138,138,138,137,139,140,137,138,
137,140,138,140,140,138,139,140,138,137,139,138,138,138,138,140,139,140,137,139,137,139,137,140,140,139,139,139,140,140,138,137,140,140,140,137,139,138,140,138,137,140,137,139,137,140,140,139,139,140,140,139,137,138,139,138,139,138,139,137,140,137,140,139,
140,137,138,138,137,137,137,137,139,140,138,137,139,138,137,139,138,138,140,140,139,139,140,137,137,139,138,140,140,139,138,139,137,138,140,138,139,140,140,138,140,138,137,138,138,140,139,139,138,140,139,137,138,138,139,139,138,138,138,139,139,140,137,140,
140,139,140,139,140,140,139,140,138,139,138,139,139,140,137,137,137,140,138,138,139,138,137,139,138,138,140,140,139,137,139,139,139,140,140,137,137,138,138,138,138,138,140,140,138,140,139,138,138,137,138,139,139,140,139,140,140,138,140,139,140,139,137,140,
137,137,138,138,138,137,139,138,137,140,139,138,138,140,140,138,140,138,137,140,139,140,139,140,140,137,140,138,137,138,139,140,137,139,138,139,139,137,139,138,139,138,137,139,140,138,140,137,138,137,139,140,138,140,138,140,140,140,139,138,138,139,138,138,
140,139,138,138,140,138,137,139,138,140,138,137,140,139,137,140,140,138,140,138,138,140,139,139,140,137,138,137,139,137,138,138,137,137,138,139,137,137,137,137,137,138,139,137,137,140,139,138,138,137,140,139,138,138,138,137,139,138,139,138,139,138,137,140,
137,138,140,137,140,139,139,140,139,137,140,139,138,140,139,140,138,139,140,140,137,137,137,138,137,138,137,138,139,139,139,137,140,140,139,138,139,137,140,138,137,137,138,139,140,140,137,140,140,140,138,139,139,137,138,137,137,137,138,137,139,137,137,137,
140,137,139,140,140,140,140,138,139,139,139,140,138,138,137,137,139,138,140,140,139,138,140,137,140,138,140,137,137,140,140,139,137,138,139,138,139,140,137,139,139,139,140,139,139,139,138,139,137,137,138,138,137,138,140,137,139,138,138,138,137,140,137,137,
138,137,138,139,138,139,140,140,137,138,140,139,139,140,137,140,140,140,139,140,137,137,139,139,138,140,137,139,139,137,138,139,138,140,138,138,138,139,138,137,137,140,138,140,139,138,138,140,139,140,137,140,139,139,140,140,137,137,138,138,137,137,140,137
</data>
 </layer>
 <objectgroup id="2" name="Units/Buildings">
  <object id="295" template="../units/P_Soldier.tx" x="448" y="592"/>
  <object id="296" template="../units/P_Soldier.tx" x="432" y="592"/>
  <object id="305" template="../units/P_Soldier.tx" x="512" y="592"/>
  <object id="306" template="../units/P_Soldier.tx" x="464" y="592"/>
  <object id="307" template="../units/P_Soldier.tx" x="480" y="592"/>
  <object id="308" template="../units/P_Soldier.tx" x="496" y="592"/>
  <object id="309" template="../units/P_Soldier.tx" x="528" y="592"/>
  <object id="310" template="../units/P_Soldier.tx" x="544" y="592"/>
  <object id="327" template="../units/P_Soldier.tx" x="448" y="576"/>
  <object id="328" template="../units/P_Soldier.tx" x="432" y="576"/>
  <object id="329" template="../units/P_Soldier.tx" x="512" y="576"/>
  <object id="330" template="../units/P_Soldier.tx" x="464" y="576"/>
  <object id="331" template="../units/P_Soldier.tx" x="480" y="576"/>
  <object id="332" template="../units/P_Soldier.tx" x="496" y="576"/>
  <object id="333" template="../units/P_Soldier.tx" x="528" y="576"/>
  <object id="334" template="../units/P_Soldier.tx" x="544" y="576"/>
  <object id="373" template="../units/P_Knight.tx" x="432" y="560"/>
  <object id="374" template="../units/P_Knight.tx" x="448" y="560"/>
  <object id="376" template="../units/P_Knight.tx" x="464" y="560"/>
  <object id="377" template="../units/P_Knight.tx" x="480" y="560"/>
  <object id="378" template="../units/P_Knight.tx" x="496" y="560"/>
  <object id="379" template="../units/P_Knight.tx" x="512" y="560"/>
  <object id="380" template="../units/P_Knight.tx" x="544" y="560"/>
  <object id="381" template="../units/P_Knight.tx" x="528" y="560"/>
  <object id="416" template="../units/C_Soldier.tx" x="336" y="560"/>
  <object id="417" template="../units/C_Soldier.tx" x="352" y="560"/>
  <object id="419" template="../units/C_Soldier.tx" x="368" y="560"/>
  <object id="420" template="../units/C_Soldier.tx" x="384" y="560"/>
  <object id="421" template="../units/C_Soldier.tx" x="400" y="560"/>
  <object id="423" template="../units/C_Soldier.tx" x="416" y="560"/>
  <object id="432" template="../units/C_Soldier.tx" x="560" y="560"/>
  <object id="433" template="../units/C_Soldier.tx" x="576" y="560"/>
  <object id="434" template="../units/C_Soldier.tx" x="592" y="560"/>
  <object id="435" template="../units/C_Soldier.tx" x="608" y="560"/>
  <object id="436" template="../units/C_Soldier.tx" x="624" y="560"/>
  <object id="437" template="../units/C_Soldier.tx" x="640" y="560"/>
  <object id="438" template="../units/C_Soldier.tx" x="656" y="560"/>
  <object id="460" template="../units/C_Archer.tx" x="336" y="512"/>
  <object id="461" template="../units/C_Archer.tx" x="352" y="512"/>
  <object id="462" template="../units/C_Archer.tx" x="368" y="512"/>
  <object id="463" template="../units/C_Archer.tx" x="384" y="512"/>
  <object id="464" template="../units/C_Archer.tx" x="400" y="512"/>
  <object id="465" template="../units/C_Archer.tx" x="416" y="512"/>
  <object id="474" template="../units/C_Archer.tx" x="560" y="512"/>
  <object id="475" template="../units/C_Archer.tx" x="576" y="512"/>
  <object id="476" template="../units/C_Archer.tx" x="592" y="512"/>
  <object id="477" template="../units/C_Archer.tx" x="608" y="512"/>
  <object id="478" template="../units/C_Archer.tx" x="624" y="512"/>
  <object id="479" template="../units/C_Archer.tx" x="640" y="512"/>
  <object id="480" template="../units/C_Archer.tx" x="656" y="512"/>
  <object id="502" template="../units/C_Mage.tx" x="336" y="480"/>
  <object id="503" template="../units/C_Mage.tx" x="352" y="480"/>
  <object id="504" template="../units/C_Mage.tx" x="368" y="480"/>
  <object id="505" template="../units/C_Mage.tx" x="384" y="480"/>
  <object id="506" template="../units/C_Mage.tx" x="400" y="480"/>
  <object id="507" template="../units/C_Mage.tx" x="416" y="480"/>
  <object id="517" template="../units/C_Mage.tx" x="576" y="480"/>
  <object id="518" template="../units/C_Mage.tx" x="592" y="480"/>
  <object id="519" template="../units/C_Mage.tx" x="608" y="480"/>
  <object id="520" template="../units/C_Mage.tx" x="624" y="480"/>
  <object id="521" template="../units/C_Mage.tx" x="640" y="480"/>
  <object id="522" template="../units/C_Mage.tx" x="656" y="480"/>
 </objectgroup>
</map>
