<?xml version="1.0" encoding="UTF-8"?>
<map version="1.10" tiledversion="1.12.1" orientation="orthogonal" renderorder="right-down" width="64" height="64" tilewidth="16" tileheight="16" infinite="0" nextlayerid="5" nextobjectid="523">
 <editorsettings>
  <export target="../../../assets/map/totalwar.fgm" format="Future Glimpses map (*.fgm)"/>
 </editorsettings>
 <properties>
  <property name="AI_MODE" type="int" propertytype="AI_MODE" value="2"/>
  <property name="ENABLE_BARRACKS" type="bool" value="true"/>
  <property name="ENABLE_BLACKSMITH" type="bool" value="true"/>
  <property name="ENABLE_FARM" type="bool" value="true"/>
  <property name="ENABLE_STABLES" type="bool" value="true"/>
  <property name="ENABLE_TOWER" type="bool" value="true"/>
  <property name="ENABLE_UPGRADE_ARCHER" type="bool" value="true"/>
  <property name="ENABLE_UPGRADE_KNIGHT" type="bool" value="true"/>
  <property name="ENABLE_UPGRADE_MAGE" type="bool" value="true"/>
  <property name="ENABLE_UPGRADE_SOLDIER" type="bool" value="true"/>
  <property name="MSG_DESCRIPTION" value="La guerra total, para probar rendimiento."/>
  <property name="MSG_LOSE" value="Perdiste."/>
  <property name="MSG_TITLE" value="Guerra total"/>
  <property name="MSG_WIN" value="Ganaste."/>
  <property name="PEACE_TIME" type="int" value="0"/>
  <property name="RES_GOLD_COMPUTER" type="int" value="1000"/>
  <property name="RES_GOLD_PLAYER" type="int" value="1000"/>
  <property name="RES_WOOD_COMPUTER" type="int" value="500"/>
  <property name="RES_WOOD_PLAYER" type="int" value="500"/>
  <property name="UPGRADED_ARCHER_COMPUTER" type="bool" value="false"/>
  <property name="UPGRADED_ARCHER_PLAYER" type="bool" value="false"/>
  <property name="UPGRADED_KNIGHT_COMPUTER" type="bool" value="false"/>
  <property name="UPGRADED_KNIGHT_PLAYER" type="bool" value="false"/>
  <property name="UPGRADED_MAGE_COMPUTER" type="bool" value="false"/>
  <property name="UPGRADED_MAGE_PLAYER" type="bool" value="false"/>
  <property name="UPGRADED_SOLDIER_COMPUTER" type="bool" value="false"/>
  <property name="UPGRADED_SOLDIER_PLAYER" type="bool" value="false"/>
 </properties>
 <tileset firstgid="1" source="../tileset.tsx"/>
 <tileset firstgid="257" source="../units/units.tsx"/>
 <tileset firstgid="267" source="../buildings/big_buildings.tsx"/>
 <tileset firstgid="273" source="../buildings/small_buildings.tsx"/>
 <layer id="1" name="Map" width="64" height="64">
  <data encoding="csv">
130,130,130,130,130,130,130,130,130,130,130,130,130,130,130,130,130,130,130,130,130,130,130,130,130,130,130,130,130,130,130,130,130,130,130,130,130,130,130,130,130,130,130,130,130,130,130,130,130,130,130,130,130,130,130,130,130,130,130,130,130,130,130,130,
130,130,130,130,130,130,130,130,130,130,130,130,130,130,130,130,130,130,130,130,130,130,130,130,130,130,130,130,130,130,130,130,130,130,130,130,130,130,130,130,130,130,130,130,130,130,130,130,130,130,130,130,130,130,130,130,130,130,130,130,130,130,130,130,
130,130,130,130,130,130,130,130,130,130,130,130,130,130,130,130,130,130,130,130,130,130,130,130,130,130,130,130,130,130,130,130,130,130,130,130,130,130,130,130,130,130,130,130,130,130,130,130,130,130,130,130,130,130,130,130,130,130,130,130,130,130,130,130,
130,130,130,130,130,130,130,130,130,130,130,130,130,130,130,130,130,130,130,130,130,130,130,130,130,130,130,130,130,130,130,130,130,130,130,130,130,130,130,130,130,130,130,130,130,130,130,130,130,130,130,130,130,130,130,130,130,130,130,130,130,130,130,130,
130,130,130,130,130,130,130,130,130,130,130,130,130,130,130,130,130,130,130,130,130,130,130,130,130,130,130,130,130,130,130,130,130,130,130,130,130,130,130,130,130,130,130,130,130,130,130,130,130,130,130,130,130,130,130,130,130,130,130,130,130,130,130,130,
130,130,130,130,130,130,130,130,130,130,130,130,130,130,130,130,130,130,130,130,130,130,130,130,130,130,130,130,130,130,130,130,130,130,130,130,130,130,130,130,130,130,130,130,130,130,130,130,130,130,130,130,130,130,130,130,130,130,130,130,130,130,130,130,
130,130,130,130,130,130,130,130,130,130,130,130,130,130,130,130,130,130,130,130,130,130,130,130,130,130,130,130,130,130,130,130,130,130,130,130,130,130,130,130,130,130,130,130,130,130,130,130,130,130,130,130,130,130,130,130,130,130,130,130,130,130,130,130,
130,130,130,130,130,130,130,130,130,130,130,130,130,130,130,130,130,130,130,130,130,130,130,130,130,130,130,130,130,130,130,130,130,130,130,130,130,130,130,130,130,130,130,130,130,130,130,130,130,130,130,130,130,130,130,130,130,130,130,130,130,130,130,130,
130,130,130,130,130,130,130,130,130,130,130,130,130,130,130,130,130,130,130,130,130,130,130,130,130,130,130,130,130,130,130,130,130,130,130,130,130,130,130,130,130,130,130,130,130,130,130,130,130,130,130,130,130,130,130,130,130,130,130,130,130,130,130,130,
130,130,130,130,130,130,130,130,130,130,130,130,130,130,130,130,130,130,130,130,130,130,130,130,130,130,130,130,130,130,130,130,130,130,130,130,130,130,130,130,130,130,130,130,130,130,130,130,130,130,130,130,130,130,130,130,130,130,130,130,130,130,130,130,
130,130,130,130,130,130,130,130,130,130,130,130,130,130,130,130,130,130,130,130,130,130,130,130,130,130,130,130,130,130,130,130,130,130,130,130,130,130,130,130,130,130,130,130,130,130,130,130,130,130,130,130,130,130,130,130,130,130,130,130,130,130,130,130,
130,130,130,130,130,130,130,130,130,130,130,130,130,130,130,130,130,130,130,130,130,130,130,130,130,130,130,130,130,130,130,130,130,130,130,130,130,130,130,130,130,130,130,130,130,130,130,130,130,130,130,130,130,130,130,130,130,130,130,130,130,130,130,130,
130,130,130,130,130,130,130,130,130,130,130,130,130,130,130,130,130,130,130,130,130,130,130,130,130,130,130,130,130,130,130,130,130,130,130,130,130,130,130,130,130,130,130,130,130,130,130,130,130,130,130,130,130,130,130,130,130,130,130,130,130,130,130,130,
130,130,130,130,130,130,130,130,130,130,130,130,130,130,130,130,130,130,130,130,130,130,130,130,130,130,130,130,130,130,130,130,130,130,130,130,130,130,130,130,130,130,130,130,130,130,130,130,130,130,130,130,130,130,130,130,130,130,130,130,130,130,130,130,
130,130,130,130,130,130,130,130,130,130,130,130,130,130,130,130,130,130,130,130,130,130,130,130,130,130,130,130,130,130,130,130,130,130,130,130,130,130,130,130,130,130,130,130,130,130,130,130,130,130,130,130,130,130,130,130,130,130,130,130,130,130,130,130,
130,130,130,130,130,130,130,130,130,130,130,130,130,130,130,130,130,130,130,130,130,130,130,130,130,130,130,130,130,130,130,130,130,130,130,130,130,130,130,130,130,130,130,130,130,130,130,130,130,130,130,130,130,130,130,130,130,130,130,130,130,130,130,130,
130,130,130,130,130,130,130,130,130,130,130,130,130,130,130,130,130,130,130,130,130,130,130,130,130,130,130,130,130,130,130,130,130,130,130,130,130,130,130,130,130,130,130,130,130,130,130,130,130,130,130,130,130,130,130,130,130,130,130,130,130,130,130,130,
130,130,130,130,130,130,130,130,130,130,130,130,130,130,130,130,130,130,130,130,130,130,130,130,130,130,130,130,130,130,130,130,130,130,130,130,130,130,130,130,130,130,130,130,130,130,130,130,130,130,130,130,130,130,130,130,130,130,130,130,130,130,130,130,
130,130,130,130,130,130,130,130,130,130,130,130,130,130,130,130,130,130,130,130,130,130,130,130,130,130,130,130,130,130,130,130,130,130,130,130,130,130,130,130,130,130,130,130,130,130,130,130,130,130,130,130,130,130,130,130,130,130,130,130,130,130,130,130,
130,130,130,130,130,130,130,130,130,130,130,130,130,130,130,130,130,130,130,130,130,130,130,130,130,130,130,130,130,130,130,130,130,130,130,130,130,130,130,130,130,130,130,130,130,130,130,130,130,130,130,130,130,130,130,130,130,130,130,130,130,130,130,130,
130,130,130,130,130,130,130,130,130,130,130,130,130,130,130,130,130,130,130,130,130,130,130,130,130,130,130,130,130,130,130,130,130,130,130,130,130,130,130,130,130,130,130,130,130,130,130,130,130,130,130,130,130,130,130,130,130,130,130,130,130,130,130,130,
130,130,130,130,130,130,130,130,130,130,130,130,130,130,130,130,130,130,130,130,130,2,3,2,3,2,3,2,3,2,3,2,3,2,3,2,3,2,3,2,3,2,130,130,130,130,130,130,130,130,130,130,130,130,130,130,130,130,130,130,130,130,130,130,
130,130,130,130,130,130,130,130,130,130,130,130,130,130,130,130,130,130,130,130,130,2,3,2,3,2,3,2,3,2,3,2,3,2,3,2,3,2,3,2,3,2,130,130,130,130,130,130,130,130,130,130,130,130,130,130,130,130,130,130,130,130,130,130,
130,130,130,130,130,130,130,130,130,130,130,130,130,130,130,130,130,130,130,130,130,2,3,2,3,2,3,2,3,2,3,2,3,2,3,2,3,2,3,2,3,2,130,130,130,130,130,130,130,130,130,130,130,130,130,130,130,130,130,130,130,130,130,130,
130,130,130,130,130,130,130,130,130,130,130,130,130,130,130,130,130,130,130,130,130,2,3,2,3,2,3,2,3,2,3,2,3,2,3,2,3,2,3,2,3,2,130,130,130,130,130,130,130,130,130,130,130,130,130,130,130,130,130,130,130,130,130,130,
130,130,130,130,130,130,130,130,130,130,130,130,130,130,130,130,130,130,130,130,130,2,3,2,3,2,3,2,3,2,3,2,3,2,3,2,3,2,3,2,3,2,130,130,130,130,130,130,130,130,130,130,130,130,130,130,130,130,130,130,130,130,130,130,
130,130,130,130,130,130,130,130,130,130,130,130,130,130,130,130,130,130,130,130,130,2,3,2,3,2,3,2,3,2,3,2,3,2,3,2,3,2,3,2,3,2,130,130,130,130,130,130,130,130,130,130,130,130,130,130,130,130,130,130,130,130,130,130,
130,130,130,130,130,130,130,130,130,130,130,130,130,130,130,130,130,130,130,130,130,2,3,2,3,2,3,2,3,2,3,2,3,2,3,2,3,2,3,2,3,2,130,130,130,130,130,130,130,130,130,130,130,130,130,130,130,130,130,130,130,130,130,130,
130,130,130,130,130,130,130,130,130,130,130,130,130,130,130,130,130,130,130,130,130,2,3,2,3,2,3,2,3,2,3,2,3,2,3,2,3,2,3,2,3,2,130,130,130,130,130,130,130,130,130,130,130,130,130,130,130,130,130,130,130,130,130,130,
130,130,130,130,130,130,130,130,130,130,130,130,130,130,130,130,130,130,130,130,130,2,3,2,3,2,3,2,3,2,3,2,3,2,3,2,3,2,3,2,3,2,130,130,130,130,130,130,130,130,130,130,130,130,130,130,130,130,130,130,130,130,130,130,
130,130,130,130,130,130,130,130,130,130,130,130,130,130,130,130,130,130,130,130,130,2,3,2,3,2,3,2,3,2,3,2,3,2,3,2,3,2,3,2,3,2,130,130,130,130,130,130,130,130,130,130,130,130,130,130,130,130,130,130,130,130,130,130,
130,130,130,130,130,130,130,130,130,130,130,130,130,130,130,130,130,130,130,130,130,2,3,2,3,2,3,2,3,2,3,2,3,2,3,2,3,2,3,2,3,2,130,130,130,130,130,130,130,130,130,130,130,130,130,130,130,130,130,130,130,130,130,130,
130,130,130,130,130,130,130,130,130,130,130,130,130,130,130,130,130,130,130,130,130,2,3,2,3,2,3,2,3,2,3,2,3,2,3,2,3,2,3,2,3,2,130,130,130,130,130,130,130,130,130,130,130,130,130,130,130,130,130,130,130,130,130,130,
130,130,130,130,130,130,130,130,130,130,130,130,130,130,130,130,130,130,130,130,130,2,3,2,3,2,3,2,3,2,3,2,3,2,3,2,3,2,3,2,3,2,130,130,130,130,130,130,130,130,130,130,130,130,130,130,130,130,130,130,130,130,130,130,
130,130,130,130,130,130,130,130,130,130,130,130,130,130,130,130,130,130,130,130,130,2,3,2,3,2,3,2,3,2,3,2,3,2,3,2,3,2,3,2,3,2,130,130,130,130,130,130,130,130,130,130,130,130,130,130,130,130,130,130,130,130,130,130,
130,130,130,130,130,130,130,130,130,130,130,130,130,130,130,130,130,130,130,130,130,2,3,2,3,2,3,2,3,2,3,2,3,2,3,2,3,2,3,2,3,2,130,130,130,130,130,130,130,130,130,130,130,130,130,130,130,130,130,130,130,130,130,130,
130,130,130,130,130,130,130,130,130,130,130,130,130,130,130,130,130,130,130,130,130,2,3,2,3,2,3,2,3,2,3,2,3,2,3,2,3,2,3,2,3,2,130,130,130,130,130,130,130,130,130,130,130,130,130,130,130,130,130,130,130,130,130,130,
130,130,130,130,130,130,130,130,130,130,130,130,130,130,130,130,130,130,130,130,130,2,3,2,3,2,3,2,3,2,3,2,3,2,3,2,3,2,3,2,3,2,130,130,130,130,130,130,130,130,130,130,130,130,130,130,130,130,130,130,130,130,130,130,
130,130,130,130,130,130,130,130,130,130,130,130,130,130,130,130,130,130,130,130,130,2,3,2,3,2,3,2,3,2,3,2,3,2,3,2,3,2,3,2,3,2,130,130,130,130,130,130,130,130,130,130,130,130,130,130,130,130,130,130,130,130,130,130,
130,130,130,130,130,130,130,130,130,130,130,130,130,130,130,130,130,130,130,130,130,2,3,2,3,2,3,2,3,2,3,2,3,2,3,2,3,2,3,2,3,2,130,130,130,130,130,130,130,130,130,130,130,130,130,130,130,130,130,130,130,130,130,130,
130,130,130,130,130,130,130,130,130,130,130,130,130,130,130,130,130,130,130,130,130,2,3,2,3,2,3,2,3,2,3,2,3,2,3,2,3,2,3,2,3,2,130,130,130,130,130,130,130,130,130,130,130,130,130,130,130,130,130,130,130,130,130,130,
130,130,130,130,130,130,130,130,130,130,130,130,130,130,130,130,130,130,130,130,130,2,3,2,3,2,3,2,3,2,3,2,3,2,3,2,3,2,3,2,3,2,130,130,130,130,130,130,130,130,130,130,130,130,130,130,130,130,130,130,130,130,130,130,
130,130,130,130,130,130,130,130,130,130,130,130,130,130,130,130,130,130,130,130,130,2,3,2,3,2,3,2,3,2,3,2,3,2,3,2,3,2,3,2,3,2,130,130,130,130,130,130,130,130,130,130,130,130,130,130,130,130,130,130,130,130,130,130,
130,130,130,130,130,130,130,130,130,130,130,130,130,130,130,130,130,130,130,130,130,2,3,2,3,2,3,2,3,2,3,2,3,2,3,2,3,2,3,2,3,2,130,130,130,130,130,130,130,130,130,130,130,130,130,130,130,130,130,130,130,130,130,130,
130,130,130,130,130,130,130,130,130,130,130,130,130,130,130,130,130,130,130,130,130,2,3,2,3,2,3,2,3,2,3,2,3,2,3,2,3,2,3,2,3,2,130,130,130,130,130,130,130,130,130,130,130,130,130,130,130,130,130,130,130,130,130,130,
130,130,130,130,130,130,130,130,130,130,130,130,130,130,130,130,130,130,130,130,130,2,3,2,3,2,3,2,3,2,3,2,3,2,3,2,3,2,3,2,3,2,130,130,130,130,130,130,130,130,130,130,130,130,130,130,130,130,130,130,130,130,130,130,
130,130,130,130,130,130,130,130,130,130,130,130,130,130,130,130,130,130,130,130,130,2,3,2,3,2,3,2,3,2,3,2,3,2,3,2,3,2,3,2,3,2,130,130,130,130,130,130,130,130,130,130,130,130,130,130,130,130,130,130,130,130,130,130,
130,130,130,130,130,130,130,130,130,130,130,130,130,130,130,130,130,130,130,130,130,2,3,2,3,2,3,2,3,2,3,2,3,2,3,2,3,2,3,2,3,2,130,130,130,130,130,130,130,130,130,130,130,130,130,130,130,130,130,130,130,130,130,130,
130,130,130,130,130,130,130,130,130,130,130,130,130,130,130,130,130,130,130,130,130,130,130,130,130,130,130,130,130,130,130,130,130,130,130,130,130,130,130,130,130,130,130,130,130,130,130,130,130,130,130,130,130,130,130,130,130,130,130,130,130,130,130,130,
130,130,130,130,130,130,130,130,130,130,130,130,130,130,130,130,130,130,130,130,130,130,130,130,130,130,130,130,130,130,130,130,130,130,130,130,130,130,130,130,130,130,130,130,130,130,130,130,130,130,130,130,130,130,130,130,130,130,130,130,130,130,130,130,
130,130,130,130,130,130,130,130,130,130,130,130,130,130,130,130,130,130,130,130,130,130,130,130,130,130,130,130,130,130,130,130,130,130,130,130,130,130,130,130,130,130,130,130,130,130,130,130,130,130,130,130,130,130,130,130,130,130,130,130,130,130,130,130,
130,130,130,130,130,130,130,130,130,130,130,130,130,130,130,130,130,130,130,130,130,130,130,130,130,130,130,130,130,130,130,130,130,130,130,130,130,130,130,130,130,130,130,130,130,130,130,130,130,130,130,130,130,130,130,130,130,130,130,130,130,130,130,130,
130,130,130,130,130,130,130,130,130,130,130,130,130,130,130,130,130,130,130,130,130,130,130,130,130,130,130,130,130,130,130,130,130,130,130,130,130,130,130,130,130,130,130,130,130,130,130,130,130,130,130,130,130,130,130,130,130,130,130,130,130,130,130,130,
130,130,130,130,130,130,130,130,130,130,130,130,130,130,130,130,130,130,130,130,130,130,130,130,130,130,130,130,130,130,130,130,130,130,130,130,130,130,130,130,130,130,130,130,130,130,130,130,130,130,130,130,130,130,130,130,130,130,130,130,130,130,130,130,
130,130,130,130,130,130,130,130,130,130,130,130,130,130,130,130,130,130,130,130,130,130,130,130,130,130,130,130,130,130,130,130,130,130,130,130,130,130,130,130,130,130,130,130,130,130,130,130,130,130,130,130,130,130,130,130,130,130,130,130,130,130,130,130,
130,130,130,130,130,130,130,130,130,130,130,130,130,130,130,130,130,130,130,130,130,130,130,130,130,130,130,130,130,130,130,130,130,130,130,130,130,130,130,130,130,130,130,130,130,130,130,130,130,130,130,130,130,130,130,130,130,130,130,130,130,130,130,130,
130,130,130,130,130,130,130,130,130,130,130,130,130,130,130,130,130,130,130,130,130,130,130,130,130,130,130,130,130,130,130,130,130,130,130,130,130,130,130,130,130,130,130,130,130,130,130,130,130,130,130,130,130,130,130,130,130,130,130,130,130,130,130,130,
130,130,130,130,130,130,130,130,130,130,130,130,130,130,130,130,130,130,130,130,130,130,130,130,130,130,130,130,130,130,130,130,130,130,130,130,130,130,130,130,130,130,130,130,130,130,130,130,130,130,130,130,130,130,130,130,130,130,130,130,130,130,130,130,
130,130,130,130,130,130,130,130,130,130,130,130,130,130,130,130,130,130,130,130,130,130,130,130,130,130,130,130,130,130,130,130,130,130,130,130,130,130,130,130,130,130,130,130,130,130,130,130,130,130,130,130,130,130,130,130,130,130,130,130,130,130,130,130,
130,130,130,130,130,130,130,130,130,130,130,130,130,130,130,130,130,130,130,130,130,130,130,130,130,130,130,130,130,130,130,130,130,130,130,130,130,130,130,130,130,130,130,130,130,130,130,130,130,130,130,130,130,130,130,130,130,130,130,130,130,130,130,130,
130,130,130,130,130,130,130,130,130,130,130,130,130,130,130,130,130,130,130,130,130,130,130,130,130,130,130,130,130,130,130,130,130,130,130,130,130,130,130,130,130,130,130,130,130,130,130,130,130,130,130,130,130,130,130,130,130,130,130,130,130,130,130,130,
130,130,130,130,130,130,130,130,130,130,130,130,130,130,130,130,130,130,130,130,130,130,130,130,130,130,130,130,130,130,130,130,130,130,130,130,130,130,130,130,130,130,130,130,130,130,130,130,130,130,130,130,130,130,130,130,130,130,130,130,130,130,130,130,
130,130,130,130,130,130,130,130,130,130,130,130,130,130,130,130,130,130,130,130,130,130,130,130,130,130,130,130,130,130,130,130,130,130,130,130,130,130,130,130,130,130,130,130,130,130,130,130,130,130,130,130,130,130,130,130,130,130,130,130,130,130,130,130,
130,130,130,130,130,130,130,130,130,130,130,130,130,130,130,130,130,130,130,130,130,130,130,130,130,130,130,130,130,130,130,130,130,130,130,130,130,130,130,130,130,130,130,130,130,130,130,130,130,130,130,130,130,130,130,130,130,130,130,130,130,130,130,130
</data>
 </layer>
 <objectgroup id="2" name="Units/Buildings">
  <object id="289" template="../units/P_Soldier.tx" x="384" y="608"/>
  <object id="290" template="../units/P_Soldier.tx" x="336" y="608"/>
  <object id="291" template="../units/P_Soldier.tx" x="352" y="608"/>
  <object id="292" template="../units/P_Soldier.tx" x="368" y="608"/>
  <object id="293" template="../units/P_Soldier.tx" x="400" y="608"/>
  <object id="294" template="../units/P_Soldier.tx" x="416" y="608"/>
  <object id="295" template="../units/P_Soldier.tx" x="448" y="608"/>
  <object id="296" template="../units/P_Soldier.tx" x="432" y="608"/>
  <object id="305" template="../units/P_Soldier.tx" x="512" y="608"/>
  <object id="306" template="../units/P_Soldier.tx" x="464" y="608"/>
  <object id="307" template="../units/P_Soldier.tx" x="480" y="608"/>
  <object id="308" template="../units/P_Soldier.tx" x="496" y="608"/>
  <object id="309" template="../units/P_Soldier.tx" x="528" y="608"/>
  <object id="310" template="../units/P_Soldier.tx" x="544" y="608"/>
  <object id="311" template="../units/P_Soldier.tx" x="576" y="608"/>
  <object id="312" template="../units/P_Soldier.tx" x="560" y="608"/>
  <object id="313" template="../units/P_Soldier.tx" x="640" y="608"/>
  <object id="314" template="../units/P_Soldier.tx" x="592" y="608"/>
  <object id="315" template="../units/P_Soldier.tx" x="608" y="608"/>
  <object id="316" template="../units/P_Soldier.tx" x="624" y="608"/>
  <object id="317" template="../units/P_Soldier.tx" x="656" y="608"/>
  <object id="321" template="../units/P_Soldier.tx" x="384" y="640"/>
  <object id="322" template="../units/P_Soldier.tx" x="336" y="640"/>
  <object id="323" template="../units/P_Soldier.tx" x="352" y="640"/>
  <object id="324" template="../units/P_Soldier.tx" x="368" y="640"/>
  <object id="325" template="../units/P_Soldier.tx" x="400" y="640"/>
  <object id="326" template="../units/P_Soldier.tx" x="416" y="640"/>
  <object id="327" template="../units/P_Soldier.tx" x="448" y="640"/>
  <object id="328" template="../units/P_Soldier.tx" x="432" y="640"/>
  <object id="329" template="../units/P_Soldier.tx" x="512" y="640"/>
  <object id="330" template="../units/P_Soldier.tx" x="464" y="640"/>
  <object id="331" template="../units/P_Soldier.tx" x="480" y="640"/>
  <object id="332" template="../units/P_Soldier.tx" x="496" y="640"/>
  <object id="333" template="../units/P_Soldier.tx" x="528" y="640"/>
  <object id="334" template="../units/P_Soldier.tx" x="544" y="640"/>
  <object id="335" template="../units/P_Soldier.tx" x="576" y="640"/>
  <object id="336" template="../units/P_Soldier.tx" x="560" y="640"/>
  <object id="337" template="../units/P_Soldier.tx" x="640" y="640"/>
  <object id="338" template="../units/P_Soldier.tx" x="592" y="640"/>
  <object id="339" template="../units/P_Soldier.tx" x="608" y="640"/>
  <object id="340" template="../units/P_Soldier.tx" x="624" y="640"/>
  <object id="341" template="../units/P_Soldier.tx" x="656" y="640"/>
  <object id="342" template="../units/P_Archer.tx" x="336" y="656"/>
  <object id="343" template="../units/P_Archer.tx" x="352" y="656"/>
  <object id="344" template="../units/P_Archer.tx" x="368" y="656"/>
  <object id="345" template="../units/P_Archer.tx" x="384" y="656"/>
  <object id="346" template="../units/P_Archer.tx" x="416" y="656"/>
  <object id="347" template="../units/P_Archer.tx" x="400" y="656"/>
  <object id="348" template="../units/P_Archer.tx" x="432" y="656"/>
  <object id="349" template="../units/P_Archer.tx" x="448" y="656"/>
  <object id="350" template="../units/P_Archer.tx" x="464" y="656"/>
  <object id="351" template="../units/P_Archer.tx" x="480" y="656"/>
  <object id="352" template="../units/P_Archer.tx" x="512" y="656"/>
  <object id="353" template="../units/P_Archer.tx" x="496" y="656"/>
  <object id="354" template="../units/P_Archer.tx" x="528" y="656"/>
  <object id="355" template="../units/P_Archer.tx" x="544" y="656"/>
  <object id="356" template="../units/P_Archer.tx" x="560" y="656"/>
  <object id="357" template="../units/P_Archer.tx" x="576" y="656"/>
  <object id="358" template="../units/P_Archer.tx" x="608" y="656"/>
  <object id="359" template="../units/P_Archer.tx" x="592" y="656"/>
  <object id="360" template="../units/P_Archer.tx" x="624" y="656"/>
  <object id="361" template="../units/P_Archer.tx" x="640" y="656"/>
  <object id="362" template="../units/P_Archer.tx" x="656" y="656"/>
  <object id="366" template="../units/P_Knight.tx" x="336" y="624"/>
  <object id="369" template="../units/P_Knight.tx" x="352" y="624"/>
  <object id="370" template="../units/P_Knight.tx" x="368" y="624"/>
  <object id="371" template="../units/P_Knight.tx" x="400" y="624"/>
  <object id="372" template="../units/P_Knight.tx" x="384" y="624"/>
  <object id="373" template="../units/P_Knight.tx" x="432" y="624"/>
  <object id="374" template="../units/P_Knight.tx" x="448" y="624"/>
  <object id="375" template="../units/P_Knight.tx" x="416" y="624"/>
  <object id="376" template="../units/P_Knight.tx" x="464" y="624"/>
  <object id="377" template="../units/P_Knight.tx" x="480" y="624"/>
  <object id="378" template="../units/P_Knight.tx" x="496" y="624"/>
  <object id="379" template="../units/P_Knight.tx" x="512" y="624"/>
  <object id="380" template="../units/P_Knight.tx" x="544" y="624"/>
  <object id="381" template="../units/P_Knight.tx" x="528" y="624"/>
  <object id="382" template="../units/P_Knight.tx" x="576" y="624"/>
  <object id="383" template="../units/P_Knight.tx" x="592" y="624"/>
  <object id="384" template="../units/P_Knight.tx" x="560" y="624"/>
  <object id="385" template="../units/P_Knight.tx" x="608" y="624"/>
  <object id="386" template="../units/P_Knight.tx" x="624" y="624"/>
  <object id="387" template="../units/P_Knight.tx" x="640" y="624"/>
  <object id="388" template="../units/P_Knight.tx" x="656" y="624"/>
  <object id="395" template="../units/P_Mage.tx" x="352" y="688"/>
  <object id="396" template="../units/P_Mage.tx" x="336" y="688"/>
  <object id="397" template="../units/P_Mage.tx" x="384" y="688"/>
  <object id="398" template="../units/P_Mage.tx" x="368" y="688"/>
  <object id="399" template="../units/P_Mage.tx" x="400" y="688"/>
  <object id="401" template="../units/P_Mage.tx" x="416" y="688"/>
  <object id="409" template="../units/P_Mage.tx" x="576" y="688"/>
  <object id="411" template="../units/P_Mage.tx" x="608" y="688"/>
  <object id="412" template="../units/P_Mage.tx" x="592" y="688"/>
  <object id="413" template="../units/P_Mage.tx" x="624" y="688"/>
  <object id="414" template="../units/P_Mage.tx" x="656" y="688"/>
  <object id="415" template="../units/P_Mage.tx" x="640" y="688"/>
  <object id="416" template="../units/C_Soldier.tx" x="336" y="560"/>
  <object id="417" template="../units/C_Soldier.tx" x="352" y="560"/>
  <object id="419" template="../units/C_Soldier.tx" x="368" y="560"/>
  <object id="420" template="../units/C_Soldier.tx" x="384" y="560"/>
  <object id="421" template="../units/C_Soldier.tx" x="400" y="560"/>
  <object id="423" template="../units/C_Soldier.tx" x="416" y="560"/>
  <object id="424" template="../units/C_Soldier.tx" x="432" y="560"/>
  <object id="425" template="../units/C_Soldier.tx" x="448" y="560"/>
  <object id="426" template="../units/C_Soldier.tx" x="464" y="560"/>
  <object id="427" template="../units/C_Soldier.tx" x="480" y="560"/>
  <object id="428" template="../units/C_Soldier.tx" x="496" y="560"/>
  <object id="429" template="../units/C_Soldier.tx" x="512" y="560"/>
  <object id="430" template="../units/C_Soldier.tx" x="528" y="560"/>
  <object id="431" template="../units/C_Soldier.tx" x="544" y="560"/>
  <object id="432" template="../units/C_Soldier.tx" x="560" y="560"/>
  <object id="433" template="../units/C_Soldier.tx" x="576" y="560"/>
  <object id="434" template="../units/C_Soldier.tx" x="592" y="560"/>
  <object id="435" template="../units/C_Soldier.tx" x="608" y="560"/>
  <object id="436" template="../units/C_Soldier.tx" x="624" y="560"/>
  <object id="437" template="../units/C_Soldier.tx" x="640" y="560"/>
  <object id="438" template="../units/C_Soldier.tx" x="656" y="560"/>
  <object id="439" template="../units/C_Soldier.tx" x="336" y="528"/>
  <object id="440" template="../units/C_Soldier.tx" x="352" y="528"/>
  <object id="441" template="../units/C_Soldier.tx" x="368" y="528"/>
  <object id="442" template="../units/C_Soldier.tx" x="384" y="528"/>
  <object id="443" template="../units/C_Soldier.tx" x="400" y="528"/>
  <object id="444" template="../units/C_Soldier.tx" x="416" y="528"/>
  <object id="445" template="../units/C_Soldier.tx" x="432" y="528"/>
  <object id="446" template="../units/C_Soldier.tx" x="448" y="528"/>
  <object id="447" template="../units/C_Soldier.tx" x="464" y="528"/>
  <object id="448" template="../units/C_Soldier.tx" x="480" y="528"/>
  <object id="449" template="../units/C_Soldier.tx" x="496" y="528"/>
  <object id="450" template="../units/C_Soldier.tx" x="512" y="528"/>
  <object id="451" template="../units/C_Soldier.tx" x="528" y="528"/>
  <object id="452" template="../units/C_Soldier.tx" x="544" y="528"/>
  <object id="453" template="../units/C_Soldier.tx" x="560" y="528"/>
  <object id="454" template="../units/C_Soldier.tx" x="576" y="528"/>
  <object id="455" template="../units/C_Soldier.tx" x="592" y="528"/>
  <object id="456" template="../units/C_Soldier.tx" x="608" y="528"/>
  <object id="457" template="../units/C_Soldier.tx" x="624" y="528"/>
  <object id="458" template="../units/C_Soldier.tx" x="640" y="528"/>
  <object id="459" template="../units/C_Soldier.tx" x="656" y="528"/>
  <object id="460" template="../units/C_Archer.tx" x="336" y="512"/>
  <object id="461" template="../units/C_Archer.tx" x="352" y="512"/>
  <object id="462" template="../units/C_Archer.tx" x="368" y="512"/>
  <object id="463" template="../units/C_Archer.tx" x="384" y="512"/>
  <object id="464" template="../units/C_Archer.tx" x="400" y="512"/>
  <object id="465" template="../units/C_Archer.tx" x="416" y="512"/>
  <object id="466" template="../units/C_Archer.tx" x="432" y="512"/>
  <object id="467" template="../units/C_Archer.tx" x="448" y="512"/>
  <object id="468" template="../units/C_Archer.tx" x="464" y="512"/>
  <object id="469" template="../units/C_Archer.tx" x="480" y="512"/>
  <object id="470" template="../units/C_Archer.tx" x="496" y="512"/>
  <object id="471" template="../units/C_Archer.tx" x="512" y="512"/>
  <object id="472" template="../units/C_Archer.tx" x="528" y="512"/>
  <object id="473" template="../units/C_Archer.tx" x="544" y="512"/>
  <object id="474" template="../units/C_Archer.tx" x="560" y="512"/>
  <object id="475" template="../units/C_Archer.tx" x="576" y="512"/>
  <object id="476" template="../units/C_Archer.tx" x="592" y="512"/>
  <object id="477" template="../units/C_Archer.tx" x="608" y="512"/>
  <object id="478" template="../units/C_Archer.tx" x="624" y="512"/>
  <object id="479" template="../units/C_Archer.tx" x="640" y="512"/>
  <object id="480" template="../units/C_Archer.tx" x="656" y="512"/>
  <object id="481" template="../units/C_Knight.tx" x="336" y="544"/>
  <object id="482" template="../units/C_Knight.tx" x="352" y="544"/>
  <object id="483" template="../units/C_Knight.tx" x="368" y="544"/>
  <object id="484" template="../units/C_Knight.tx" x="384" y="544"/>
  <object id="485" template="../units/C_Knight.tx" x="400" y="544"/>
  <object id="486" template="../units/C_Knight.tx" x="416" y="544"/>
  <object id="487" template="../units/C_Knight.tx" x="432" y="544"/>
  <object id="488" template="../units/C_Knight.tx" x="448" y="544"/>
  <object id="489" template="../units/C_Knight.tx" x="464" y="544"/>
  <object id="490" template="../units/C_Knight.tx" x="480" y="544"/>
  <object id="491" template="../units/C_Knight.tx" x="496" y="544"/>
  <object id="492" template="../units/C_Knight.tx" x="512" y="544"/>
  <object id="493" template="../units/C_Knight.tx" x="528" y="544"/>
  <object id="494" template="../units/C_Knight.tx" x="544" y="544"/>
  <object id="495" template="../units/C_Knight.tx" x="560" y="544"/>
  <object id="496" template="../units/C_Knight.tx" x="576" y="544"/>
  <object id="497" template="../units/C_Knight.tx" x="592" y="544"/>
  <object id="498" template="../units/C_Knight.tx" x="608" y="544"/>
  <object id="499" template="../units/C_Knight.tx" x="624" y="544"/>
  <object id="500" template="../units/C_Knight.tx" x="640" y="544"/>
  <object id="501" template="../units/C_Knight.tx" x="656" y="544"/>
  <object id="502" template="../units/C_Mage.tx" x="336" y="480"/>
  <object id="503" template="../units/C_Mage.tx" x="352" y="480"/>
  <object id="504" template="../units/C_Mage.tx" x="368" y="480"/>
  <object id="505" template="../units/C_Mage.tx" x="384" y="480"/>
  <object id="506" template="../units/C_Mage.tx" x="400" y="480"/>
  <object id="507" template="../units/C_Mage.tx" x="416" y="480"/>
  <object id="517" template="../units/C_Mage.tx" x="576" y="480"/>
  <object id="518" template="../units/C_Mage.tx" x="592" y="480"/>
  <object id="519" template="../units/C_Mage.tx" x="608" y="480"/>
  <object id="520" template="../units/C_Mage.tx" x="624" y="480"/>
  <object id="521" template="../units/C_Mage.tx" x="640" y="480"/>
  <object id="522" template="../units/C_Mage.tx" x="656" y="480"/>
 </objectgroup>
</map>
