<?xml version="1.0" encoding="UTF-8"?>
<map version="1.10" tiledversion="1.12.1" orientation="orthogonal" renderorder="right-down" width="64" height="64" tilewidth="16" tileheight="16" infinite="0" nextlayerid="5" nextobjectid="269">
 <editorsettings>
  <export target="../../../assets/map/updown.fgm" format="Future Glimpses map (*.fgm)"/>
 </editorsettings>
 <properties>
  <property name="AI_MODE" type="int" propertytype="AI_MODE" value="2"/>
  <property name="ENABLE_BARRACKS" type="bool" value="true"/>
  <property name="ENABLE_BLACKSMITH" type="bool" value="true"/>
  <property name="ENABLE_CITY_HALL" type="bool" value="true"/>
  <property name="ENABLE_FARM" type="bool" value="true"/>
  <property name="ENABLE_STABLES" type="bool" value="true"/>
  <property name="ENABLE_TOWER" type="bool" value="true"/>
  <property name="ENABLE_UPGRADE_ARCHER" type="bool" value="true"/>
  <property name="ENABLE_UPGRADE_KNIGHT" type="bool" value="true"/>
  <property name="ENABLE_UPGRADE_MAGE" type="bool" value="true"/>
  <property name="ENABLE_UPGRADE_SOLDIER" type="bool" value="true"/>
  <property name="MSG_DESCRIPTION" value="Protege las ciudades de Villarriba y Villabajo y destruye al enemigo."/>
  <property name="MSG_LOSE" value="¡Has perdido!"/>
  <property name="MSG_TITLE" value="Villarriba y Villabajo"/>
  <property name="MSG_WIN" value="¡Has ganado!"/>
  <property name="PEACE_TIME" type="int" value="300"/>
  <property name="RES_GOLD_COMPUTER" type="int" value="1000"/>
  <property name="RES_GOLD_PLAYER" type="int" value="1000"/>
  <property name="RES_WOOD_COMPUTER" type="int" value="500"/>
  <property name="RES_WOOD_PLAYER" type="int" value="500"/>
  <property name="UPGRADED_ARCHER_COMPUTER" type="bool" value="true"/>
  <property name="UPGRADED_ARCHER_PLAYER" type="bool" value="false"/>
  <property name="UPGRADED_KNIGHT_COMPUTER" type="bool" value="false"/>
  <property name="UPGRADED_KNIGHT_PLAYER" type="bool" value="false"/>
  <property name="UPGRADED_MAGE_COMPUTER" type="bool" value="false"/>
  <property name="UPGRADED_MAGE_PLAYER" type="bool" value="false"/>
  <property name="UPGRADED_SOLDIER_COMPUTER" type="bool" value="false"/>
  <property name="UPGRADED_SOLDIER_PLAYER" type="bool" value="false"/>
 </properties>
 <tileset firstgid="1" source="../tileset.tsx"/>
 <tileset firstgid="257" source="../units/units.tsx"/>
 <tileset firstgid="267" source="../buildings/big_buildings.tsx"/>
 <tileset firstgid="273" source="../buildings/small_buildings.tsx"/>
 <layer id="1" name="Map" width="64" height="64">
  <data encoding="csv">
195,195,195,195,195,195,195,195,195,195,195,195,195,195,195,195,195,195,195,195,195,195,195,195,195,195,195,195,195,195,195,195,195,195,195,195,130,129,131,131,130,129,131,130,130,131,131,129,129,130,132,129,132,129,131,130,131,130,131,132,132,132,129,130,
195,196,196,196,196,196,196,196,196,196,196,196,196,196,196,196,196,196,196,196,196,196,196,196,196,196,196,196,196,196,196,196,196,196,196,195,131,129,129,131,169,170,170,171,130,130,131,131,130,131,130,132,131,131,131,130,131,129,130,132,129,132,129,131,
195,6,8,6,7,7,6,5,7,6,8,8,7,8,6,6,6,6,7,19,2,3,129,132,129,129,129,130,131,130,131,130,130,131,130,195,129,130,130,130,172,177,178,173,131,131,131,132,2,145,146,147,148,132,129,129,132,129,129,130,132,131,132,132,
195,6,6,5,8,7,6,8,8,6,7,8,6,6,6,7,8,5,8,7,19,2,3,131,130,129,132,132,129,130,132,130,132,129,130,195,130,132,129,129,172,177,178,173,131,131,129,131,1,145,146,147,148,132,132,130,129,131,130,132,129,129,131,131,
195,7,150,149,150,151,152,149,150,8,6,6,7,6,8,6,6,6,6,5,35,2,2,3,129,129,130,132,129,130,132,132,132,130,131,195,130,129,129,131,174,175,175,176,131,129,132,132,1,145,146,147,148,129,129,129,130,130,132,129,131,131,132,130,
195,5,150,5,150,6,152,5,150,6,6,6,7,7,7,8,5,6,5,6,5,19,2,3,129,130,132,130,129,129,131,130,130,130,129,195,130,131,129,132,129,130,130,132,132,132,131,1,3,145,146,147,148,2,132,129,131,132,130,132,129,131,130,131,
195,149,150,7,5,8,7,6,150,151,5,6,6,5,6,6,8,5,5,5,5,6,19,2,3,130,132,131,129,130,131,130,131,131,132,195,130,130,132,131,131,130,130,130,132,132,131,1,4,4,2,4,2,130,130,130,129,131,130,129,132,132,131,130,
195,149,6,6,8,5,5,8,8,149,6,6,5,8,8,5,5,6,7,5,7,5,35,19,3,131,130,130,129,129,129,129,129,131,131,195,130,130,132,131,131,130,132,132,129,131,3,4,3,3,4,2,4,131,130,130,129,129,131,132,129,132,132,129,
195,8,5,6,7,7,6,6,8,8,8,6,7,6,8,6,7,7,6,5,8,5,6,35,3,130,132,130,132,129,132,132,132,130,130,195,130,132,130,132,129,132,131,129,130,130,2,1,1,1,4,2,1,129,131,132,132,132,132,132,132,132,131,131,
195,5,8,6,5,8,7,5,8,6,8,6,5,8,7,6,5,5,8,6,8,7,5,8,195,195,195,195,195,195,195,195,195,195,195,195,132,130,132,130,130,130,129,130,130,1,4,1,22,23,24,1,4,129,129,131,129,130,132,132,130,130,129,129,
195,8,8,6,7,6,7,7,8,7,5,8,5,5,5,8,5,5,7,5,7,6,6,8,195,195,195,195,195,195,196,196,196,196,196,196,131,129,129,130,130,131,130,132,131,1,2,1,38,9,40,2,3,132,132,129,129,132,130,130,129,132,131,130,
195,5,8,8,8,5,5,6,8,6,8,7,5,8,5,8,5,5,6,6,8,8,6,7,195,196,196,196,196,196,132,129,132,130,129,132,131,129,132,129,131,129,131,131,1,2,4,1,54,55,56,2,3,129,129,132,130,131,129,131,132,129,129,132,
195,5,6,6,7,6,8,6,8,8,5,7,6,7,7,8,6,8,8,8,7,5,7,7,195,1,3,132,131,131,132,131,132,130,129,132,129,132,131,131,129,129,132,1,2,2,2,3,1,2,4,2,1,130,132,132,131,130,130,129,129,130,129,131,
195,5,5,5,8,5,5,5,5,7,6,5,5,7,7,7,5,6,7,7,5,6,7,7,195,3,1,1,130,130,129,131,132,131,130,131,131,131,132,131,129,131,130,4,2,2,1,4,2,4,1,2,3,130,132,129,130,130,129,132,132,129,131,131,
196,50,50,50,50,50,6,6,5,6,8,7,7,7,5,7,5,7,7,5,8,6,7,7,195,1,2,3,2,129,130,131,132,129,132,132,132,132,130,129,129,132,3,4,3,4,1,1,4,4,4,4,3,129,131,132,129,132,131,131,132,131,129,130,
131,130,132,130,131,131,49,6,6,5,6,5,5,8,5,5,5,6,8,6,6,6,6,195,195,4,2,3,3,132,130,129,131,132,131,132,130,129,130,131,131,132,2,3,2,3,4,1,3,2,4,3,129,129,132,131,132,129,129,129,131,131,129,132,
129,132,132,130,131,130,129,49,6,5,7,5,5,6,7,6,6,5,7,6,8,6,7,196,196,2,3,4,2,4,132,129,131,132,129,131,132,131,131,131,129,4,2,3,3,2,2,1,2,1,3,130,129,132,130,130,130,131,132,132,130,129,132,129,
131,130,129,130,130,132,132,132,49,50,8,5,6,8,5,5,7,7,6,7,5,8,6,35,4,3,2,3,1,2,1,131,131,130,131,131,132,131,132,130,129,1,3,2,2,1,4,2,2,4,132,132,130,131,129,131,129,131,129,129,131,131,130,131,
130,130,132,130,129,131,130,132,2,2,2,3,195,195,195,7,8,6,5,195,50,50,50,51,4,2,2,3,1,2,4,2,2,132,131,131,130,132,129,131,129,130,2,4,4,3,4,4,3,2,130,129,129,132,130,130,132,132,130,131,132,131,130,131,
130,129,129,131,129,131,131,129,4,2,2,1,196,196,195,195,195,195,195,195,3,1,3,1,1,3,3,3,1,4,4,3,3,4,2,3,1,2,129,129,131,130,129,1,4,2,4,2,1,2,2,132,131,130,129,130,131,129,131,129,129,131,130,131,
131,130,132,131,129,129,129,129,1,4,3,3,131,129,196,195,196,196,196,196,3,1,4,4,1,2,2,1,2,4,4,3,1,4,1,4,3,2,4,132,131,131,132,3,1,129,1,2,2,2,1,132,131,129,132,131,132,131,129,130,131,129,131,131,
132,130,130,132,129,129,132,130,3,3,4,4,129,131,131,196,195,4,1,3,1,3,1,4,1,3,4,1,2,3,1,1,3,2,4,1,4,4,3,130,129,131,131,129,132,131,131,3,3,4,1,132,132,129,131,132,131,131,130,129,132,131,132,130,
130,131,130,132,169,170,170,171,3,4,2,1,129,132,130,132,196,195,4,2,2,3,4,2,1,1,2,1,4,3,3,2,1,2,1,2,4,3,3,3,131,131,132,130,129,132,131,1,2,2,1,130,130,130,130,131,131,131,132,131,132,129,131,131,
129,131,131,130,172,177,178,173,1,4,4,1,129,131,129,132,130,196,195,3,1,1,4,2,1,3,1,4,3,1,2,4,4,1,4,4,2,4,1,3,2,129,132,130,132,130,130,1,2,4,4,4,129,132,129,130,129,131,130,129,131,131,131,132,
131,130,129,132,172,177,178,173,1,1,4,1,130,129,132,131,132,130,196,4,2,4,2,4,4,3,3,2,2,3,2,2,4,4,4,4,2,2,2,2,4,132,132,132,129,131,130,129,2,4,4,3,132,132,132,131,132,132,131,130,130,130,129,129,
132,129,130,132,174,175,175,176,2,2,2,2,129,132,132,129,129,132,131,2,2,4,1,1,2,3,1,4,3,2,4,3,2,4,1,1,1,1,2,1,4,1,131,131,129,130,132,129,1,2,3,1,2,132,129,131,130,169,170,170,171,131,130,131,
131,129,132,132,129,131,129,131,2,1,4,1,132,130,132,132,129,131,131,130,129,2,1,2,1,2,4,3,2,1,2,1,3,4,2,4,2,4,3,3,1,4,130,129,131,130,131,3,4,4,2,1,4,132,132,129,132,172,177,178,173,130,131,132,
129,129,129,129,130,131,130,130,1,3,1,1,129,129,129,130,129,132,130,132,131,1,145,146,147,148,145,146,147,148,4,1,1,2,2,2,2,1,4,2,1,4,2,132,131,130,132,4,132,2,1,3,3,129,130,132,130,172,177,178,173,131,132,132,
132,130,130,131,130,132,130,130,4,2,2,1,129,132,130,130,130,129,129,130,132,145,4,1,145,1,4,4,148,148,4,2,4,3,4,2,3,4,4,3,3,2,3,131,129,132,132,2,131,2,3,4,1,130,129,131,130,174,175,175,176,132,131,132,
195,195,195,195,195,195,195,1,2,1,2,4,195,195,130,132,132,132,132,131,129,4,145,4,145,2,146,3,148,2,1,4,1,4,2,2,1,1,4,3,3,1,2,131,130,130,131,1,129,4,4,3,1,129,131,131,129,132,131,132,132,130,129,131,
196,196,196,196,196,196,196,3,1,4,4,4,196,196,131,131,130,131,129,132,130,3,4,2,3,3,4,3,1,3,1,4,4,2,1,1,3,3,2,2,2,4,3,131,131,129,130,4,130,1,3,1,2,132,132,129,130,129,129,130,130,132,129,131,
130,129,129,129,130,130,131,1,2,4,3,131,130,129,129,130,132,131,132,130,130,3,3,3,1,1,1,4,4,1,2,1,3,2,4,4,4,1,2,2,3,1,4,132,131,131,130,3,132,1,2,4,3,132,130,129,129,129,132,131,131,130,132,129,
132,132,132,130,129,131,129,2,3,3,1,130,130,129,129,132,132,129,130,130,129,4,1,3,4,4,1,1,1,2,2,3,1,3,1,1,2,4,1,3,1,130,130,131,132,131,132,129,130,2,2,4,2,130,131,132,129,129,130,132,129,129,129,132,
132,129,130,129,132,132,129,3,4,1,1,129,2,129,130,130,130,132,132,129,131,130,2,3,3,1,1,2,1,4,3,1,2,3,2,3,2,3,3,3,4,131,129,129,132,129,130,131,130,3,2,3,1,131,132,132,131,132,132,131,129,130,129,131,
132,131,132,169,170,170,171,1,2,2,2,130,1,132,131,131,129,131,130,132,130,131,4,3,2,2,2,2,3,1,4,4,3,1,2,4,3,2,2,1,131,130,130,131,129,132,131,131,130,4,3,4,3,130,132,129,132,130,131,130,131,131,132,130,
131,132,129,172,177,178,173,1,2,3,1,130,3,131,132,132,131,129,130,129,129,132,132,4,1,2,2,3,3,4,2,4,3,2,3,4,3,4,1,3,131,129,131,130,131,131,130,129,129,3,2,3,4,130,130,129,132,129,131,129,131,129,130,129,
130,130,132,172,177,178,173,4,1,2,3,4,132,132,130,129,129,131,131,131,131,129,131,4,4,4,3,3,3,1,1,4,1,4,3,3,2,1,4,2,131,130,130,129,130,130,131,130,1,1,2,2,1,4,129,129,169,170,170,171,129,131,131,132,
131,132,129,174,175,175,176,2,3,4,1,1,1,132,132,132,131,129,129,131,129,129,129,129,131,131,129,131,1,1,1,2,3,3,1,4,3,1,1,2,131,129,129,132,131,130,132,2,1,1,3,4,4,4,130,131,172,177,178,173,129,129,131,129,
131,131,130,131,130,130,130,131,2,2,4,2,1,2,3,4,1,2,1,2,132,132,132,130,130,132,130,132,130,129,1,3,2,1,1,1,3,2,4,3,132,131,132,131,132,129,129,1,2,3,4,2,3,2,132,129,172,177,178,173,132,132,132,132,
131,131,131,131,130,132,130,132,129,3,1,4,2,3,3,4,1,2,1,2,2,3,4,132,130,132,132,130,132,132,132,132,4,132,131,129,130,1,3,2,2,2,3,2,1,1,200,200,3,2,2,1,4,1,131,132,174,175,175,176,131,131,129,131,
130,129,131,131,132,132,129,2,3,4,1,2,3,4,2,2,4,2,2,4,4,2,1,132,130,131,130,132,129,131,131,129,130,130,129,130,132,2,1,4,2,1,4,3,2,1,200,200,200,2,1,1,1,2,129,132,131,132,132,130,129,132,129,132,
131,131,129,129,129,132,130,3,2,1,2,4,2,1,2,4,1,1,3,3,2,2,3,2,2,129,130,130,130,130,130,130,131,132,132,1,1,1,1,3,2,1,3,4,1,4,196,200,200,4,1,3,2,2,1,130,131,132,131,130,129,130,132,131,
132,130,129,130,130,130,129,132,3,4,1,3,2,4,4,3,1,3,3,4,2,1,1,4,130,131,131,132,132,131,130,130,132,4,2,1,4,1,3,1,2,1,1,3,3,1,2,200,200,4,4,2,4,3,3,130,131,129,132,131,132,131,132,131,
130,131,131,129,130,131,132,129,131,4,3,4,1,2,3,2,3,2,4,1,2,4,1,1,131,130,131,131,131,132,129,130,130,3,3,2,3,4,3,1,2,1,4,2,1,2,4,200,200,200,200,4,4,2,4,129,130,132,132,129,132,132,132,131,
131,129,129,132,132,130,131,131,131,2,4,4,4,4,4,1,4,2,4,2,2,4,3,132,129,131,131,130,129,129,131,132,131,1,1,1,1,2,3,2,3,2,2,2,3,4,3,196,200,200,200,3,2,1,1,129,129,132,131,129,129,129,130,130,
129,130,130,131,131,129,129,131,2,4,1,2,3,1,2,2,3,2,3,4,4,130,129,130,130,131,129,132,132,132,131,130,131,4,4,1,4,1,2,3,3,4,3,3,3,2,4,25,200,200,200,2,4,4,1,2,3,1,4,4,1,129,132,132,
129,132,130,129,130,129,129,3,2,1,3,1,3,1,4,2,1,3,4,4,132,129,131,132,129,132,132,130,129,131,130,129,4,3,2,2,3,1,2,1,1,3,3,4,2,4,22,40,196,196,196,3,4,1,4,22,23,23,23,195,195,195,195,195,
130,129,130,131,130,145,146,147,148,4,3,2,1,3,4,4,4,4,4,129,131,130,130,131,131,132,132,132,130,129,129,132,130,132,131,132,2,1,3,1,2,200,200,23,23,23,10,11,24,4,2,1,4,3,3,38,10,11,12,196,196,196,196,195,
131,130,132,130,1,145,146,147,148,3,2,4,2,4,2,3,2,4,132,131,129,130,130,130,131,132,132,129,129,129,132,130,131,129,132,132,131,2,3,2,3,200,200,11,10,11,10,9,40,4,3,3,1,4,22,12,9,10,11,10,10,155,156,195,
130,132,129,129,130,145,146,147,148,3,2,1,3,2,4,3,1,130,132,131,130,132,129,131,130,130,130,131,131,129,132,132,131,131,130,129,131,3,2,1,3,200,200,9,10,9,10,9,11,24,4,1,2,4,38,9,9,10,11,9,12,155,156,200,
129,130,130,132,132,132,146,147,148,4,4,4,1,1,4,2,1,129,131,132,132,131,130,131,132,132,130,129,132,129,131,132,132,130,130,129,2,1,2,3,4,200,200,12,11,11,9,11,9,40,3,4,4,3,38,11,11,9,12,12,10,155,156,200,
130,130,130,130,132,129,129,130,129,2,3,3,3,3,4,2,129,131,132,131,132,130,130,131,132,132,132,131,130,129,129,130,129,131,131,131,3,2,1,3,1,200,200,12,12,10,11,12,9,10,23,23,23,23,12,11,11,9,9,11,11,155,156,200,
132,129,129,132,132,130,132,131,129,131,131,129,132,130,132,132,131,132,130,132,130,131,129,130,129,129,131,130,132,129,130,131,129,129,132,130,4,1,2,2,1,200,200,12,9,11,11,11,11,10,10,9,10,12,11,11,11,9,10,10,10,153,154,200,
132,132,131,132,131,129,129,129,130,131,130,130,130,131,130,131,129,132,130,130,132,132,131,132,130,129,129,132,129,129,130,132,131,130,130,129,2,2,3,4,4,200,200,11,12,9,9,11,11,10,11,10,10,12,9,10,11,11,10,12,9,153,154,200,
129,131,130,130,131,131,131,132,129,131,131,131,132,130,132,132,129,131,132,132,129,132,132,132,131,129,129,129,129,129,131,130,131,132,131,129,132,130,131,130,132,196,200,9,10,11,11,9,9,9,11,11,11,10,10,9,11,10,11,11,11,153,154,200,
129,131,131,129,129,131,132,130,129,129,131,132,129,129,130,130,131,130,132,130,129,131,131,129,132,129,131,130,130,131,132,130,130,131,131,129,130,130,131,130,132,132,200,200,11,11,12,11,10,10,11,10,10,10,11,12,12,11,10,9,12,153,154,200,
130,129,129,131,132,129,130,131,130,130,132,129,129,129,132,132,130,131,130,132,130,130,129,131,130,131,131,132,130,132,131,130,131,132,132,131,129,131,129,131,131,129,200,200,12,9,12,10,9,9,11,10,11,12,9,12,11,9,9,12,12,153,154,200,
129,131,132,130,132,130,130,132,129,129,132,129,132,129,132,129,129,130,131,131,130,131,129,130,132,131,129,129,130,131,130,130,131,130,132,131,131,129,130,130,132,132,196,200,200,11,10,9,12,12,9,9,9,9,10,10,9,12,9,9,12,11,9,200,
129,131,129,130,132,132,131,131,130,130,132,131,132,131,131,129,129,132,131,132,131,130,129,130,130,129,130,130,129,131,130,130,129,130,129,130,129,131,131,130,131,130,130,196,200,200,10,11,9,12,10,12,12,11,10,12,10,12,9,10,9,12,9,200,
130,132,130,132,131,131,129,129,129,130,130,130,129,130,132,132,131,130,130,129,131,129,132,132,132,129,129,130,132,129,132,130,129,129,131,129,131,129,129,129,130,129,132,130,200,200,200,11,12,9,11,11,10,9,10,12,10,11,10,11,10,11,12,200,
129,132,130,129,129,130,129,130,132,132,132,132,131,131,131,132,131,129,132,130,132,129,130,129,131,131,131,132,132,132,131,131,129,129,130,131,132,130,132,131,131,131,129,132,196,196,200,12,11,11,11,10,12,11,9,11,11,11,9,11,11,9,12,200,
131,132,131,130,132,132,132,130,130,130,131,132,129,130,130,129,130,129,130,132,132,132,129,131,129,132,131,129,129,131,131,131,131,130,129,130,130,131,132,132,131,130,131,130,130,129,200,200,10,10,9,10,11,11,12,10,9,12,12,10,11,9,12,200,
131,132,129,130,130,129,129,130,130,129,129,132,131,131,132,131,132,132,130,130,131,130,130,131,130,130,131,131,131,131,132,129,131,132,130,129,132,132,132,131,131,129,130,129,129,129,196,200,200,200,200,200,200,200,200,200,200,200,200,200,200,200,200,195,
132,131,132,129,130,132,132,130,132,129,130,129,131,130,131,129,131,132,131,132,130,130,131,132,130,132,131,129,131,129,129,131,132,132,132,129,131,129,130,131,131,132,131,132,132,129,130,196,196,196,196,196,196,196,196,196,196,196,197,196,197,196,196,196
</data>
 </layer>
 <objectgroup id="2" name="Units/Buildings">
  <object id="71" template="../units/P_Worker.tx" x="880" y="768"/>
  <object id="72" template="../units/P_Worker.tx" x="912" y="832"/>
  <object id="94" template="../buildings/C_City_Hall.tx" x="400" y="560"/>
  <object id="115" template="../units/C_Worker.tx" x="384" y="496"/>
  <object id="120" template="../buildings/C_Barracks.tx" x="592" y="576"/>
  <object id="121" template="../buildings/C_Stables.tx" x="640" y="512" opacity="0.93"/>
  <object id="122" template="../buildings/C_Farm.tx" x="352" y="432"/>
  <object id="123" template="../buildings/C_Blacksmith.tx" x="624" y="400"/>
  <object id="124" template="../buildings/C_Tower.tx" x="528" y="528"/>
  <object id="125" template="../buildings/P_City_Hall.tx" name="Villabajo" x="848" y="896">
   <properties>
    <property name="ARMOR" type="int" value="6"/>
    <property name="CUSTOM" type="bool" value="true"/>
    <property name="MAX_DAMAGE" type="int" value="0"/>
    <property name="MAX_HEALTH" type="int" value="1500"/>
    <property name="MIN_DAMAGE" type="int" value="0"/>
    <property name="MUST_SURVIVE" type="bool" value="true"/>
   </properties>
  </object>
  <object id="126" template="../units/P_Worker.tx" x="944" y="864"/>
  <object id="127" template="../units/C_Worker.tx" x="448" y="496"/>
  <object id="132" template="../units/C_Worker.tx" x="416" y="496"/>
  <object id="235" template="../buildings/C_Farm.tx" x="528" y="336"/>
  <object id="239" template="../buildings/C_Farm.tx" x="592" y="352"/>
  <object id="243" template="../buildings/C_Farm.tx" x="384" y="432"/>
  <object id="244" template="../buildings/C_Farm.tx" x="448" y="432"/>
  <object id="245" template="../buildings/C_Farm.tx" x="560" y="336"/>
  <object id="246" template="../buildings/C_Farm.tx" x="416" y="432"/>
  <object id="249" template="../buildings/P_Farm.tx" x="976" y="992"/>
  <object id="250" template="../buildings/P_Farm.tx" x="944" y="992"/>
  <object id="259" template="../units/P_Worker.tx" x="96" y="128"/>
  <object id="260" template="../units/P_Worker.tx" x="64" y="128"/>
  <object id="261" template="../buildings/P_City_Hall.tx" name="Villarriba" x="80" y="192">
   <properties>
    <property name="ARMOR" type="int" value="6"/>
    <property name="CUSTOM" type="bool" value="true"/>
    <property name="MAX_DAMAGE" type="int" value="0"/>
    <property name="MAX_HEALTH" type="int" value="1500"/>
    <property name="MIN_DAMAGE" type="int" value="0"/>
    <property name="MUST_SURVIVE" type="bool" value="true"/>
   </properties>
  </object>
  <object id="262" template="../units/P_Worker.tx" x="64" y="224"/>
  <object id="263" template="../buildings/P_Farm.tx" x="48" y="64"/>
  <object id="264" template="../buildings/P_Farm.tx" x="16" y="64"/>
  <object id="265" template="../buildings/C_Barracks.tx" x="480" y="352"/>
  <object id="266" template="../buildings/C_Barracks.tx" x="480" y="624"/>
  <object id="267" template="../buildings/P_Barracks.tx" x="336" y="192"/>
  <object id="268" template="../buildings/P_Barracks.tx" x="688" y="848"/>
 </objectgroup>
</map>
