<?xml version="1.0" encoding="UTF-8"?>
<map version="1.10" tiledversion="1.12.1" orientation="orthogonal" renderorder="right-down" width="64" height="64" tilewidth="16" tileheight="16" infinite="0" nextlayerid="5" nextobjectid="352">
 <editorsettings>
  <export target="../../../assets/map/waves.fgm" format="Future Glimpses map (*.fgm)"/>
 </editorsettings>
 <properties>
  <property name="AI_MODE" type="int" propertytype="AI_MODE" value="2"/>
  <property name="ENABLE_BARRACKS" type="bool" value="true"/>
  <property name="ENABLE_BLACKSMITH" type="bool" value="true"/>
  <property name="ENABLE_CITY_HALL" type="bool" value="true"/>
  <property name="ENABLE_FARM" type="bool" value="true"/>
  <property name="ENABLE_STABLES" type="bool" value="true"/>
  <property name="ENABLE_TOWER" type="bool" value="true"/>
  <property name="ENABLE_TURRET" type="bool" value="true"/>
  <property name="ENABLE_UPGRADE_ARCHER" type="bool" value="true"/>
  <property name="ENABLE_UPGRADE_KNIGHT" type="bool" value="true"/>
  <property name="ENABLE_UPGRADE_MAGE" type="bool" value="true"/>
  <property name="ENABLE_UPGRADE_SOLDIER" type="bool" value="true"/>
  <property name="MSG_DESCRIPTION" value="Detén las oleadas, o destruye su origen."/>
  <property name="MSG_LOSE" value="Las oleadas te han sobrepasado."/>
  <property name="MSG_TITLE" value="Oleadas"/>
  <property name="MSG_WIN" value="¡Has triunfado sobre las oleadas!"/>
  <property name="PEACE_TIME" type="int" value="30"/>
  <property name="RES_GOLD_COMPUTER" type="int" value="0"/>
  <property name="RES_GOLD_PLAYER" type="int" value="5000"/>
  <property name="RES_WOOD_COMPUTER" type="int" value="0"/>
  <property name="RES_WOOD_PLAYER" type="int" value="2000"/>
  <property name="UPGRADED_ARCHER_COMPUTER" type="bool" value="false"/>
  <property name="UPGRADED_ARCHER_PLAYER" type="bool" value="false"/>
  <property name="UPGRADED_KNIGHT_COMPUTER" type="bool" value="false"/>
  <property name="UPGRADED_KNIGHT_PLAYER" type="bool" value="false"/>
  <property name="UPGRADED_MAGE_COMPUTER" type="bool" value="false"/>
  <property name="UPGRADED_MAGE_PLAYER" type="bool" value="false"/>
  <property name="UPGRADED_SOLDIER_COMPUTER" type="bool" value="false"/>
  <property name="UPGRADED_SOLDIER_PLAYER" type="bool" value="false"/>
 </properties>
 <tileset firstgid="1" source="../tileset.tsx"/>
 <tileset firstgid="257" source="../units/units.tsx"/>
 <tileset firstgid="267" source="../buildings/big_buildings.tsx"/>
 <tileset firstgid="273" source="../buildings/small_buildings.tsx"/>
 <layer id="1" name="Map" width="64" height="64">
  <data encoding="csv">
131,131,130,131,129,132,130,132,130,131,131,132,130,131,129,132,131,131,131,129,132,129,130,129,132,129,131,130,132,132,130,129,130,129,129,130,129,132,130,131,129,129,132,130,129,131,132,131,131,131,129,130,130,131,129,132,131,130,131,132,130,129,132,130,
129,132,131,131,132,131,131,132,131,130,132,132,130,129,131,130,129,129,132,131,129,131,129,129,130,132,129,131,132,130,132,131,130,130,131,130,130,130,131,129,129,129,130,129,129,131,131,131,130,129,130,131,132,131,132,130,132,132,129,130,131,132,132,131,
131,132,132,131,130,131,129,130,129,129,130,131,131,129,131,132,131,131,131,131,129,130,129,130,130,130,130,130,129,4,2,1,1,3,4,3,4,132,130,129,132,130,130,130,129,130,132,130,129,130,131,130,132,130,129,132,132,130,131,132,130,129,132,132,
131,129,132,131,132,131,131,132,132,132,129,131,130,132,129,131,130,129,131,131,131,130,132,131,132,129,132,2,3,4,3,4,4,2,2,2,3,3,130,132,130,130,129,132,132,132,131,131,129,131,129,130,130,129,130,130,131,129,132,132,132,131,129,131,
131,132,131,129,129,131,132,130,130,132,129,131,131,130,131,132,129,132,132,131,130,131,129,129,129,129,131,2,4,2,4,3,4,3,4,3,4,2,3,132,129,132,131,130,130,131,130,130,132,130,130,132,129,132,129,131,129,129,129,130,129,130,130,132,
130,131,131,129,129,132,129,129,132,130,130,130,130,132,131,130,131,132,130,132,132,132,131,129,131,129,131,4,2,2,2,2,1,3,2,4,2,4,1,132,132,132,132,129,130,130,131,129,132,129,132,131,132,131,130,130,131,131,130,129,130,129,129,129,
129,132,131,130,130,131,129,131,132,130,132,129,130,131,129,131,130,132,131,131,130,131,132,130,131,130,129,3,3,1,2,4,3,3,3,4,3,3,4,130,130,129,132,129,130,129,132,130,131,132,129,131,132,131,130,132,132,131,132,130,131,132,129,132,
131,130,129,131,132,132,132,129,131,132,129,131,129,132,130,132,131,131,131,131,132,132,130,131,130,130,131,131,129,2,3,4,4,4,4,2,4,3,1,129,130,129,130,130,129,132,130,132,131,129,129,131,129,129,132,129,130,130,132,130,129,132,130,131,
130,129,132,130,131,132,131,132,129,131,132,131,131,130,130,131,129,132,130,131,132,130,129,129,130,129,132,131,130,4,3,1,2,3,2,1,3,1,130,131,129,129,131,132,129,129,129,131,131,129,130,131,130,132,129,132,130,131,131,130,131,129,129,130,
132,130,129,131,130,131,132,129,130,129,132,131,132,130,131,130,130,130,131,130,129,129,132,132,132,131,131,132,131,4,4,1,3,1,3,4,2,4,131,130,131,131,130,129,131,129,132,130,130,132,131,130,131,129,130,131,129,129,129,130,130,130,131,131,
129,130,130,130,132,131,129,130,129,131,130,131,132,131,132,130,130,129,130,131,131,129,131,131,131,129,129,129,129,2,1,3,3,1,3,2,129,131,131,130,129,132,130,130,132,129,129,129,130,129,131,130,131,130,130,130,130,131,130,130,131,131,129,131,
130,131,130,129,130,130,131,130,130,132,132,131,131,131,131,130,130,129,130,132,130,131,129,130,131,130,132,131,130,2,2,3,4,2,2,1,130,132,129,132,130,131,130,130,132,132,130,132,130,131,130,131,130,131,129,132,131,130,131,130,129,132,129,132,
129,131,132,132,131,130,132,130,130,131,130,129,130,130,129,130,129,129,132,132,132,132,129,129,132,130,132,132,132,129,130,1,4,1,2,132,129,132,130,130,130,130,129,132,130,129,129,130,130,131,131,132,131,129,129,132,132,129,130,130,131,129,129,131,
130,132,130,129,131,132,132,130,131,132,132,132,129,130,131,130,129,131,132,129,129,132,131,130,132,130,131,130,132,129,132,3,1,3,2,131,132,132,129,131,130,131,132,130,130,129,131,130,131,129,131,132,131,131,131,130,130,131,129,132,130,129,130,132,
131,130,130,129,129,130,130,130,129,132,131,132,130,129,129,131,132,130,131,131,132,129,130,129,132,129,129,129,129,132,130,1,4,3,2,132,131,132,131,130,132,130,131,132,129,132,132,131,129,129,132,130,132,129,130,130,132,132,129,129,130,129,131,129,
129,130,132,132,130,131,130,132,129,132,131,130,129,131,131,130,130,132,130,132,129,132,131,129,130,131,130,132,131,129,132,3,4,2,3,129,132,131,132,132,132,129,132,130,130,132,130,130,130,130,129,130,130,130,129,129,129,130,130,129,129,129,130,129,
131,130,131,129,130,129,132,129,129,132,132,132,131,132,129,129,132,195,195,195,195,195,195,195,195,195,195,195,195,195,195,4,2,1,1,195,195,195,195,195,195,195,195,195,195,195,195,195,195,130,130,130,132,132,132,130,130,129,130,131,131,131,131,129,
129,131,132,129,129,129,132,130,131,129,130,130,131,130,131,131,132,195,196,196,196,196,196,196,196,196,196,196,196,196,195,3,1,4,1,195,196,196,196,196,196,196,196,196,196,196,196,196,195,132,131,131,131,131,130,131,130,132,131,131,129,131,129,129,
129,130,130,129,130,131,130,131,132,131,129,132,130,130,130,132,131,195,129,132,129,130,130,129,131,132,130,131,131,129,195,2,3,2,3,195,131,130,131,130,131,130,129,130,129,132,129,132,195,131,132,130,130,130,130,130,129,129,130,131,131,129,130,132,
131,129,129,132,132,131,132,130,129,129,132,132,131,130,129,131,129,195,129,132,130,132,130,131,132,130,22,23,23,23,196,2,3,3,4,196,130,131,129,131,132,129,131,132,132,131,129,131,195,130,130,129,129,129,130,131,130,129,131,131,130,129,132,129,
131,129,132,130,132,130,130,130,129,131,130,132,129,130,130,130,130,195,131,132,130,130,129,131,130,132,38,153,154,155,23,23,23,23,23,23,23,23,24,130,130,132,130,129,130,131,130,130,195,132,132,131,131,130,130,129,130,129,131,132,132,131,130,130,
131,130,129,130,130,129,130,132,131,131,132,131,129,129,132,131,131,195,130,132,132,132,130,131,130,130,38,153,154,155,10,10,11,9,9,11,12,11,40,131,131,132,130,130,131,129,130,129,195,130,132,129,129,132,131,130,131,132,129,130,132,130,129,129,
131,129,131,130,132,130,129,131,130,131,132,129,132,129,129,131,130,195,129,132,130,132,131,129,130,131,38,153,154,155,11,12,10,10,11,11,10,12,40,132,131,130,132,130,132,129,132,131,195,130,131,132,129,132,129,130,131,130,131,129,131,130,132,131,
129,131,131,130,131,131,131,132,129,129,132,130,132,132,132,132,132,195,130,130,129,132,129,131,131,22,11,10,11,12,10,10,11,10,11,10,9,12,12,23,24,130,129,132,129,130,132,132,195,131,130,129,131,132,129,132,129,129,130,131,132,132,132,132,
130,130,130,4,1,2,3,2,129,131,129,129,131,132,132,130,129,195,129,132,130,130,132,131,132,38,12,9,9,10,9,11,9,12,12,9,12,9,12,10,40,132,132,129,131,131,132,131,195,131,131,129,132,130,132,131,132,129,132,132,129,131,129,130,
132,129,132,2,4,2,4,4,129,130,132,130,131,131,129,132,132,195,132,130,129,132,22,23,23,11,9,12,12,9,12,9,9,12,10,11,11,9,9,9,10,23,23,24,132,129,131,129,195,130,131,132,131,129,129,131,130,130,130,129,130,129,129,130,
130,132,132,4,4,1,2,2,2,4,1,1,129,132,130,130,132,195,130,131,131,130,38,12,11,9,10,11,10,11,12,12,12,10,11,9,11,10,11,11,10,11,12,40,132,131,129,130,195,132,130,132,131,131,130,130,131,3,3,3,1,1,2,131,
132,132,129,3,3,4,4,1,3,3,4,4,2,131,132,130,131,195,195,195,195,195,38,11,9,9,11,12,12,9,10,9,11,9,11,9,12,9,10,12,12,12,10,40,195,195,195,195,195,132,130,129,130,129,129,130,130,1,3,3,3,1,1,129,
129,129,130,4,1,1,2,4,1,4,4,1,2,131,132,132,132,196,196,196,196,196,38,11,9,9,12,10,12,12,11,11,11,9,10,12,9,10,9,11,12,12,10,56,196,196,196,196,196,130,130,129,129,130,129,130,130,2,3,4,1,4,3,132,
129,132,131,4,3,2,4,4,3,2,3,3,3,2,2,2,4,3,4,4,1,2,38,9,10,12,9,12,11,11,10,11,10,9,12,12,9,10,12,9,9,9,40,2,1,3,2,3,1,1,1,3,3,3,4,3,2,4,3,2,3,4,3,130,
130,130,131,2,1,1,1,2,3,4,3,4,2,4,1,1,3,4,1,2,2,4,38,11,10,11,11,12,12,11,10,10,10,9,9,10,11,11,10,10,9,9,40,3,2,3,2,3,4,1,4,4,1,3,4,4,1,2,3,1,2,1,4,131,
132,129,132,3,3,3,3,3,1,4,3,1,1,2,1,3,1,3,3,3,3,3,38,12,9,9,12,10,10,9,11,9,9,10,11,9,9,9,9,10,12,12,40,4,3,1,1,3,2,2,3,1,2,1,3,1,3,3,2,2,4,1,1,130,
131,130,132,1,3,4,2,1,3,2,3,4,4,2,3,3,2,3,4,3,2,3,38,10,11,11,11,12,11,12,11,9,11,10,10,9,9,12,11,11,10,11,40,2,4,3,2,2,3,3,1,1,4,2,3,2,3,1,2,3,2,2,2,131,
132,131,130,132,4,1,1,3,3,3,1,4,2,3,2,4,4,3,4,2,1,3,38,11,12,10,12,10,10,9,9,11,9,11,10,9,12,9,12,11,12,11,9,24,195,195,195,195,195,130,132,129,129,131,129,132,131,1,2,4,4,2,4,129,
130,130,132,132,1,2,1,4,132,131,129,130,129,130,131,131,129,195,195,195,195,195,38,11,12,12,10,10,11,10,10,9,11,11,11,9,9,11,9,9,12,12,11,40,196,196,196,196,195,130,132,130,131,129,130,130,130,4,1,2,2,1,4,130,
130,129,132,131,130,132,131,130,129,130,129,131,129,131,130,129,130,195,129,131,129,129,54,55,55,11,10,9,11,11,12,12,9,11,12,12,11,9,10,9,12,12,55,56,132,129,132,130,195,130,129,129,132,131,130,130,129,131,129,129,132,129,132,130,
131,131,129,132,129,131,129,131,131,131,131,130,131,129,131,130,132,195,132,131,130,131,132,132,132,38,9,12,10,9,9,10,11,10,9,10,9,153,154,155,156,40,132,131,132,132,131,131,195,130,132,131,132,131,129,132,129,132,130,132,129,131,130,129,
132,131,131,131,130,129,132,132,130,129,132,129,129,129,130,129,129,195,131,130,129,129,129,131,130,54,55,11,9,12,11,10,10,9,11,11,9,153,154,155,156,40,129,129,130,131,132,129,195,132,129,132,132,129,131,129,132,132,132,130,129,132,131,131,
129,130,131,132,129,129,129,132,132,129,131,129,129,132,131,130,131,195,130,130,131,132,131,131,132,130,129,38,10,12,10,11,10,10,10,12,12,153,154,155,156,40,130,130,129,131,130,129,195,129,131,132,131,132,132,130,129,129,129,132,132,129,132,132,
131,130,130,132,132,130,130,129,130,129,131,131,131,132,132,131,131,195,129,132,131,131,130,130,130,130,131,38,9,12,9,55,55,55,55,55,12,153,154,155,156,56,132,130,132,129,131,132,195,129,131,129,131,132,129,132,132,132,131,130,131,131,129,131,
131,132,132,132,131,129,129,132,129,130,129,129,129,132,129,131,129,195,132,130,132,130,131,130,129,132,131,54,55,55,56,3,1,4,3,1,54,55,55,55,55,56,131,129,130,129,129,130,195,130,129,130,131,132,129,132,130,131,131,129,129,132,129,130,
131,131,131,129,132,129,132,131,132,132,132,130,131,130,129,131,130,195,129,129,131,130,129,129,130,129,129,129,129,131,195,3,1,2,2,1,195,132,132,131,130,130,132,129,132,131,129,130,195,132,132,131,130,129,130,130,131,130,130,131,132,129,132,132,
132,131,132,130,130,130,131,132,130,130,132,132,130,131,131,132,132,195,131,132,132,129,129,132,132,129,132,132,129,131,195,2,3,3,4,1,195,129,130,132,130,132,132,130,130,129,129,132,195,129,132,129,131,129,131,131,129,130,129,130,131,131,130,131,
130,130,132,132,129,131,130,132,129,130,132,132,131,132,132,130,130,195,132,130,132,132,129,132,131,131,129,132,129,129,195,4,2,2,1,3,195,132,129,130,132,129,130,131,132,131,132,129,195,131,132,132,130,131,130,131,132,131,129,129,132,131,129,129,
131,132,131,129,130,131,130,130,132,131,132,131,132,132,129,132,130,195,129,131,130,129,131,131,132,130,132,132,132,129,195,2,1,4,4,2,195,132,131,129,129,131,131,129,132,129,131,130,195,129,131,131,130,132,130,129,130,132,129,132,130,130,129,132,
129,130,129,130,132,131,129,132,132,132,132,129,129,130,130,129,129,195,132,132,130,130,130,132,129,132,129,132,131,130,195,2,1,1,4,2,195,132,130,130,130,132,129,132,132,130,131,130,195,129,131,129,129,132,130,130,130,131,132,129,131,131,130,129,
131,132,131,131,130,132,131,129,132,129,130,131,131,132,129,131,132,195,195,195,195,195,195,195,195,195,195,195,195,195,195,2,1,3,1,3,195,195,195,195,195,195,195,195,195,195,195,195,195,129,130,129,131,130,131,131,129,132,132,130,131,131,129,129,
129,132,129,131,132,132,130,130,130,132,131,132,130,130,132,129,129,196,196,196,196,196,196,196,196,196,196,196,196,196,196,1,1,2,4,1,196,196,196,196,196,196,196,196,196,196,196,196,196,130,131,131,129,130,130,131,132,129,131,129,130,132,130,129,
132,130,130,131,129,131,130,130,129,129,131,130,132,130,130,131,129,130,131,131,131,130,130,130,129,129,131,131,129,131,2,1,3,3,4,3,4,3,3,132,131,131,129,132,132,130,130,131,129,132,132,129,131,132,130,129,132,131,131,131,129,129,129,129,
132,130,132,131,131,129,130,132,129,131,129,131,129,132,129,132,131,131,129,130,130,132,132,131,132,132,131,132,131,129,2,2,2,4,1,1,2,1,2,130,131,132,130,129,129,130,130,132,130,130,130,129,131,131,132,131,132,130,129,131,132,130,131,130,
129,129,132,132,131,131,131,129,131,132,130,130,129,132,132,132,132,131,132,129,131,129,131,132,129,131,130,131,129,129,2,4,4,2,1,2,4,4,2,131,132,130,132,129,130,129,131,130,130,131,129,129,132,131,129,130,129,131,132,132,130,131,130,132,
130,129,129,131,130,131,130,131,131,132,132,132,132,130,130,129,129,130,131,129,130,129,131,132,129,132,129,129,132,131,4,2,3,3,2,2,1,3,3,129,131,132,132,129,132,131,129,130,129,130,132,131,132,132,131,130,131,129,132,132,130,129,130,132,
132,132,132,131,129,132,129,132,131,130,132,130,130,130,129,129,130,132,131,129,131,132,132,130,132,130,130,129,3,2,2,1,4,3,4,3,2,4,4,129,132,129,129,129,130,132,132,130,129,132,130,129,130,130,130,130,132,132,130,132,131,131,131,129,
132,130,131,131,129,130,130,129,131,129,130,132,129,131,131,132,131,129,129,132,132,129,132,131,130,130,129,131,4,1,2,1,1,1,4,4,2,4,1,2,131,132,132,132,129,129,132,131,129,130,130,132,130,130,132,131,130,131,132,130,129,132,132,129,
132,131,130,129,130,129,129,131,132,130,132,131,132,130,130,129,132,132,132,129,130,131,130,130,130,129,129,130,3,4,1,3,3,1,2,4,3,2,3,2,131,131,129,130,131,130,130,130,131,131,129,129,131,129,130,129,130,129,129,130,131,132,130,129,
130,130,131,131,130,130,132,129,129,129,131,130,129,129,132,130,131,132,132,132,130,130,132,132,130,129,129,130,1,2,3,3,2,2,4,3,2,1,4,3,129,130,132,132,129,131,129,131,130,131,129,129,130,132,131,132,129,132,129,129,129,132,131,131,
131,131,132,132,130,129,132,130,131,132,130,130,132,129,129,132,130,129,130,132,131,129,129,129,129,129,130,130,2,4,3,1,3,1,3,1,2,3,4,1,130,129,130,129,129,129,132,130,129,129,129,129,130,132,131,130,131,129,129,131,132,132,131,132,
129,132,129,129,132,131,131,129,130,129,131,132,132,132,129,130,130,129,130,130,131,130,129,131,131,131,129,130,2,4,3,3,1,3,4,3,1,2,2,131,130,130,131,131,129,129,132,131,130,130,132,130,129,131,129,131,132,130,129,132,130,132,131,131,
129,129,130,131,131,130,131,132,130,132,131,131,132,132,129,131,132,129,132,132,131,131,131,130,130,132,131,130,3,4,1,4,2,4,3,4,4,1,132,131,130,132,131,129,129,132,132,132,129,129,129,129,129,129,130,130,129,130,130,131,130,131,130,130,
132,129,132,129,130,129,130,132,132,129,132,129,131,132,131,132,132,131,130,130,132,130,129,132,131,129,129,129,132,2,3,3,1,3,2,4,4,130,131,130,132,131,131,130,130,131,132,130,132,130,130,132,129,129,131,132,129,129,131,129,131,131,131,130,
129,129,129,130,130,131,130,129,131,129,132,130,129,132,130,132,130,131,130,132,129,132,132,130,130,132,130,131,129,131,132,131,131,131,130,132,132,131,129,131,132,129,131,129,131,131,130,130,132,132,130,130,132,129,132,130,131,130,130,130,129,129,130,132,
130,132,130,129,130,132,129,132,130,130,132,129,131,130,129,132,129,131,132,132,131,129,132,132,130,132,132,132,129,132,129,131,132,129,131,131,132,131,132,132,132,131,130,129,129,129,131,129,130,132,129,129,129,129,130,130,130,131,130,130,132,132,130,129,
131,132,129,129,131,132,130,131,132,131,131,129,131,130,129,131,129,129,129,132,129,131,132,130,131,131,132,131,131,129,129,131,131,129,129,130,129,130,131,132,129,131,129,129,130,130,131,132,130,131,130,130,132,131,130,132,130,131,132,130,129,131,132,132,
131,130,130,130,129,129,129,131,132,129,130,129,130,131,130,132,132,130,131,131,129,130,129,132,129,132,131,129,130,130,129,132,129,132,131,132,129,131,131,129,132,132,131,132,132,132,129,131,132,132,129,130,129,131,131,132,130,132,131,130,129,130,130,130
</data>
 </layer>
 <objectgroup id="2" name="Units/Buildings">
  <object id="71" template="../units/P_Worker.tx" x="464" y="496"/>
  <object id="72" template="../units/P_Worker.tx" x="528" y="448"/>
  <object id="125" template="../buildings/P_City_Hall.tx" x="512" y="512"/>
  <object id="126" template="../units/P_Worker.tx" x="608" y="496"/>
  <object id="249" template="../buildings/P_Farm.tx" x="976" y="992"/>
  <object id="250" template="../buildings/P_Farm.tx" x="944" y="992"/>
  <object id="259" template="../units/P_Worker.tx" x="528" y="576"/>
  <object id="260" template="../units/C_Archer.tx" x="112" y="448"/>
  <object id="261" template="../units/C_Archer.tx" x="112" y="432"/>
  <object id="262" template="../units/C_Archer.tx" x="112" y="464"/>
  <object id="263" template="../units/C_Archer.tx" x="112" y="480"/>
  <object id="264" template="../units/C_Archer.tx" x="112" y="496"/>
  <object id="265" template="../units/C_Knight.tx" x="96" y="432"/>
  <object id="266" template="../units/C_Knight.tx" x="96" y="448"/>
  <object id="267" template="../units/C_Knight.tx" x="96" y="464"/>
  <object id="271" template="../units/C_Knight.tx" x="96" y="480"/>
  <object id="272" template="../units/C_Knight.tx" x="96" y="496"/>
  <object id="273" template="../units/C_Soldier.tx" x="80" y="432"/>
  <object id="274" template="../units/C_Soldier.tx" x="80" y="448"/>
  <object id="275" template="../units/C_Soldier.tx" x="80" y="464"/>
  <object id="276" template="../units/C_Soldier.tx" x="80" y="480"/>
  <object id="277" template="../units/C_Soldier.tx" x="80" y="496"/>
  <object id="278" template="../units/C_Archer.tx" x="960" y="480"/>
  <object id="279" template="../units/C_Archer.tx" x="960" y="464"/>
  <object id="280" template="../units/C_Archer.tx" x="960" y="496"/>
  <object id="281" template="../units/C_Archer.tx" x="960" y="512"/>
  <object id="282" template="../units/C_Archer.tx" x="960" y="528"/>
  <object id="283" template="../units/C_Knight.tx" x="944" y="464"/>
  <object id="284" template="../units/C_Knight.tx" x="944" y="480"/>
  <object id="285" template="../units/C_Knight.tx" x="944" y="496"/>
  <object id="286" template="../units/C_Knight.tx" x="944" y="512"/>
  <object id="287" template="../units/C_Knight.tx" x="944" y="528"/>
  <object id="288" template="../units/C_Soldier.tx" x="928" y="464"/>
  <object id="289" template="../units/C_Soldier.tx" x="928" y="480"/>
  <object id="290" template="../units/C_Soldier.tx" x="928" y="496"/>
  <object id="291" template="../units/C_Soldier.tx" x="928" y="512"/>
  <object id="292" template="../units/C_Soldier.tx" x="928" y="528"/>
  <object id="293" template="../units/C_Archer.tx" x="544" y="864"/>
  <object id="294" template="../units/C_Archer.tx" x="544" y="848"/>
  <object id="295" template="../units/C_Archer.tx" x="544" y="880"/>
  <object id="296" template="../units/C_Archer.tx" x="544" y="896"/>
  <object id="297" template="../units/C_Archer.tx" x="544" y="912"/>
  <object id="298" template="../units/C_Knight.tx" x="528" y="848"/>
  <object id="299" template="../units/C_Knight.tx" x="528" y="864"/>
  <object id="300" template="../units/C_Knight.tx" x="528" y="880"/>
  <object id="301" template="../units/C_Knight.tx" x="528" y="896"/>
  <object id="302" template="../units/C_Knight.tx" x="528" y="912"/>
  <object id="303" template="../units/C_Soldier.tx" x="512" y="848"/>
  <object id="304" template="../units/C_Soldier.tx" x="512" y="864"/>
  <object id="305" template="../units/C_Soldier.tx" x="512" y="880"/>
  <object id="306" template="../units/C_Soldier.tx" x="512" y="896"/>
  <object id="307" template="../units/C_Soldier.tx" x="512" y="912"/>
  <object id="308" template="../units/C_Archer.tx" x="528" y="80"/>
  <object id="309" template="../units/C_Archer.tx" x="528" y="64"/>
  <object id="310" template="../units/C_Archer.tx" x="528" y="96"/>
  <object id="311" template="../units/C_Archer.tx" x="528" y="112"/>
  <object id="312" template="../units/C_Archer.tx" x="528" y="128"/>
  <object id="313" template="../units/C_Knight.tx" x="512" y="64"/>
  <object id="314" template="../units/C_Knight.tx" x="512" y="80"/>
  <object id="315" template="../units/C_Knight.tx" x="512" y="96"/>
  <object id="316" template="../units/C_Knight.tx" x="512" y="112"/>
  <object id="317" template="../units/C_Knight.tx" x="512" y="128"/>
  <object id="318" template="../units/C_Soldier.tx" x="496" y="64"/>
  <object id="319" template="../units/C_Soldier.tx" x="496" y="80"/>
  <object id="320" template="../units/C_Soldier.tx" x="496" y="96"/>
  <object id="321" template="../units/C_Soldier.tx" x="496" y="112"/>
  <object id="322" template="../units/C_Soldier.tx" x="496" y="128"/>
  <object id="323" template="../units/C_Mage.tx" x="64" y="448"/>
  <object id="324" template="../units/C_Mage.tx" x="64" y="464"/>
  <object id="325" template="../units/C_Mage.tx" x="448" y="880"/>
  <object id="326" template="../units/C_Mage.tx" x="448" y="896"/>
  <object id="327" template="../units/C_Mage.tx" x="992" y="480"/>
  <object id="328" template="../units/C_Mage.tx" x="992" y="496"/>
  <object id="329" template="../units/C_Mage.tx" x="544" y="80"/>
  <object id="330" template="../units/C_Mage.tx" x="544" y="96"/>
  <object id="332" template="../buildings/P_Farm.tx" x="432" y="576"/>
  <object id="333" template="../buildings/P_Farm.tx" x="448" y="624"/>
  <object id="335" template="../buildings/P_Farm.tx" x="592" y="384"/>
  <object id="336" template="../buildings/P_Farm.tx" x="624" y="400"/>
  <object id="338" template="../buildings/P_Farm.tx" x="432" y="656"/>
  <object id="339" template="../buildings/P_Farm.tx" x="400" y="608"/>
  <object id="340" template="../buildings/P_Farm.tx" x="400" y="576"/>
  <object id="341" template="../buildings/P_Farm.tx" x="592" y="352"/>
  <object id="342" template="../buildings/P_Barracks.tx" x="432" y="464"/>
  <object id="343" template="../buildings/P_Barracks.tx" x="592" y="464"/>
  <object id="344" template="../buildings/P_Turret.tx" x="352" y="464"/>
  <object id="345" template="../buildings/P_Turret.tx" x="352" y="576"/>
  <object id="346" template="../buildings/P_Turret.tx" x="464" y="656"/>
  <object id="347" template="../buildings/P_Turret.tx" x="560" y="656"/>
  <object id="348" template="../buildings/P_Turret.tx" x="672" y="576"/>
  <object id="349" template="../buildings/P_Turret.tx" x="672" y="464"/>
  <object id="350" template="../buildings/P_Turret.tx" x="480" y="352"/>
  <object id="351" template="../buildings/P_Turret.tx" x="560" y="352"/>
 </objectgroup>
</map>
