<?xml version="1.0" encoding="UTF-8"?>
<map version="1.10" tiledversion="1.12.1" orientation="orthogonal" renderorder="right-down" width="64" height="64" tilewidth="16" tileheight="16" infinite="0" nextlayerid="5" nextobjectid="160">
 <editorsettings>
  <export target="../../../assets/map/win.fgm" format="Future Glimpses map (*.fgm)"/>
 </editorsettings>
 <properties>
  <property name="AI_MODE" type="int" propertytype="AI_MODE" value="0"/>
  <property name="ENABLE_BARRACKS" type="bool" value="true"/>
  <property name="ENABLE_BLACKSMITH" type="bool" value="true"/>
  <property name="ENABLE_FARM" type="bool" value="true"/>
  <property name="ENABLE_STABLES" type="bool" value="true"/>
  <property name="ENABLE_TOWER" type="bool" value="true"/>
  <property name="MSG_DESCRIPTION" value="Ganas inmediatamente porque no hay enemigos. Lorem ipsum dolor sit amet, consectetur adipiscing elit. Ut aliquet maximus mattis. Aliquam non elementum nisl, id dictum arcu. Sed rutrum purus a finibus luctus. Nam aliquet et sapien sed ultrices. Sed blandit interdum arcu in interdum. Aenean ac sem."/>
  <property name="MSG_LOSE" value="Pierdes. Esto puede ser un texto bastante largo, para dar algo de lore a la partida."/>
  <property name="MSG_TITLE" value="Vas a ganar"/>
  <property name="MSG_WIN" value="Ganas. Esto puede ser un texto bastante largo, para dar algo de lore a la partida."/>
  <property name="PEACE_TIME" type="int" value="120"/>
  <property name="RES_GOLD_COMPUTER" type="int" value="100000"/>
  <property name="RES_GOLD_PLAYER" type="int" value="123456"/>
  <property name="RES_WOOD_COMPUTER" type="int" value="100000"/>
  <property name="RES_WOOD_PLAYER" type="int" value="234567"/>
 </properties>
 <tileset firstgid="1" source="../tileset.tsx"/>
 <tileset firstgid="257" source="../units/units.tsx"/>
 <tileset firstgid="267" source="../buildings/big_buildings.tsx"/>
 <tileset firstgid="273" source="../buildings/small_buildings.tsx"/>
 <layer id="1" name="Map" width="64" height="64">
  <data encoding="csv">
195,195,195,195,195,195,195,195,195,195,195,195,195,195,195,195,195,195,129,130,131,132,129,130,131,132,129,130,131,132,129,130,131,132,129,130,131,132,129,130,131,132,129,130,131,132,129,130,131,2,3,4,1,2,3,4,1,2,3,4,1,2,3,4,
195,196,196,196,196,196,196,196,196,196,196,196,196,196,196,196,196,6,19,130,131,132,129,130,131,132,129,130,131,132,129,130,131,132,129,130,131,132,129,130,131,132,129,130,131,132,129,130,1,2,3,4,1,2,3,4,1,2,3,4,1,2,3,4,
195,6,7,8,5,6,6,7,8,5,7,8,5,6,7,8,5,6,6,19,131,132,129,130,131,132,129,130,131,132,129,130,131,132,129,130,131,132,129,130,131,132,129,130,131,132,129,130,1,145,146,147,148,2,3,4,1,2,3,4,1,2,3,4,
195,7,7,8,5,6,149,150,151,152,7,8,5,6,7,8,5,6,6,6,19,132,129,130,131,132,129,130,131,132,129,130,131,132,129,130,131,132,129,130,131,132,129,130,131,132,129,130,1,145,146,147,148,2,3,4,1,2,3,4,1,2,3,4,
195,7,7,8,5,6,149,150,151,152,7,8,5,6,7,8,5,6,6,6,35,132,129,130,131,132,129,130,131,132,129,130,131,132,129,130,131,132,129,130,131,132,129,130,131,132,129,130,1,145,146,147,148,2,3,4,1,2,3,4,1,2,3,4,
195,7,7,8,5,6,149,150,151,152,7,8,5,6,7,8,5,6,7,6,6,19,129,130,131,132,129,130,131,132,129,130,131,132,129,130,131,132,129,130,131,132,129,130,131,132,129,4,1,145,146,147,148,2,3,4,1,2,3,4,1,2,3,4,
195,7,7,8,5,6,149,150,151,152,7,8,5,6,7,8,5,6,7,6,6,6,19,130,131,132,129,130,131,132,129,130,131,132,129,130,131,132,129,130,131,132,129,130,131,132,129,4,1,2,3,4,1,2,3,4,1,2,3,4,1,2,3,4,
195,7,7,8,5,6,7,8,5,6,7,8,5,6,7,8,5,6,7,8,6,6,35,130,131,132,129,130,131,132,129,130,131,132,129,130,131,132,129,130,131,132,129,130,131,132,3,4,1,2,3,4,1,2,3,4,1,2,3,4,1,2,3,4,
195,7,7,8,5,6,7,8,5,6,7,8,5,6,7,8,5,6,7,8,5,6,6,19,131,132,129,130,131,132,129,130,131,132,129,130,131,132,129,130,131,132,129,130,131,132,3,4,1,2,3,4,1,2,3,4,1,2,3,4,1,2,3,4,
195,6,7,8,5,6,7,8,5,6,7,8,5,6,7,8,5,6,7,8,5,6,6,7,195,132,129,130,131,132,129,130,131,132,129,130,131,132,129,130,131,132,129,130,131,2,3,4,1,2,3,4,1,2,3,4,1,2,3,4,1,2,3,4,
195,6,7,8,5,6,7,8,5,6,7,8,5,6,7,8,5,6,7,8,5,6,6,7,195,132,129,130,131,132,129,130,131,132,129,130,131,132,129,130,131,132,129,130,131,2,3,4,1,2,3,4,1,2,3,4,1,2,3,4,1,2,3,4,
195,6,7,8,5,6,7,8,5,6,7,8,5,6,7,8,5,6,7,8,5,6,6,7,195,2,129,130,131,132,129,130,131,132,129,130,131,132,129,130,131,132,129,130,1,2,3,4,1,2,3,4,1,2,3,4,1,2,3,4,1,2,3,4,
195,6,7,8,5,6,7,8,5,6,7,8,5,6,7,8,5,6,7,8,5,6,7,8,195,2,3,130,131,132,129,130,131,132,129,130,131,132,129,130,131,132,129,4,1,2,3,4,1,2,3,4,1,2,3,4,1,2,3,4,1,2,3,4,
195,6,7,6,6,6,6,7,5,6,7,8,5,6,7,8,5,6,7,8,5,6,7,8,195,2,3,4,131,132,129,130,131,132,129,130,131,132,129,130,131,132,129,4,1,2,3,4,1,2,3,4,1,2,3,4,1,2,3,4,1,2,3,4,
196,50,50,50,50,50,6,6,7,6,7,8,5,6,7,8,5,6,7,8,5,6,7,8,195,2,3,4,1,132,129,130,131,132,129,130,131,132,129,130,131,132,3,4,1,2,3,4,1,2,3,4,1,2,3,4,1,2,3,4,1,2,3,4,
129,130,131,132,129,131,49,6,7,6,7,8,5,6,7,8,5,6,7,8,5,6,7,195,195,2,3,4,1,132,129,130,131,132,129,130,131,132,129,130,131,132,3,4,1,2,3,4,1,2,3,4,1,2,3,4,1,2,3,4,1,2,3,4,
129,130,131,132,129,130,131,49,6,6,6,7,5,6,7,8,5,6,7,8,5,6,7,196,196,2,3,4,1,2,129,130,131,132,129,130,131,132,129,130,131,2,3,4,1,2,3,4,1,2,3,4,1,2,3,4,1,2,3,4,1,2,3,4,
129,130,131,132,129,130,131,132,49,50,6,6,7,6,7,8,5,6,7,8,5,6,7,35,1,2,3,4,1,2,3,130,131,132,129,130,131,132,129,130,131,2,3,4,1,2,3,4,1,2,3,4,1,2,3,4,1,2,3,4,1,2,3,4,
129,130,131,132,129,130,131,132,129,130,49,51,195,195,195,8,5,6,7,195,50,50,50,51,1,2,3,4,1,2,3,4,131,132,129,130,131,132,129,130,1,2,3,4,1,2,3,4,1,2,3,4,1,2,3,4,1,2,3,4,1,2,3,4,
129,130,131,132,129,130,131,132,129,130,131,132,196,196,195,195,195,195,195,195,1,1,1,4,1,2,3,4,1,2,3,4,1,2,3,4,1,2,3,4,1,2,3,4,1,2,3,4,1,2,3,4,1,2,3,4,1,2,3,4,1,130,131,132,
129,130,131,132,129,130,131,132,129,130,131,132,129,130,196,196,196,196,196,196,1,1,1,1,1,2,3,4,1,2,3,4,1,2,3,4,1,2,3,4,1,2,3,4,1,2,3,4,1,2,3,4,1,2,3,4,1,2,3,4,129,130,131,132,
129,130,131,132,129,130,131,132,129,130,131,132,129,130,131,4,1,2,3,4,1,1,1,1,1,2,3,4,1,2,3,4,1,2,3,4,1,2,3,4,1,2,3,4,1,2,3,4,1,2,3,4,1,2,3,4,1,130,131,132,129,130,131,132,
129,130,131,132,129,130,131,132,129,130,131,132,129,130,131,132,1,2,3,4,1,2,3,1,1,2,3,4,1,2,3,4,1,2,3,4,1,2,3,4,1,2,3,4,1,2,3,4,1,2,3,4,1,2,3,132,129,130,131,132,129,130,131,132,
129,130,131,132,129,130,131,132,129,130,131,132,129,130,131,132,129,2,3,4,1,2,3,4,1,1,3,4,1,2,3,4,1,2,3,4,1,2,3,4,1,2,3,4,1,2,3,4,1,2,3,4,1,2,131,132,129,130,131,132,129,130,131,132,
129,130,131,132,129,130,131,132,129,130,131,132,129,130,131,132,129,130,3,4,1,2,3,4,1,2,3,4,1,2,3,4,1,2,3,4,1,2,3,4,1,2,3,4,1,2,3,4,1,2,3,132,129,130,131,132,129,130,131,132,129,130,131,132,
129,130,131,132,129,130,131,132,129,130,131,132,129,130,131,132,129,130,131,4,1,2,3,4,1,2,3,4,1,2,3,4,1,2,3,4,1,2,3,4,1,2,3,4,1,2,3,4,1,130,131,132,129,130,131,132,129,130,131,132,129,130,131,132,
129,130,131,132,129,130,131,132,129,130,131,132,129,130,131,132,129,130,131,132,129,2,3,4,1,2,3,4,1,2,3,4,1,2,3,4,1,2,3,4,1,2,3,4,1,2,3,4,129,130,131,132,129,130,131,132,129,130,131,132,129,130,131,132,
129,130,131,132,129,130,131,132,129,130,131,132,129,130,131,132,129,130,131,132,129,2,3,4,1,2,3,4,1,2,3,4,1,2,3,4,1,2,3,4,1,2,3,4,1,2,131,132,129,130,131,132,129,130,131,132,129,130,131,132,129,130,131,132,
129,130,131,132,129,130,131,132,129,130,131,132,129,130,131,132,129,130,131,132,129,2,3,4,1,2,3,4,1,2,3,4,1,2,3,4,1,2,3,4,1,2,3,4,129,130,131,132,129,130,131,132,129,130,131,132,129,130,131,132,129,130,131,132,
129,130,131,132,129,130,131,132,129,130,131,132,129,130,131,132,129,130,131,132,129,2,3,4,1,2,3,4,1,2,3,4,1,2,3,4,1,2,3,4,1,2,3,4,129,130,131,132,129,130,131,132,129,130,131,132,129,130,131,132,129,130,131,132,
129,130,131,132,129,130,131,132,129,130,131,132,129,130,131,132,129,130,131,132,129,2,3,4,1,2,3,4,1,2,169,170,170,171,3,4,169,170,170,171,1,2,3,4,129,130,131,132,129,130,131,132,129,130,131,132,129,130,131,132,129,130,131,132,
129,130,131,132,129,130,131,132,129,130,131,132,129,130,131,132,129,130,131,132,129,2,3,4,1,2,3,4,1,2,172,177,178,173,3,4,172,179,180,173,1,2,3,4,129,130,131,132,129,130,131,132,129,130,131,132,129,130,131,132,129,130,131,132,
129,130,131,132,129,130,131,132,129,130,131,132,129,130,131,132,129,130,131,132,129,2,3,4,1,2,3,4,1,2,172,177,178,173,3,4,172,179,180,173,1,2,3,4,129,130,131,132,129,130,131,132,129,130,131,132,129,130,131,132,129,130,131,132,
129,130,131,132,129,130,131,132,129,130,131,132,129,130,131,132,129,130,131,132,1,2,3,4,1,2,3,4,1,2,174,175,175,176,3,4,174,175,175,176,2,2,3,4,129,130,131,132,129,130,131,132,129,130,131,132,129,130,131,132,129,130,131,132,
129,130,131,132,129,130,131,132,129,130,131,132,129,130,131,132,129,130,131,132,1,2,3,4,1,2,3,4,1,3,4,1,2,2,3,4,2,2,2,2,2,2,3,4,129,130,131,132,129,130,131,132,129,130,131,132,129,130,131,132,129,130,131,132,
129,130,131,132,129,130,131,132,129,130,131,132,129,130,131,132,129,130,131,4,1,2,3,4,1,2,3,4,1,3,4,1,2,2,3,4,2,2,2,2,2,2,3,4,129,130,131,132,129,130,131,132,129,130,131,132,129,130,131,132,129,130,131,132,
129,130,131,132,129,130,131,132,129,130,131,132,129,130,131,132,129,130,131,4,1,2,3,4,1,2,3,4,1,3,169,170,170,171,3,4,169,170,170,171,2,2,3,4,1,130,131,132,129,130,131,132,129,130,131,132,129,130,131,132,129,130,131,132,
129,130,131,132,129,130,131,132,129,130,131,132,129,130,131,132,129,130,3,4,1,2,3,4,1,2,3,4,1,2,172,177,178,173,3,4,172,179,180,173,1,2,3,4,1,2,131,132,129,130,131,132,129,130,131,132,129,130,131,132,129,130,131,132,
129,130,131,132,129,130,131,132,129,130,131,132,129,130,131,132,1,2,3,4,1,2,3,4,1,2,3,4,1,2,172,177,178,173,3,4,172,179,180,173,1,2,3,4,1,2,3,132,129,130,131,132,129,130,131,132,129,130,131,132,129,130,131,132,
129,130,131,132,129,130,131,132,129,130,131,132,129,130,131,4,1,2,3,4,1,2,3,4,1,2,3,4,1,2,174,175,175,176,3,4,174,175,175,176,1,2,3,4,1,2,3,4,129,130,131,132,129,130,131,132,129,130,131,132,129,130,131,132,
129,130,131,132,129,130,131,132,129,130,131,132,129,130,3,4,1,2,3,4,1,2,3,4,1,2,3,4,1,2,3,4,1,2,3,4,1,2,3,4,1,2,3,4,1,2,3,4,1,2,131,132,129,130,131,132,129,130,131,132,129,130,131,132,
129,130,131,132,129,130,131,132,129,130,131,132,129,2,3,4,1,2,3,4,1,2,3,4,1,2,3,4,1,2,3,4,1,2,3,4,1,2,3,4,1,2,3,4,1,2,3,4,1,2,131,132,129,130,131,132,129,130,131,132,129,130,131,132,
129,130,131,132,129,130,131,132,129,130,131,132,1,2,3,4,1,2,3,4,1,2,3,4,1,2,3,4,1,2,3,4,1,2,3,4,1,2,3,4,1,2,3,4,1,2,3,4,1,2,3,4,129,130,131,132,129,130,131,132,129,130,131,132,
129,130,131,132,129,130,131,132,129,130,131,4,1,2,3,4,1,2,3,4,22,23,24,4,1,2,3,4,1,2,3,4,1,2,3,4,1,2,3,4,1,2,3,4,22,23,23,23,24,195,195,195,195,195,131,132,129,130,131,132,129,130,131,132,
129,130,131,132,129,130,131,132,129,130,3,4,1,2,3,4,1,2,3,4,38,9,40,4,1,2,3,4,1,2,3,4,1,2,3,4,1,2,3,4,1,2,3,4,38,10,11,12,12,196,196,196,196,195,132,132,129,130,131,132,129,130,131,132,
129,130,131,132,129,130,131,132,1,2,3,4,1,2,3,4,1,2,3,4,54,55,56,4,1,2,3,4,1,2,3,4,1,2,3,4,1,2,3,4,1,2,3,4,54,10,11,12,12,11,12,9,10,196,4,1,1,1,4,4,1,130,131,132,
129,130,131,132,129,130,131,4,1,2,3,4,1,2,3,4,1,2,3,4,1,2,3,4,1,2,3,4,1,2,3,4,1,2,3,4,1,2,3,4,1,2,3,4,22,10,11,12,12,11,12,9,10,11,23,23,23,23,23,195,195,195,195,195,
129,130,131,132,129,145,146,147,148,2,3,4,1,2,3,4,1,2,3,4,1,2,3,4,1,2,3,4,1,2,3,4,1,2,3,4,1,2,3,4,1,2,3,195,9,10,11,12,12,11,12,9,10,10,11,12,11,12,12,196,196,196,196,195,
129,130,131,132,1,145,146,147,148,2,3,4,1,2,3,4,1,2,3,4,1,2,3,4,1,2,3,4,1,2,3,129,130,131,132,129,130,131,132,129,130,2,3,195,9,10,11,12,12,11,12,9,10,10,11,12,9,10,11,153,154,155,156,195,
129,130,3,4,1,145,146,147,148,2,3,4,1,2,3,4,1,2,3,4,1,2,3,4,1,2,3,4,130,131,132,129,130,131,132,129,130,131,132,129,130,2,3,195,195,9,10,11,12,11,12,9,10,10,11,12,9,10,11,153,154,155,156,195,
1,2,3,4,1,145,146,147,148,2,3,4,1,2,3,4,1,2,3,4,1,2,3,4,1,2,3,129,130,131,132,129,130,131,132,129,130,131,132,129,130,131,3,196,195,9,10,11,12,11,12,9,10,10,11,12,9,10,11,153,154,155,156,195,
1,2,3,4,1,2,3,4,1,2,3,4,1,2,3,4,1,2,3,4,1,2,3,4,1,2,132,129,130,131,132,129,130,131,132,129,130,131,132,129,130,131,132,132,195,9,10,11,12,11,12,10,10,10,11,12,9,10,11,153,154,155,156,195,
1,2,3,4,1,2,3,4,1,2,3,4,1,2,3,4,1,2,3,4,1,2,3,4,1,131,132,129,130,131,132,129,130,131,132,129,130,131,132,129,130,131,132,129,195,9,9,10,12,11,12,9,10,10,11,12,9,10,11,12,9,10,11,195,
1,2,3,4,1,2,3,4,1,2,3,4,1,2,3,4,1,2,3,4,1,2,3,4,130,131,132,129,130,131,132,129,130,131,132,129,130,131,132,129,130,131,132,129,38,11,12,11,12,11,12,9,10,10,11,12,9,10,11,12,9,10,11,195,
1,2,3,4,1,2,3,4,1,2,3,4,1,2,3,4,1,2,3,4,1,2,3,4,130,131,132,129,130,131,132,129,130,131,132,129,130,131,132,129,130,131,132,129,38,10,12,11,12,11,12,9,10,10,11,12,9,10,11,12,9,10,11,195,
1,2,3,4,1,2,3,4,1,2,3,4,1,2,3,4,1,2,3,4,1,2,3,129,130,131,132,129,130,131,132,129,130,131,132,129,130,131,132,129,130,131,132,129,38,10,10,11,12,11,12,9,10,10,11,12,9,10,11,12,9,12,9,195,
1,2,3,4,1,2,3,4,1,2,3,4,1,2,3,4,1,2,3,4,1,2,3,129,130,131,132,129,130,131,132,129,130,131,132,129,130,131,132,129,130,131,132,129,38,10,10,11,12,10,11,12,9,10,11,12,9,10,11,12,9,12,9,195,
1,2,3,4,1,2,3,4,1,2,3,4,1,2,3,4,1,2,3,4,1,2,132,129,130,131,132,129,130,131,132,129,130,131,132,129,130,131,132,129,130,131,132,22,11,12,11,12,12,10,11,12,9,10,11,12,9,10,11,12,12,9,9,195,
1,2,3,4,1,2,3,4,1,2,3,4,1,2,3,4,1,2,3,4,1,2,132,129,130,131,132,129,130,131,132,129,130,131,132,129,130,131,132,129,130,131,132,38,10,11,12,11,12,10,11,12,9,10,11,12,9,10,11,12,12,12,9,195,
1,2,3,4,1,2,3,4,1,2,3,4,1,2,3,4,1,2,3,4,1,131,132,129,130,131,132,129,130,131,132,129,130,131,132,129,130,131,132,129,130,131,132,38,10,11,12,11,12,10,11,12,9,10,11,12,9,10,11,12,12,12,9,195,
1,2,3,4,1,2,3,4,1,2,3,4,1,2,3,4,1,2,3,4,130,131,132,129,130,131,132,129,130,131,132,129,130,131,132,129,130,131,132,129,130,131,132,195,9,10,12,11,12,10,11,12,9,10,11,12,9,10,11,12,12,12,9,195,
1,2,3,4,1,2,3,4,1,2,3,4,1,2,3,4,1,2,3,4,130,131,132,129,130,131,132,129,130,131,132,129,130,131,132,129,130,131,132,129,130,131,132,195,9,10,10,11,12,10,11,12,9,10,11,12,9,10,11,12,12,12,9,195,
1,2,3,4,1,2,3,4,1,2,3,4,1,2,3,4,1,2,3,129,130,131,132,129,130,131,132,129,130,131,132,129,130,131,132,129,130,131,132,129,130,131,132,195,9,10,10,11,12,10,11,12,9,10,11,12,9,10,11,12,9,10,11,195,
1,2,3,4,1,2,3,4,1,2,3,4,1,2,3,4,1,2,3,129,130,131,132,129,130,131,132,129,130,131,132,129,130,131,132,129,130,131,132,129,130,131,132,195,195,195,195,195,195,195,195,195,195,195,195,195,195,195,195,195,195,195,195,195
</data>
 </layer>
 <objectgroup id="2" name="Units/Buildings">
  <object id="71" template="../units/P_Worker.tx" x="848" y="848"/>
  <object id="72" template="../units/P_Worker.tx" x="848" y="864"/>
  <object id="73" template="../units/P_Knight.tx" name="Triturador" x="816" y="832" visible="1">
   <properties>
    <property name="CUSTOM" type="bool" value="true"/>
    <property name="MAX_DAMAGE" type="int" value="120"/>
    <property name="MAX_HEALTH" type="int" value="9999"/>
    <property name="MIN_DAMAGE" type="int" value="12"/>
    <property name="MUST_SURVIVE" type="bool" value="false"/>
   </properties>
  </object>
  <object id="125" template="../buildings/P_City_Hall.tx" x="896" y="912"/>
  <object id="126" template="../units/P_Worker.tx" x="848" y="880"/>
  <object id="158" template="../units/P_Archer.tx" name="Rajafieras" x="784" y="864">
   <properties>
    <property name="CUSTOM" type="bool" value="true"/>
    <property name="MAX_DAMAGE" type="int" value="60"/>
    <property name="MAX_HEALTH" type="int" value="9999"/>
    <property name="MIN_DAMAGE" type="int" value="50"/>
    <property name="MUST_SURVIVE" type="bool" value="true"/>
   </properties>
  </object>
 </objectgroup>
</map>
