<?xml version="1.0" encoding="UTF-8"?>
<map version="1.10" tiledversion="1.12.1" orientation="orthogonal" renderorder="right-down" width="64" height="64" tilewidth="16" tileheight="16" infinite="0" nextlayerid="5" nextobjectid="173">
 <editorsettings>
  <export target="../../../../assets/map/initial/init1.fgm" format="Future Glimpses map (*.fgm)"/>
 </editorsettings>
 <properties>
  <property name="AI_MODE" type="int" propertytype="AI_MODE" value="0"/>
  <property name="ENABLE_BARRACKS" type="bool" value="true"/>
  <property name="ENABLE_BLACKSMITH" type="bool" value="false"/>
  <property name="ENABLE_FARM" type="bool" value="true"/>
  <property name="ENABLE_STABLES" type="bool" value="false"/>
  <property name="ENABLE_TOWER" type="bool" value="false"/>
  <property name="ENABLE_TURRET" type="bool" value="false"/>
  <property name="ENABLE_UPGRADE_ARCHER" type="bool" value="false"/>
  <property name="ENABLE_UPGRADE_KNIGHT" type="bool" value="false"/>
  <property name="ENABLE_UPGRADE_MAGE" type="bool" value="false"/>
  <property name="ENABLE_UPGRADE_SOLDIER" type="bool" value="false"/>
  <property name="MAP_CODE" value=""/>
  <property name="MSG_DESCRIPTION" value="Recoge recursos, crea granjas y unos cuarteles y limpia el bosque de enemigos."/>
  <property name="MSG_LOSE" value="Has perdido en esta empresa tan sencilla..."/>
  <property name="MSG_TITLE" value="1.Empezando"/>
  <property name="MSG_WIN" value="Has cumplido tu misión."/>
  <property name="PEACE_TIME" type="int" value="0"/>
  <property name="RES_GOLD_COMPUTER" type="int" value="0"/>
  <property name="RES_GOLD_PLAYER" type="int" value="1000"/>
  <property name="RES_WOOD_COMPUTER" type="int" value="0"/>
  <property name="RES_WOOD_PLAYER" type="int" value="500"/>
  <property name="UPGRADED_ARCHER_COMPUTER" type="bool" value="false"/>
  <property name="UPGRADED_ARCHER_PLAYER" type="bool" value="false"/>
  <property name="UPGRADED_KNIGHT_COMPUTER" type="bool" value="false"/>
  <property name="UPGRADED_KNIGHT_PLAYER" type="bool" value="false"/>
  <property name="UPGRADED_MAGE_COMPUTER" type="bool" value="false"/>
  <property name="UPGRADED_MAGE_PLAYER" type="bool" value="false"/>
  <property name="UPGRADED_SOLDIER_COMPUTER" type="bool" value="false"/>
  <property name="UPGRADED_SOLDIER_PLAYER" type="bool" value="false"/>
  <property name="WIN_CODE" value="L8PTRRHT"/>
 </properties>
 <tileset firstgid="1" source="../../tileset.tsx"/>
 <tileset firstgid="257" source="../../units/units.tsx"/>
 <tileset firstgid="267" source="../../buildings/big_buildings.tsx"/>
 <tileset firstgid="273" source="../../buildings/small_buildings.tsx"/>
 <layer id="1" name="Map" width="64" height="64">
  <data encoding="csv">
130,130,131,131,130,132,129,129,132,130,129,132,132,129,132,132,129,132,132,129,130,131,130,130,129,131,129,131,132,129,132,132,131,132,129,129,130,132,129,129,130,130,130,130,130,132,132,132,129,130,131,131,131,130,129,130,130,129,131,130,132,131,130,132,
129,132,130,130,130,130,129,129,130,131,132,132,131,131,130,130,130,129,129,132,129,131,131,131,131,132,131,130,132,132,131,130,132,132,130,132,130,2,1,2,4,3,2,130,132,129,129,130,131,131,132,132,132,131,132,130,130,129,130,132,131,131,131,129,
132,130,132,129,131,130,129,129,130,129,131,129,130,130,129,130,129,130,131,130,129,131,129,129,130,132,131,129,131,130,130,132,132,129,132,4,1,4,4,2,4,3,2,4,1,131,130,129,129,129,131,132,131,132,131,132,132,130,131,129,130,130,132,129,
132,132,132,132,131,131,131,129,130,132,130,131,132,129,130,129,129,130,130,132,130,129,132,129,1,2,4,3,132,130,131,130,129,2,1,2,2,1,2,1,2,3,3,4,4,1,129,132,129,132,132,129,130,131,129,130,131,131,132,131,130,130,129,130,
131,130,129,132,131,131,131,131,131,131,130,131,129,131,131,130,130,130,132,130,130,131,129,2,2,1,1,1,4,130,130,129,130,3,4,2,3,2,1,3,1,2,3,2,2,1,4,130,129,130,129,130,132,131,129,130,131,131,130,132,129,129,132,131,
131,130,129,132,131,129,130,131,130,129,131,129,130,129,130,132,132,130,130,132,129,129,4,1,3,3,2,2,4,3,1,4,1,1,4,3,3,1,4,2,4,4,1,3,1,2,4,1,130,131,131,129,132,132,131,129,131,129,131,132,130,129,129,131,
130,132,129,131,129,130,130,132,132,132,131,131,130,132,132,132,130,132,130,131,129,132,3,3,3,4,2,1,1,2,2,1,1,4,3,3,3,3,1,1,1,3,1,3,3,1,1,3,132,131,132,131,132,132,130,131,130,130,130,129,131,131,130,132,
132,132,132,130,132,129,129,131,132,130,131,132,131,131,131,129,132,129,132,131,129,129,4,3,1,2,3,1,2,3,4,2,1,4,3,1,4,2,1,4,3,4,1,4,2,1,2,1,130,130,132,130,129,131,130,130,131,130,132,130,130,130,131,132,
129,131,130,129,130,130,130,132,129,129,129,129,131,129,131,130,131,129,130,130,130,130,2,4,1,4,4,4,1,1,132,130,3,1,1,3,3,4,1,2,3,1,3,3,4,2,2,4,129,132,129,131,130,129,129,129,130,129,129,130,132,132,131,129,
129,131,132,129,132,130,129,129,130,131,130,131,132,129,132,130,130,130,130,129,130,131,129,2,1,4,1,2,4,132,130,129,3,3,3,2,2,4,2,2,3,1,2,2,2,3,1,1,129,132,132,131,129,129,129,129,132,130,132,129,129,130,129,129,
131,130,132,132,129,129,129,130,130,132,129,132,132,130,131,131,131,129,130,131,132,131,132,132,4,4,2,3,132,130,129,129,132,3,3,1,3,1,2,1,2,3,4,1,4,3,1,132,131,130,132,130,131,131,131,129,131,131,132,132,130,129,131,129,
129,131,129,129,131,129,130,132,130,129,131,132,130,131,131,129,131,131,130,131,129,132,129,131,2,4,4,2,130,130,129,132,130,4,3,2,2,1,3,1,3,1,4,3,2,2,129,129,130,129,130,132,131,131,130,131,131,131,131,131,131,132,129,132,
130,129,129,131,132,132,132,132,129,129,131,129,129,131,132,132,131,132,129,132,131,131,132,131,1,2,4,3,129,132,131,129,131,130,129,1,4,4,4,3,4,1,2,1,3,131,130,132,132,129,131,130,130,130,132,132,132,132,132,131,130,130,129,132,
131,132,129,129,129,132,131,129,132,132,132,131,130,131,130,130,129,129,130,131,131,130,132,130,2,4,4,4,129,132,130,129,129,130,129,132,130,2,3,1,3,1,1,132,131,131,130,130,131,131,129,129,131,129,130,129,132,131,129,129,130,132,131,131,
129,129,132,131,131,129,132,131,130,129,131,131,131,130,132,129,130,131,132,132,132,129,129,130,2,3,2,3,130,132,132,132,132,131,132,132,131,131,129,132,131,129,132,129,130,130,132,129,130,132,130,132,129,131,132,132,132,130,132,131,132,129,130,130,
132,129,130,129,132,132,132,132,132,131,132,132,129,130,132,131,131,132,130,131,131,130,129,131,2,3,3,4,131,130,131,130,131,131,130,129,130,131,132,130,130,132,131,132,129,132,130,132,132,131,129,132,131,130,132,130,132,132,132,130,129,131,132,130,
130,131,131,129,129,130,132,132,132,132,132,131,132,131,132,132,131,130,129,130,129,130,131,129,1,3,3,3,130,130,130,130,130,132,129,132,129,130,132,132,132,130,129,132,132,132,131,132,129,132,132,132,132,129,129,131,131,131,132,131,131,131,130,130,
130,130,129,129,130,132,130,132,131,129,131,131,132,132,130,132,132,131,132,130,130,132,131,131,1,2,4,2,131,130,132,130,130,132,129,132,129,130,131,129,131,129,132,129,131,131,129,132,131,132,131,129,132,129,130,131,131,132,129,129,129,132,131,132,
132,129,131,130,130,131,130,131,131,129,131,132,130,129,129,129,129,131,129,130,132,129,130,129,1,3,1,3,132,129,131,130,129,130,131,131,129,129,132,132,130,130,129,132,130,130,129,131,132,131,130,132,130,129,132,129,132,130,131,129,131,129,132,129,
129,131,130,130,129,130,132,131,129,132,129,129,129,129,129,129,131,131,129,129,129,131,129,132,22,23,23,24,132,130,130,129,130,130,132,130,130,132,131,129,132,130,130,129,132,132,132,129,132,132,129,130,129,131,131,131,130,132,130,130,129,132,132,131,
129,129,129,131,132,129,130,130,132,130,132,130,129,131,130,132,132,129,130,131,153,154,155,156,9,10,11,12,23,23,23,23,24,129,129,130,132,129,129,129,129,129,129,132,132,129,130,131,132,129,131,131,129,130,132,129,129,131,132,132,129,129,130,129,
129,132,131,131,130,130,132,132,130,132,130,129,131,129,129,131,130,132,132,129,153,154,155,156,9,10,11,12,9,10,11,12,40,132,129,131,129,132,130,131,131,131,129,130,129,129,130,130,129,130,132,130,131,130,129,130,130,131,131,130,130,132,132,132,
130,129,129,131,4,4,2,3,130,131,132,130,131,131,132,132,131,132,132,132,153,154,155,156,9,10,11,12,9,10,11,12,40,131,132,132,131,131,131,130,130,130,132,130,131,132,132,132,130,131,132,130,131,131,131,132,130,130,132,131,129,132,129,132,
131,129,129,3,4,3,3,3,4,129,131,129,132,132,132,131,131,131,130,132,153,154,155,156,9,10,11,12,9,10,11,12,40,129,129,131,131,130,129,129,129,131,131,131,129,131,131,132,132,130,131,129,130,132,131,132,129,131,131,129,131,131,131,132,
132,131,2,4,4,1,1,1,3,2,4,1,2,3,4,1,2,3,4,38,9,10,11,12,9,10,11,12,9,10,11,12,9,24,4,2,4,3,3,1,4,4,3,4,1,2,4,129,130,130,132,129,131,129,132,129,129,130,130,130,129,131,130,129,
131,3,2,2,4,4,3,1,2,2,4,1,2,3,4,1,2,3,4,38,9,10,11,12,9,10,11,12,9,10,11,12,9,40,4,2,2,1,3,2,2,1,2,3,3,4,1,4,130,132,131,130,131,129,131,131,129,130,132,129,131,131,132,129,
131,2,2,2,1,2,2,3,4,4,4,1,2,3,4,1,2,3,4,38,9,10,11,12,9,10,11,12,9,10,11,12,9,56,4,2,2,3,1,4,4,3,2,2,1,2,2,4,3,4,132,129,131,129,130,132,130,132,131,130,131,132,130,130,
130,3,3,1,4,2,1,2,1,1,1,1,2,3,4,1,2,3,4,54,9,10,11,12,9,10,11,12,9,10,11,12,9,130,130,132,130,130,132,132,132,129,132,132,131,132,4,2,3,4,130,129,131,129,132,131,132,130,132,129,131,131,130,131,
131,131,4,4,4,4,1,2,3,3,132,129,129,131,131,131,129,130,129,131,38,10,11,12,9,10,11,12,9,10,11,12,9,129,130,132,131,129,132,131,132,132,129,130,131,129,1,4,3,4,1,2,129,132,129,132,132,130,130,130,132,129,131,129,
131,132,131,3,2,4,1,4,2,130,132,130,130,129,131,131,129,130,132,132,38,10,11,12,9,10,11,12,9,10,11,12,9,130,131,130,130,132,132,132,132,129,130,132,1,2,3,2,4,1,2,1,2,4,131,131,129,131,132,132,129,132,130,132,
132,131,132,1,4,3,4,3,129,130,129,129,129,132,131,129,129,132,131,131,54,55,55,12,9,10,11,12,9,10,11,12,56,130,129,131,131,129,132,132,129,129,131,129,4,3,2,3,1,3,4,3,1,1,3,130,129,132,129,129,131,131,129,129,
131,131,132,1,2,3,4,1,130,129,130,130,132,131,130,130,131,130,129,131,130,130,132,129,54,55,55,55,56,131,130,129,132,130,130,130,132,130,129,132,130,132,131,2,2,2,1,2,2,1,2,4,1,4,3,2,132,130,129,132,132,130,132,130,
130,132,131,1,2,3,4,1,132,131,130,129,129,129,132,132,132,130,129,132,132,132,132,132,4,2,1,3,1,130,129,131,132,129,130,130,131,131,130,130,130,130,131,2,4,1,4,3,4,2,2,2,3,1,2,1,129,129,131,131,130,130,130,132,
131,129,129,1,2,3,4,1,129,129,132,129,129,130,132,130,131,132,132,131,131,129,131,132,3,4,4,2,4,131,130,132,132,130,131,129,130,131,131,131,129,132,130,1,3,2,2,4,2,4,2,4,2,4,2,1,132,129,132,130,132,131,129,129,
129,129,130,1,2,3,4,1,131,131,132,129,131,131,131,130,130,129,132,130,131,131,130,129,2,4,4,3,1,132,132,130,129,129,130,131,131,132,129,132,131,129,131,131,4,3,3,3,1,4,1,2,4,2,2,131,130,132,130,130,130,130,129,130,
131,131,130,1,2,3,4,1,131,132,129,131,132,130,132,129,130,130,131,130,131,129,129,130,4,2,2,3,3,131,130,132,129,132,129,129,131,131,131,129,132,130,129,130,3,2,1,2,2,3,3,4,3,2,129,132,132,130,129,129,130,130,130,129,
129,132,129,1,2,3,4,1,130,132,132,130,130,129,129,132,129,132,131,131,131,130,132,131,2,4,1,2,3,130,129,129,130,132,131,130,132,132,132,131,131,130,129,131,131,132,4,3,2,4,1,4,129,132,131,129,132,132,131,131,129,132,129,129,
130,131,130,1,2,3,4,1,132,129,132,131,129,129,130,132,132,131,131,129,130,130,130,132,3,2,2,4,3,130,129,130,132,130,130,132,129,129,132,130,132,130,129,130,130,131,129,131,130,131,132,132,130,129,130,132,129,129,132,129,130,132,131,132,
131,132,131,1,2,3,4,1,129,129,130,130,131,131,129,129,130,132,130,130,132,129,131,131,4,2,4,4,4,131,130,132,131,129,129,129,130,129,129,129,131,132,132,132,131,131,131,132,130,132,130,131,129,131,132,131,129,131,131,131,130,129,130,130,
130,132,131,1,2,3,4,1,132,132,130,130,130,129,130,129,129,132,129,132,130,131,129,129,3,4,3,2,2,131,131,130,132,130,132,132,129,132,129,129,130,129,131,129,132,132,130,131,130,132,130,131,129,132,132,129,131,131,129,130,130,131,129,129,
132,129,129,1,2,3,4,1,132,130,132,132,132,130,132,129,131,131,132,129,130,132,129,131,2,4,3,1,2,131,131,129,132,131,131,129,129,1,3,3,4,130,132,130,131,129,130,132,132,129,129,132,132,129,130,130,132,130,131,129,129,129,131,130,
130,129,131,1,2,3,4,1,129,129,130,131,130,131,131,132,130,129,132,132,130,132,131,130,3,2,1,2,1,131,131,132,129,129,131,3,4,4,3,3,3,2,1,131,130,131,131,131,132,129,129,131,130,130,132,130,132,129,130,132,129,131,131,130,
129,131,130,1,2,3,4,1,129,132,131,130,130,131,132,131,132,129,132,129,130,131,131,130,4,2,1,1,1,129,130,130,131,129,3,4,3,4,1,2,1,1,2,2,131,131,132,131,129,132,129,129,131,131,132,131,132,129,129,132,130,132,132,129,
130,131,131,1,2,3,4,1,130,132,131,130,132,130,132,131,129,131,131,130,130,132,131,131,4,2,2,1,2,132,132,130,130,130,1,3,4,1,2,3,2,1,2,4,131,131,129,130,130,130,131,129,130,129,130,132,131,132,129,130,129,132,131,131,
132,130,132,1,2,3,4,1,129,130,130,132,132,131,132,132,130,131,131,132,131,129,129,131,4,3,2,1,1,2,2,4,2,3,2,4,2,2,4,3,1,4,4,2,1,132,130,130,130,131,129,131,131,129,129,130,130,129,131,130,131,130,131,130,
132,132,131,1,2,3,4,1,132,129,130,130,132,130,131,132,132,129,130,132,131,130,130,132,1,3,2,1,2,1,3,4,3,1,1,1,3,3,4,4,3,4,4,4,4,129,132,129,132,132,131,132,130,132,131,131,129,132,131,132,132,130,132,132,
129,131,129,1,2,3,4,1,130,129,129,130,132,132,130,130,130,131,130,131,132,130,2,3,1,2,1,3,1,2,4,1,2,1,3,4,1,3,4,3,4,1,3,1,3,132,132,132,132,129,130,132,132,131,129,130,129,129,130,130,129,131,130,129,
129,130,130,1,2,3,4,1,129,130,129,130,130,131,129,129,130,131,130,129,130,2,3,4,3,3,1,3,3,3,3,3,3,3,1,2,4,4,1,1,1,1,1,1,1,131,132,129,132,131,130,129,132,131,131,130,130,129,129,132,131,131,129,131,
130,131,130,1,2,3,4,1,130,129,129,132,132,131,132,131,132,130,130,132,132,4,4,2,4,1,4,3,4,3,4,2,2,3,2,3,3,4,3,4,1,3,3,3,1,131,130,130,130,129,132,132,131,131,132,130,129,131,129,130,129,132,130,130,
130,129,130,1,2,3,4,1,129,129,130,132,130,129,131,132,132,130,129,132,132,130,4,4,2,2,130,130,132,130,132,130,131,132,2,4,3,4,2,1,2,4,2,4,129,130,130,131,129,130,132,130,130,131,129,130,131,132,131,131,129,132,132,132,
129,131,130,1,2,3,4,1,130,131,132,132,129,130,131,132,131,131,132,129,132,129,130,131,130,130,129,130,131,131,131,130,129,129,2,2,1,4,2,3,3,1,3,2,130,129,131,130,131,132,130,132,129,131,130,129,129,130,131,132,130,131,130,131,
129,130,130,1,2,1,4,4,4,129,132,132,131,129,131,129,129,130,129,131,129,129,130,129,130,131,131,132,131,129,132,129,132,131,131,1,3,4,4,2,3,3,1,131,130,131,130,130,129,131,130,130,132,131,131,130,129,130,132,132,132,130,130,129,
129,130,132,3,3,2,4,4,3,2,1,129,131,132,129,132,132,131,131,132,132,130,130,129,131,129,131,130,131,130,130,132,132,129,132,131,130,2,3,1,1,130,132,131,130,129,130,129,131,132,129,132,129,132,132,132,129,131,130,129,131,129,132,130,
130,132,1,1,4,3,4,4,3,2,2,3,131,132,132,129,132,129,129,132,132,131,130,131,132,130,129,130,129,129,132,131,131,131,131,130,130,129,130,130,130,132,130,130,130,130,131,131,129,129,129,130,130,129,129,131,131,130,131,129,131,129,130,132,
129,129,2,2,2,3,4,2,1,2,4,4,129,132,132,132,132,129,130,129,132,129,130,131,129,132,132,130,130,130,131,131,131,130,130,132,130,129,130,130,132,129,130,132,131,130,132,130,132,130,132,131,131,131,129,130,130,131,130,132,130,129,129,132,
129,3,1,3,3,2,3,2,2,4,1,1,3,131,132,131,131,129,130,132,131,129,132,132,131,132,131,129,131,131,129,129,129,132,131,131,131,131,131,132,129,129,129,131,130,130,130,131,132,129,132,132,131,129,129,129,129,132,130,131,130,129,129,130,
130,1,4,2,4,2,2,3,3,4,3,2,1,130,129,131,131,131,132,130,130,130,131,130,130,130,129,131,130,130,132,130,130,130,130,129,130,129,129,132,131,132,132,129,129,132,132,131,132,132,130,132,132,131,129,132,132,132,130,130,130,132,130,130,
130,3,2,4,1,1,3,2,3,4,3,3,2,131,129,132,130,132,132,132,132,130,129,130,131,132,129,132,132,130,129,132,130,129,130,131,131,132,132,130,131,129,132,129,132,130,132,131,132,131,131,132,129,132,129,131,131,129,130,132,131,129,131,131,
129,2,1,4,3,2,1,4,1,4,1,4,2,129,129,131,131,130,132,129,132,130,129,132,129,129,130,129,132,132,132,132,132,132,131,129,132,131,131,131,129,132,129,129,132,130,132,132,129,130,129,132,132,132,132,129,131,129,129,131,129,130,132,131,
129,131,2,3,1,3,4,3,3,2,1,4,129,130,129,129,130,130,132,130,132,131,130,129,130,129,132,129,131,129,129,130,129,129,131,131,131,129,131,132,130,129,131,131,131,130,132,132,131,132,131,132,131,131,129,132,130,132,132,132,130,130,129,130,
130,129,4,1,2,3,2,2,1,2,2,1,130,130,131,132,132,132,130,130,131,130,131,132,129,130,130,129,132,129,131,130,129,132,131,130,129,130,129,131,130,129,132,129,131,131,130,130,130,129,129,132,132,131,129,129,130,131,132,132,131,129,131,131,
132,132,131,2,2,1,2,3,3,3,3,132,131,132,130,131,132,130,130,131,131,129,132,131,132,129,131,132,129,129,132,131,132,130,130,131,132,131,130,130,132,131,129,132,131,129,132,129,130,132,129,130,129,132,131,132,131,130,129,130,131,131,129,131,
132,130,132,131,130,3,1,2,1,129,132,132,130,132,129,131,129,131,130,129,131,130,132,130,131,132,130,130,132,132,132,129,132,131,131,129,132,129,130,129,131,129,132,132,132,129,132,130,132,132,129,132,129,132,132,129,132,131,129,131,131,129,129,130,
132,130,129,130,131,130,129,131,131,132,132,129,129,129,131,131,131,129,130,132,132,131,132,132,131,130,131,130,129,131,129,132,132,129,130,132,131,131,130,131,130,129,131,130,129,131,132,130,130,129,131,132,130,130,130,131,132,132,132,130,131,129,131,132
</data>
 </layer>
 <objectgroup id="2" name="Units/Buildings">
  <object id="160" template="../../units/C_Soldier.tx" x="608" y="752"/>
  <object id="161" template="../../units/C_Soldier.tx" x="624" y="736"/>
  <object id="162" template="../../units/C_Soldier.tx" x="752" y="544"/>
  <object id="163" template="../../units/C_Soldier.tx" x="784" y="512"/>
  <object id="164" template="../../units/C_Soldier.tx" x="592" y="96"/>
  <object id="165" template="../../units/C_Soldier.tx" x="80" y="912"/>
  <object id="166" template="../../units/C_Soldier.tx" x="128" y="880"/>
  <object id="167" template="../../units/C_Soldier.tx" x="144" y="944"/>
  <object id="168" template="../../buildings/P_City_Hall.tx" x="400" y="416"/>
  <object id="169" template="../../units/P_Worker.tx" x="336" y="416"/>
  <object id="170" template="../../units/P_Worker.tx" x="352" y="416"/>
  <object id="171" template="../../units/P_Worker.tx" x="368" y="416"/>
  <object id="172" template="../../units/P_Worker.tx" x="352" y="432"/>
 </objectgroup>
</map>
