<?xml version="1.0" encoding="UTF-8"?>
<map version="1.10" tiledversion="1.12.1" orientation="orthogonal" renderorder="right-down" width="64" height="64" tilewidth="16" tileheight="16" infinite="0" nextlayerid="5" nextobjectid="180">
 <editorsettings>
  <export target="../../../../assets/map/initial/init2.fgm" format="Future Glimpses map (*.fgm)"/>
 </editorsettings>
 <properties>
  <property name="AI_MODE" type="int" propertytype="AI_MODE" value="0"/>
  <property name="ENABLE_BARRACKS" type="bool" value="true"/>
  <property name="ENABLE_BLACKSMITH" type="bool" value="true"/>
  <property name="ENABLE_FARM" type="bool" value="true"/>
  <property name="ENABLE_STABLES" type="bool" value="false"/>
  <property name="ENABLE_TOWER" type="bool" value="false"/>
  <property name="ENABLE_TURRET" type="bool" value="false"/>
  <property name="ENABLE_UPGRADE_ARCHER" type="bool" value="false"/>
  <property name="ENABLE_UPGRADE_KNIGHT" type="bool" value="false"/>
  <property name="ENABLE_UPGRADE_MAGE" type="bool" value="false"/>
  <property name="ENABLE_UPGRADE_SOLDIER" type="bool" value="false"/>
  <property name="MAP_CODE" value="L8PTRRHT"/>
  <property name="MSG_DESCRIPTION" value="Crea una herrería y unos cuantos arqueros y acaba con los arqueros enemigos apostados en los torreones."/>
  <property name="MSG_LOSE" value="No has logrado recuperar tu imperio..."/>
  <property name="MSG_TITLE" value="2.Arqueros"/>
  <property name="MSG_WIN" value="Ya dominas a tus arqueros."/>
  <property name="PEACE_TIME" type="int" value="0"/>
  <property name="RES_GOLD_COMPUTER" type="int" value="0"/>
  <property name="RES_GOLD_PLAYER" type="int" value="1000"/>
  <property name="RES_WOOD_COMPUTER" type="int" value="0"/>
  <property name="RES_WOOD_PLAYER" type="int" value="500"/>
  <property name="UPGRADED_ARCHER_COMPUTER" type="bool" value="false"/>
  <property name="UPGRADED_ARCHER_PLAYER" type="bool" value="false"/>
  <property name="UPGRADED_KNIGHT_COMPUTER" type="bool" value="false"/>
  <property name="UPGRADED_KNIGHT_PLAYER" type="bool" value="false"/>
  <property name="UPGRADED_MAGE_COMPUTER" type="bool" value="false"/>
  <property name="UPGRADED_MAGE_PLAYER" type="bool" value="false"/>
  <property name="UPGRADED_SOLDIER_COMPUTER" type="bool" value="false"/>
  <property name="UPGRADED_SOLDIER_PLAYER" type="bool" value="false"/>
  <property name="WIN_CODE" value="P3C2DCEJ"/>
 </properties>
 <tileset firstgid="1" source="../../tileset.tsx"/>
 <tileset firstgid="257" source="../../units/units.tsx"/>
 <tileset firstgid="267" source="../../buildings/big_buildings.tsx"/>
 <tileset firstgid="273" source="../../buildings/small_buildings.tsx"/>
 <layer id="1" name="Map" width="64" height="64">
  <data encoding="csv">
129,130,131,132,129,130,131,132,129,130,131,132,129,130,193,194,193,194,193,194,193,194,193,194,193,194,193,194,193,194,193,194,193,194,193,194,193,194,193,194,193,194,193,194,193,130,131,129,129,130,131,132,129,130,130,132,129,130,131,132,129,130,131,132,
129,130,131,132,129,130,131,132,129,130,131,132,129,130,209,210,209,210,209,210,209,210,209,210,209,210,209,210,209,210,209,210,209,210,209,210,209,210,209,210,209,210,209,210,209,130,131,129,129,130,131,132,129,130,130,132,129,130,131,132,129,130,131,132,
129,130,131,132,129,130,131,132,129,130,131,132,129,130,193,194,193,194,193,194,193,194,193,194,193,194,193,194,193,194,193,194,193,194,193,194,193,194,193,194,193,194,193,194,193,130,131,129,129,130,131,132,129,130,130,132,129,130,131,132,129,130,131,132,
129,130,131,132,129,130,131,132,129,130,131,132,129,130,209,210,209,210,209,210,209,210,209,210,209,210,209,210,209,210,209,210,209,210,209,210,209,210,209,210,209,210,209,210,209,131,132,129,129,130,131,132,129,130,130,132,129,130,131,132,129,130,131,132,
129,130,131,132,129,130,131,132,129,130,131,132,129,130,193,194,193,194,193,194,193,194,193,194,193,194,193,194,193,194,193,194,193,194,193,194,193,194,193,194,193,194,193,194,193,131,132,129,129,130,131,132,129,130,130,132,129,130,131,132,129,130,131,132,
129,130,131,132,129,130,131,132,129,130,131,132,129,130,209,210,209,210,209,210,209,210,209,210,209,210,209,210,209,210,209,210,209,210,209,210,209,210,209,210,209,210,209,210,209,131,132,129,129,130,131,132,129,130,130,132,129,130,131,132,129,130,131,132,
129,130,131,132,129,130,131,132,129,130,131,132,129,130,193,2,193,194,193,194,2,194,193,194,193,194,193,2,193,194,193,194,2,194,193,194,193,2,193,194,193,194,2,194,193,131,132,129,129,130,131,132,129,130,130,132,129,130,131,132,129,130,131,132,
129,130,131,132,129,130,131,132,129,130,131,132,129,130,209,1,209,210,209,210,1,210,209,210,209,210,209,1,209,210,209,210,1,210,209,210,209,1,209,210,209,210,1,210,209,131,132,129,129,130,131,132,129,130,130,132,129,130,131,132,129,130,131,132,
129,130,131,132,129,130,131,132,129,130,131,132,129,130,212,212,212,212,212,212,212,212,212,212,212,212,212,212,212,212,212,212,212,212,212,212,212,212,212,212,212,212,212,212,212,131,132,129,129,130,131,132,129,130,130,132,129,130,131,132,129,130,131,132,
129,130,131,132,129,130,131,132,129,130,131,132,129,130,1,2,129,130,131,1,2,130,131,132,1,2,3,4,132,132,132,132,1,132,132,132,132,1,132,132,132,132,2,129,130,131,132,129,129,130,131,132,129,130,130,132,129,130,131,132,129,130,131,132,
129,130,131,132,129,130,131,132,129,130,131,132,129,130,1,2,129,130,131,1,2,130,131,132,1,2,132,132,132,132,132,132,1,132,132,132,132,1,132,132,132,132,2,129,130,131,132,129,129,130,131,132,129,130,130,132,129,130,131,132,129,130,131,132,
129,130,131,132,129,130,131,132,129,130,131,132,129,130,1,2,129,130,131,1,2,130,131,132,1,2,132,132,132,132,132,132,2,132,132,132,132,1,132,132,132,132,2,129,130,131,131,129,129,130,131,132,129,130,130,132,129,130,131,132,129,130,131,132,
129,130,131,132,129,130,131,132,129,130,131,132,129,130,1,2,129,130,131,1,2,130,131,132,1,2,132,132,132,132,132,132,2,132,132,132,132,2,132,132,132,132,2,129,130,131,131,129,129,130,131,132,129,130,130,132,129,130,131,132,129,130,131,132,
129,130,131,132,129,130,131,132,129,130,131,132,129,130,1,2,129,130,131,2,1,130,131,4,1,2,2,2,2,2,2,2,2,132,132,132,132,2,132,132,132,130,2,129,130,131,131,129,129,130,131,3,129,130,130,132,129,130,131,132,129,130,131,132,
129,130,131,132,129,130,131,132,129,130,131,132,129,130,1,2,129,130,131,2,1,130,131,4,1,2,132,132,132,132,132,132,129,130,131,132,129,2,131,132,129,130,2,129,130,131,131,129,129,130,4,1,4,130,130,132,129,130,131,132,129,130,131,132,
129,130,131,132,129,130,131,132,129,130,131,132,129,130,1,2,129,130,131,132,1,130,131,132,1,2,132,132,132,132,132,132,129,130,131,132,129,2,131,132,129,130,2,2,2,2,2,2,2,2,2,1,129,130,130,132,129,130,131,132,129,130,131,132,
129,130,131,132,129,130,131,132,129,130,131,132,129,130,1,2,129,130,131,132,1,130,131,132,1,2,3,4,129,130,131,132,129,130,131,132,129,2,131,132,129,130,2,2,2,2,2,2,2,2,2,2,129,130,130,132,129,130,131,132,129,130,131,132,
129,130,131,132,129,130,131,132,129,130,131,132,129,130,1,2,129,130,131,2,1,130,131,132,1,2,3,4,129,130,131,132,129,130,131,132,129,2,131,132,129,130,131,132,129,130,131,132,2,4,2,2,129,130,130,132,129,130,131,132,129,130,131,132,
129,130,131,132,129,130,131,132,129,130,131,132,129,130,1,2,1,2,1,2,195,195,195,195,1,2,3,4,195,195,195,195,195,195,131,132,129,2,131,132,129,130,131,132,129,130,131,3,1,2,1,2,129,130,130,132,129,130,131,132,129,130,131,132,
129,130,131,132,129,130,131,132,129,130,131,132,129,130,1,2,129,130,131,195,196,196,196,196,22,23,23,24,196,196,196,196,196,195,131,132,129,3,131,132,129,130,131,132,129,130,131,2,3,1,1,2,129,130,130,132,129,130,131,132,129,130,131,132,
129,130,131,132,129,130,131,132,129,130,131,132,129,130,1,2,129,130,131,195,22,23,23,23,9,10,11,12,23,23,23,23,24,195,131,132,3,3,4,2,2,2,2,2,2,2,2,2,4,3,2,2,129,130,130,132,129,130,131,132,129,130,131,132,
129,130,131,132,129,130,131,132,129,130,131,132,129,130,1,2,129,130,131,195,38,153,154,11,9,10,11,12,9,10,153,154,40,195,131,132,129,3,2,2,2,2,2,2,2,2,2,2,2,2,2,2,129,130,130,132,129,130,131,132,129,130,131,132,
129,130,131,132,129,130,131,132,129,130,131,132,129,130,2,2,129,130,131,195,38,153,154,11,9,10,11,12,9,10,153,154,40,195,131,132,129,130,131,132,129,130,131,132,129,130,131,132,129,130,2,2,129,130,130,132,129,130,131,132,129,130,131,132,
130,131,132,129,130,130,131,132,129,130,130,131,132,129,2,2,131,132,129,195,38,10,11,12,9,10,11,12,9,10,11,12,40,196,131,132,129,130,131,132,129,130,131,132,129,130,131,132,129,130,2,2,129,130,130,132,129,130,131,132,129,130,131,132,
130,131,132,129,130,130,131,132,129,130,130,131,132,129,2,2,131,132,129,195,38,10,11,12,9,10,11,12,9,10,11,12,9,24,2,3,4,1,2,3,4,1,2,3,4,1,2,132,129,130,2,2,129,130,130,132,129,130,131,132,129,130,131,132,
130,131,132,129,130,130,131,132,129,130,130,131,132,129,2,4,131,132,129,195,38,10,11,12,9,10,11,12,9,10,11,12,9,40,2,3,4,1,2,3,4,1,2,3,4,1,1,2,129,130,2,2,129,130,130,132,129,130,131,132,129,130,131,132,
130,131,132,129,130,130,131,132,129,130,130,131,132,3,2,3,4,132,129,196,38,10,11,12,9,10,11,12,9,10,11,12,55,56,2,3,4,1,2,3,4,1,2,3,4,1,1,2,3,4,2,2,129,130,130,132,129,130,131,132,129,130,131,132,
130,131,132,129,130,130,131,132,129,130,130,131,132,4,4,2,4,2,2,2,38,10,11,12,9,10,11,12,9,10,11,40,195,200,130,132,129,130,130,132,129,130,130,132,129,130,1,2,3,4,2,2,129,130,130,132,129,130,131,132,129,130,131,132,
130,131,132,129,130,130,131,132,129,130,130,131,132,1,2,3,4,2,2,2,38,10,11,12,9,9,10,11,12,153,154,40,200,200,130,132,129,130,130,132,129,130,130,132,129,1,3,4,3,4,1,1,4,130,130,132,129,130,131,132,129,130,131,132,
130,131,132,129,130,130,131,132,129,130,130,131,132,129,1,1,131,132,129,196,38,10,11,12,9,9,10,11,12,153,154,40,200,195,130,132,129,130,130,132,129,130,130,131,132,129,4,131,132,129,2,2,3,129,130,132,129,130,131,132,129,130,131,132,
130,131,132,129,130,130,131,132,129,130,130,131,132,129,130,130,131,132,129,130,38,10,11,12,9,9,10,11,9,9,9,40,196,196,130,132,129,130,130,132,129,130,130,131,132,129,130,131,132,129,130,131,132,129,130,132,129,130,131,132,129,130,131,132,
130,131,132,129,130,130,131,132,129,130,130,131,132,129,130,130,131,132,129,130,54,55,55,55,9,9,10,11,9,55,55,55,42,130,130,132,129,130,130,132,129,130,130,131,132,129,130,131,132,129,130,131,132,129,130,132,129,130,131,132,129,130,131,132,
130,131,132,129,130,130,131,132,129,130,130,131,132,129,130,130,131,132,129,130,129,129,130,131,54,55,55,55,56,129,130,131,132,129,130,131,132,129,130,131,132,129,130,131,132,129,130,131,132,129,130,131,132,129,130,132,129,130,131,132,129,130,131,132,
130,131,132,129,130,130,131,132,129,130,130,131,132,129,130,130,131,132,129,130,129,129,130,131,132,129,130,131,132,129,130,131,132,129,130,131,132,129,130,131,132,129,130,131,132,129,130,131,132,129,130,131,132,129,130,132,129,130,131,132,129,130,131,132,
130,131,132,129,130,130,131,132,129,130,130,131,132,129,130,130,131,132,129,130,129,129,130,131,132,129,130,131,132,129,130,131,132,129,130,131,132,129,130,131,132,129,130,131,132,129,130,131,132,129,130,131,132,129,130,132,129,130,131,132,129,130,131,132,
130,131,132,129,130,130,131,132,129,130,130,131,132,129,130,130,131,132,129,130,129,129,130,131,132,129,130,131,132,129,130,131,132,129,130,131,132,129,130,131,132,129,130,131,132,129,130,131,132,129,130,131,132,129,130,132,129,130,131,132,129,130,131,132,
130,131,132,129,130,130,131,132,129,130,130,131,132,129,130,130,131,132,129,130,129,129,130,131,132,129,130,131,132,129,130,131,132,129,130,131,132,129,130,131,132,129,130,131,132,129,130,131,132,129,130,131,132,129,130,132,129,130,131,132,129,130,131,132,
130,131,132,129,130,130,131,132,129,130,130,131,132,129,130,130,131,132,129,130,129,129,130,131,132,129,130,131,132,129,130,131,132,129,130,131,132,129,130,131,132,129,130,131,132,129,130,132,129,130,130,132,129,130,130,132,129,130,131,132,129,130,131,132,
130,131,132,129,130,130,131,132,129,130,130,131,132,129,130,130,131,132,129,130,129,129,130,131,132,129,130,131,132,129,130,131,132,129,130,131,132,129,130,131,132,129,130,131,132,129,130,132,129,130,130,132,129,130,130,132,129,130,131,132,129,130,131,132,
130,131,132,129,130,130,131,132,129,130,130,131,132,129,130,130,131,132,129,130,129,129,130,131,132,129,130,131,132,129,130,131,132,129,130,131,132,129,130,131,132,129,130,131,132,129,130,132,129,130,130,132,129,130,130,132,129,130,131,132,129,130,131,132,
130,131,132,129,130,130,131,132,129,130,130,131,132,129,130,130,131,132,129,130,129,129,130,131,132,129,130,131,132,129,130,131,132,129,130,131,132,129,130,131,132,129,130,131,132,129,130,132,129,130,130,132,129,130,130,132,129,130,131,132,129,130,131,132,
130,131,132,129,130,130,131,132,129,130,130,131,132,129,130,130,131,132,129,130,129,129,130,131,132,129,130,131,132,129,130,131,132,129,130,131,132,129,130,131,132,129,130,131,132,129,130,132,129,130,130,132,129,130,130,132,129,130,131,132,129,130,131,132,
130,131,132,129,130,130,131,132,129,130,130,131,132,129,130,130,131,132,129,130,129,129,130,131,132,129,130,131,132,129,130,131,132,129,130,131,132,129,130,131,132,129,130,131,132,129,130,132,129,130,130,132,129,130,130,132,129,130,131,132,129,130,131,132,
130,131,132,129,130,130,131,132,129,130,130,131,132,129,130,130,131,132,129,130,129,129,130,131,132,129,130,131,132,129,130,131,132,129,130,131,132,129,130,131,132,129,130,131,132,129,130,132,129,130,130,132,129,130,130,132,129,130,131,132,129,130,131,132,
130,131,132,129,130,130,131,132,129,130,130,131,132,129,130,130,131,132,129,130,129,129,130,131,132,129,130,131,132,129,130,131,132,129,130,131,132,129,130,131,132,129,130,131,132,129,130,132,129,130,130,132,129,130,130,132,129,130,131,132,129,130,131,132,
130,131,132,129,130,130,131,132,129,130,130,131,132,129,130,130,131,132,129,130,129,129,130,131,132,129,130,131,132,129,130,131,132,129,130,131,132,129,130,131,132,129,130,131,132,129,130,132,129,130,130,132,129,130,130,132,129,130,131,132,129,130,131,132,
130,131,132,129,130,130,131,132,129,130,130,131,132,129,130,130,131,132,129,130,129,129,130,131,132,129,130,131,132,129,130,131,132,129,130,131,132,129,130,131,132,129,130,131,132,129,130,132,129,130,130,132,129,130,130,132,129,130,131,132,129,130,131,132,
130,131,132,129,130,130,131,132,129,130,130,131,132,129,130,130,131,132,129,130,129,129,130,131,132,129,130,131,132,129,130,131,132,129,130,131,132,129,130,131,132,129,130,131,132,129,130,132,129,130,130,132,129,130,130,132,129,130,131,132,129,130,131,132,
130,131,132,129,130,130,131,132,129,130,130,131,132,129,130,130,131,132,129,130,129,129,130,131,132,129,130,131,132,129,130,131,132,129,130,131,132,129,130,131,132,129,130,131,132,129,130,132,129,130,130,132,129,130,130,132,129,130,131,132,129,130,131,132,
130,131,132,129,130,130,131,132,129,130,130,131,132,129,130,130,131,132,129,130,129,129,130,131,132,129,130,131,132,129,130,131,132,129,130,131,132,129,130,131,132,129,130,131,132,129,130,132,129,130,130,132,129,130,130,132,129,130,131,132,129,130,131,132,
130,131,132,129,130,130,131,132,129,130,130,131,132,129,130,130,131,132,129,130,129,129,130,131,132,129,130,131,132,129,130,131,132,129,130,131,132,129,130,131,132,129,130,131,132,129,130,132,129,130,130,132,129,130,130,132,129,130,131,132,129,130,131,132,
130,131,132,129,130,130,131,132,129,130,130,131,132,129,130,130,131,132,129,130,129,129,130,131,132,129,130,131,132,129,130,131,132,129,130,131,132,129,130,131,132,129,130,131,132,129,130,132,129,130,130,132,129,130,130,132,129,130,131,132,129,130,131,132,
130,131,132,129,130,130,131,132,129,130,130,131,132,129,130,130,131,132,129,130,129,129,130,131,132,129,130,131,132,129,130,131,132,129,130,131,132,129,130,131,132,129,130,131,132,129,130,132,129,130,130,132,129,130,130,132,129,130,131,132,129,130,131,132,
130,131,132,129,130,130,131,132,129,130,130,131,132,129,130,130,131,132,129,130,129,129,130,131,132,129,130,131,132,129,130,131,132,129,130,131,132,129,130,131,132,129,130,131,132,129,130,132,129,130,130,132,129,130,130,132,129,130,131,132,129,130,131,132,
130,131,132,129,130,130,131,132,129,130,130,131,132,129,130,130,131,132,129,130,129,130,130,132,129,130,130,132,129,130,130,132,129,130,130,132,129,130,130,132,129,130,130,132,129,130,130,132,129,130,130,132,129,130,130,132,129,130,131,132,129,130,131,132,
130,131,132,129,130,130,131,132,129,130,130,131,132,129,130,130,131,132,129,130,129,130,130,132,129,130,130,132,129,130,130,132,129,130,130,132,129,130,130,132,129,130,130,132,129,130,130,132,129,130,130,132,129,130,130,132,129,130,131,132,129,130,131,132,
130,131,132,129,130,130,131,132,129,130,130,131,132,129,130,130,131,132,129,130,129,130,130,132,129,130,130,132,129,130,130,132,129,130,130,132,129,130,130,132,129,130,130,132,129,130,130,132,129,130,130,132,129,130,130,132,129,130,131,132,129,130,131,132,
130,131,132,129,130,130,131,132,129,130,130,131,132,129,130,130,131,132,129,130,129,130,130,132,129,130,130,132,129,130,130,132,129,130,130,132,129,130,130,132,129,130,130,132,129,130,130,132,129,130,130,132,129,130,130,132,129,130,131,132,129,130,131,132,
130,131,132,129,130,130,131,132,129,130,130,131,132,129,130,130,131,132,129,130,129,130,130,132,129,130,130,132,129,130,130,132,129,130,130,132,129,130,130,132,129,130,130,132,129,130,130,132,129,130,130,132,129,130,130,132,129,130,131,132,129,130,131,132,
130,131,132,129,130,130,131,132,129,130,130,131,132,129,130,130,131,132,129,130,129,130,130,132,129,130,130,132,129,130,130,132,129,130,130,132,129,130,130,132,129,130,130,132,129,130,130,132,129,130,130,132,129,130,130,132,129,130,131,132,129,130,131,132,
130,131,132,129,130,130,131,132,129,130,130,131,132,129,130,130,131,132,129,130,129,130,130,132,129,130,130,132,129,130,130,132,129,130,130,132,129,130,130,132,129,130,130,132,129,130,130,132,129,130,130,132,129,130,130,132,129,130,131,132,129,130,131,132,
130,131,132,129,130,130,131,132,129,130,130,131,132,129,130,130,131,132,129,130,129,130,130,132,129,130,130,132,129,130,130,132,129,130,130,132,129,130,130,132,129,130,130,132,129,130,130,132,129,130,130,132,129,130,130,132,129,130,131,132,129,130,131,132,
130,131,132,129,130,130,131,132,129,130,130,131,132,129,130,130,131,132,129,130,129,130,130,132,129,130,130,132,129,130,130,132,129,130,130,132,129,130,130,132,129,130,130,132,129,130,130,132,129,130,130,132,129,130,130,132,129,130,131,132,129,130,131,132,
129,130,131,132,129,130,131,132,129,130,131,132,129,130,131,132,129,130,131,132,129,130,130,132,129,130,130,132,129,130,130,132,129,130,130,132,129,130,130,132,129,130,130,132,129,130,130,132,129,130,130,132,129,130,130,132,129,130,131,132,129,130,131,132
</data>
 </layer>
 <objectgroup id="2" name="Units/Buildings">
  <object id="168" template="../../buildings/P_City_Hall.tx" x="400" y="416"/>
  <object id="169" template="../../units/P_Worker.tx" x="336" y="416"/>
  <object id="170" template="../../units/P_Worker.tx" x="352" y="416"/>
  <object id="171" template="../../units/P_Worker.tx" x="368" y="416"/>
  <object id="172" template="../../units/P_Worker.tx" x="352" y="432"/>
  <object id="174" template="../../units/C_Archer.tx" x="240" y="112"/>
  <object id="175" template="../../units/C_Archer.tx" x="320" y="112"/>
  <object id="176" template="../../units/C_Archer.tx" x="432" y="112"/>
  <object id="177" template="../../units/C_Archer.tx" x="512" y="112"/>
  <object id="178" template="../../units/C_Archer.tx" x="592" y="112"/>
  <object id="179" template="../../units/C_Archer.tx" x="672" y="112"/>
 </objectgroup>
</map>
