<?xml version="1.0" encoding="UTF-8"?>
<map version="1.10" tiledversion="1.12.1" orientation="orthogonal" renderorder="right-down" width="64" height="64" tilewidth="16" tileheight="16" infinite="0" nextlayerid="5" nextobjectid="390">
 <editorsettings>
  <export target="../../../../assets/map/mgames/mgames1.fgm" format="Future Glimpses map (*.fgm)"/>
 </editorsettings>
 <properties>
  <property name="AI_MODE" type="int" propertytype="AI_MODE" value="2"/>
  <property name="ENABLE_BARRACKS" type="bool" value="false"/>
  <property name="ENABLE_BLACKSMITH" type="bool" value="false"/>
  <property name="ENABLE_FARM" type="bool" value="false"/>
  <property name="ENABLE_STABLES" type="bool" value="false"/>
  <property name="ENABLE_TOWER" type="bool" value="false"/>
  <property name="ENABLE_TURRET" type="bool" value="false"/>
  <property name="ENABLE_UPGRADE_ARCHER" type="bool" value="false"/>
  <property name="ENABLE_UPGRADE_KNIGHT" type="bool" value="false"/>
  <property name="ENABLE_UPGRADE_MAGE" type="bool" value="false"/>
  <property name="ENABLE_UPGRADE_SOLDIER" type="bool" value="false"/>
  <property name="MAP_CODE" value=""/>
  <property name="MSG_DESCRIPTION" value="¡Batalla a gran escala! Intenta guiar a tus tropas mientras pelean por todos lados."/>
  <property name="MSG_LOSE" value="Perdiste la gran batalla..."/>
  <property name="MSG_TITLE" value="1.Gran batalla"/>
  <property name="MSG_WIN" value="Eres el campeón de la gran batalla."/>
  <property name="PEACE_TIME" type="int" value="0"/>
  <property name="RES_GOLD_COMPUTER" type="int" value="0"/>
  <property name="RES_GOLD_PLAYER" type="int" value="0"/>
  <property name="RES_WOOD_COMPUTER" type="int" value="0"/>
  <property name="RES_WOOD_PLAYER" type="int" value="0"/>
  <property name="UPGRADED_ARCHER_COMPUTER" type="bool" value="false"/>
  <property name="UPGRADED_ARCHER_PLAYER" type="bool" value="false"/>
  <property name="UPGRADED_KNIGHT_COMPUTER" type="bool" value="false"/>
  <property name="UPGRADED_KNIGHT_PLAYER" type="bool" value="false"/>
  <property name="UPGRADED_MAGE_COMPUTER" type="bool" value="false"/>
  <property name="UPGRADED_MAGE_PLAYER" type="bool" value="false"/>
  <property name="UPGRADED_SOLDIER_COMPUTER" type="bool" value="false"/>
  <property name="UPGRADED_SOLDIER_PLAYER" type="bool" value="false"/>
  <property name="WIN_CODE" value=""/>
 </properties>
 <tileset firstgid="1" source="../../tileset.tsx"/>
 <tileset firstgid="257" source="../../units/units.tsx"/>
 <tileset firstgid="267" source="../../buildings/big_buildings.tsx"/>
 <tileset firstgid="273" source="../../buildings/small_buildings.tsx"/>
 <layer id="1" name="Map" width="64" height="64">
  <data encoding="csv">
138,139,140,137,138,139,140,137,138,139,140,137,138,139,140,137,138,139,140,137,138,139,140,137,138,139,140,137,138,139,140,137,138,139,140,137,138,139,140,137,138,139,140,137,138,139,140,137,138,139,140,137,138,139,140,137,138,139,140,137,138,139,140,137,
138,139,140,137,138,139,140,137,138,139,140,137,138,139,140,137,138,139,140,137,138,139,140,137,138,139,140,137,138,139,140,137,138,139,140,137,138,139,140,137,138,139,140,137,138,139,140,137,138,139,140,137,138,139,140,137,138,139,140,137,138,139,140,137,
138,139,140,137,138,139,140,137,138,139,140,137,138,139,140,137,138,139,140,137,138,139,140,137,138,139,140,137,138,139,140,137,138,139,140,137,138,139,140,137,138,139,140,137,138,139,140,137,138,139,140,137,138,139,140,137,138,139,140,137,138,139,140,137,
138,139,140,137,138,139,140,137,138,139,140,137,138,139,140,137,138,139,140,137,138,139,140,137,138,139,140,137,138,139,140,137,138,139,140,137,138,139,140,137,138,139,140,137,138,139,140,137,138,139,140,137,138,139,140,137,138,139,140,137,138,139,140,137,
138,139,140,137,138,139,140,137,138,139,140,137,138,139,140,137,138,139,140,137,138,139,140,137,138,139,140,137,138,139,140,137,138,139,140,137,138,139,140,137,138,139,140,137,138,139,140,137,138,139,140,137,138,139,140,137,138,139,140,137,138,139,140,137,
138,139,140,137,138,139,140,137,138,139,140,137,138,139,140,137,138,139,140,137,138,139,140,137,138,139,140,137,138,139,140,137,138,139,140,137,138,139,140,137,138,139,140,137,138,139,140,137,138,139,140,137,138,139,140,137,138,139,140,137,138,139,140,137,
138,139,140,137,138,139,140,137,138,139,140,137,138,139,140,137,138,139,140,137,138,139,140,137,138,139,140,137,138,139,140,137,138,139,140,137,138,139,140,137,138,139,140,137,138,139,140,137,138,139,140,137,138,139,140,137,138,139,140,137,138,139,140,137,
138,139,140,137,138,139,140,137,138,139,140,137,138,139,140,137,138,139,140,137,138,139,140,137,138,139,140,137,138,139,140,137,138,139,140,137,138,139,140,137,138,139,140,137,138,139,140,137,138,139,140,137,138,139,140,137,138,139,140,137,138,139,140,137,
138,139,140,137,138,139,140,137,138,139,140,137,138,139,140,137,138,139,140,137,138,139,140,137,138,139,140,137,138,139,140,137,138,139,140,137,138,139,140,137,138,139,140,137,138,139,140,137,138,139,140,137,138,139,140,137,138,139,140,137,138,139,140,137,
138,139,140,137,138,139,140,137,138,139,140,137,138,139,140,137,138,139,140,137,138,139,140,137,138,139,140,137,138,139,140,137,138,139,140,137,138,139,140,137,138,139,140,137,138,139,140,137,138,139,140,137,138,139,140,137,138,139,140,137,138,139,140,137,
138,139,140,137,138,139,140,137,138,139,140,137,138,139,140,137,138,139,140,137,138,139,140,137,138,139,140,137,138,139,140,137,138,139,140,137,138,139,140,137,138,139,140,137,138,139,140,137,138,139,140,137,138,139,140,137,138,139,140,137,138,139,140,137,
138,139,140,137,138,139,140,137,138,139,140,137,138,139,140,137,138,139,140,137,138,139,140,137,138,139,140,137,138,139,140,137,138,139,140,137,138,139,140,137,138,139,140,137,138,139,140,137,138,139,140,137,138,139,140,137,138,139,140,137,138,139,140,137,
138,139,140,137,138,139,140,137,138,139,140,137,138,139,140,137,138,139,140,137,138,139,140,137,138,139,140,137,138,139,140,137,138,139,140,137,138,139,140,137,138,139,140,137,138,139,140,137,138,139,140,137,138,139,140,137,138,139,140,137,138,139,140,137,
138,139,140,137,138,139,140,137,138,139,140,137,138,139,140,137,138,139,140,137,138,139,140,137,138,139,140,137,138,139,140,137,138,139,140,137,138,139,140,137,138,139,140,137,138,139,140,137,138,139,140,137,138,139,140,137,138,139,140,137,138,139,140,137,
138,139,140,137,138,139,140,137,138,139,140,137,138,139,140,137,138,139,140,137,138,139,140,137,138,139,140,137,138,139,140,137,138,139,140,137,138,139,140,137,138,139,140,137,138,139,140,137,138,139,140,137,138,139,140,137,138,139,140,137,138,139,140,137,
138,139,140,137,138,139,140,137,138,139,140,137,138,139,140,137,138,139,140,137,138,139,140,137,138,139,140,137,12,9,10,11,12,9,10,11,138,139,140,137,138,139,140,137,138,139,140,137,138,139,140,137,138,139,140,137,138,139,140,137,138,139,140,137,
138,139,140,137,138,139,140,137,138,139,140,137,138,139,140,137,138,139,140,137,138,139,140,137,138,139,10,11,12,9,10,11,12,9,10,11,12,9,140,137,138,139,140,137,138,139,140,137,138,139,140,137,138,139,140,137,138,139,140,137,138,139,140,137,
138,139,140,137,138,139,140,137,138,139,140,137,138,139,140,137,138,139,140,137,138,139,140,137,12,9,10,11,12,9,10,11,12,9,10,11,12,9,10,11,138,139,140,137,138,139,140,137,138,139,140,137,138,139,140,137,138,139,140,137,138,139,140,137,
138,139,140,137,138,139,140,137,138,139,140,137,138,139,140,137,138,139,140,137,138,139,140,11,12,9,10,11,12,9,10,11,12,9,10,11,12,9,10,11,12,139,140,137,138,139,140,137,138,139,140,137,138,139,140,137,138,139,140,137,138,139,140,137,
138,139,140,137,138,139,140,137,138,139,140,137,138,139,140,137,138,139,140,137,138,139,10,11,12,9,10,11,12,9,10,11,12,9,10,11,12,9,10,11,12,9,140,137,138,139,140,137,138,139,140,137,138,139,140,137,138,139,140,137,138,139,140,137,
138,139,140,137,138,139,140,137,138,139,140,137,138,139,140,137,138,139,140,137,138,9,10,11,12,9,10,11,12,9,10,11,12,9,10,11,12,9,10,11,12,9,10,137,138,139,140,137,138,139,140,137,138,139,140,137,138,139,140,137,138,139,140,137,
138,139,140,137,138,139,140,137,138,139,140,137,138,139,140,137,138,139,140,137,12,9,10,11,12,9,10,11,12,9,10,11,12,9,10,11,12,9,10,11,12,9,10,11,138,139,140,137,138,139,140,137,138,139,140,137,138,139,140,137,138,139,140,137,
138,139,140,137,138,139,140,137,138,139,140,137,138,139,140,137,138,139,140,11,12,9,10,11,12,9,10,11,12,9,10,11,12,9,10,11,12,9,10,11,12,9,10,11,12,139,140,137,138,139,140,137,138,139,140,137,138,139,140,137,138,139,140,137,
138,139,140,137,138,139,140,137,138,139,140,137,138,139,140,137,138,139,140,11,12,9,10,11,12,9,10,11,12,9,10,11,12,9,10,11,12,9,10,11,12,9,10,11,12,139,140,137,138,139,140,137,138,139,140,137,138,139,140,137,138,139,140,137,
138,139,140,137,138,139,140,137,138,139,140,137,138,139,140,137,138,139,10,11,12,9,10,11,12,9,10,11,12,9,10,11,12,9,10,11,12,9,10,11,12,9,10,11,12,9,140,137,138,139,140,137,138,139,140,137,138,139,140,137,138,139,140,137,
138,139,140,137,138,139,140,137,138,139,140,137,138,139,140,137,138,139,10,11,12,9,10,11,12,9,10,11,12,9,10,11,12,9,10,11,12,9,10,11,12,9,10,11,12,9,140,137,138,139,140,137,138,139,140,137,138,139,140,137,138,139,140,137,
138,139,140,137,138,139,140,137,138,139,140,137,138,139,140,137,138,9,10,11,12,9,10,11,12,9,10,11,12,9,10,11,12,9,10,11,12,9,10,11,12,9,10,11,12,9,10,137,138,139,140,137,138,139,140,137,138,139,140,137,138,139,140,137,
138,139,140,137,138,139,140,137,138,139,140,137,138,9,10,11,12,9,10,11,12,9,10,11,12,9,10,11,12,9,10,11,12,9,10,11,12,9,10,11,12,9,10,11,12,9,10,11,12,9,10,137,138,139,140,137,138,139,140,137,138,139,140,137,
138,139,140,137,138,139,140,137,138,139,140,11,12,9,10,11,12,9,10,11,12,9,10,11,12,9,10,11,12,9,10,11,12,9,10,11,12,9,10,11,12,9,10,11,12,9,10,11,12,9,10,11,12,139,140,137,138,139,140,137,138,139,140,137,
138,139,140,137,138,139,140,137,138,139,10,11,12,9,10,11,12,9,10,11,12,9,10,11,12,9,10,11,12,9,10,11,12,9,10,11,12,9,10,11,12,9,10,11,12,9,10,11,12,9,10,11,12,9,140,137,138,139,140,137,138,139,140,137,
138,139,140,137,138,139,140,137,138,9,10,11,12,9,10,11,12,9,10,11,12,9,10,11,12,9,10,11,12,9,10,11,12,9,10,11,12,9,10,11,12,9,10,11,12,9,10,11,12,9,10,11,12,9,10,137,138,139,140,137,138,139,140,137,
138,139,140,137,138,139,140,137,138,9,10,11,12,9,10,11,12,9,10,11,12,9,10,11,12,9,10,11,12,9,10,11,12,9,10,11,12,9,10,11,12,9,10,11,12,9,10,11,12,9,10,11,12,9,10,137,138,139,140,137,138,139,140,137,
138,139,140,137,138,139,140,137,138,139,10,11,12,9,10,11,12,9,10,11,12,9,10,11,12,9,10,11,12,9,10,11,12,9,10,11,12,9,10,11,12,9,10,11,12,9,10,11,12,9,10,11,12,9,140,137,138,139,140,137,138,139,140,137,
138,139,140,137,138,139,140,137,138,139,140,11,12,9,10,11,12,9,10,11,12,9,10,11,12,9,10,11,12,9,10,11,12,9,10,11,12,9,10,11,12,9,10,11,12,9,10,11,12,9,10,11,12,139,140,137,138,139,140,137,138,139,140,137,
138,139,140,137,138,139,140,137,138,139,140,137,138,9,10,11,12,9,10,11,12,9,10,11,12,9,10,11,12,9,10,11,12,9,10,11,12,9,10,11,12,9,10,11,12,9,10,11,12,9,10,137,138,139,140,137,138,139,140,137,138,139,140,137,
138,139,140,137,138,139,140,137,138,139,140,137,138,139,140,137,138,9,10,11,12,9,10,11,12,9,10,11,12,9,10,11,12,9,10,11,12,9,10,11,12,9,10,11,12,9,10,137,138,139,140,137,138,139,140,137,138,139,140,137,138,139,140,137,
138,139,140,137,138,139,140,137,138,139,140,137,138,139,140,137,138,139,10,11,12,9,10,11,12,9,10,11,12,9,10,11,12,9,10,11,12,9,10,11,12,9,10,11,12,9,140,137,138,139,140,137,138,139,140,137,138,139,140,137,138,139,140,137,
138,139,140,137,138,139,140,137,138,139,140,137,138,139,140,137,138,139,10,11,12,9,10,11,12,9,10,11,12,9,10,11,12,9,10,11,12,9,10,11,12,9,10,11,12,9,140,137,138,139,140,137,138,139,140,137,138,139,140,137,138,139,140,137,
138,139,140,137,138,139,140,137,138,139,140,137,138,139,140,137,138,139,140,11,12,9,10,11,12,9,10,11,12,9,10,11,12,9,10,11,12,9,10,11,12,9,10,11,12,139,140,137,138,139,140,137,138,139,140,137,138,139,140,137,138,139,140,137,
138,139,140,137,138,139,140,137,138,139,140,137,138,139,140,137,138,139,140,11,12,9,10,11,12,9,10,11,12,9,10,11,12,9,10,11,12,9,10,11,12,9,10,11,12,139,140,137,138,139,140,137,138,139,140,137,138,139,140,137,138,139,140,137,
138,139,140,137,138,139,140,137,138,139,140,137,138,139,140,137,138,139,140,137,12,9,10,11,12,9,10,11,12,9,10,11,12,9,10,11,12,9,10,11,12,9,10,11,138,139,140,137,138,139,140,137,138,139,140,137,138,139,140,137,138,139,140,137,
138,139,140,137,138,139,140,137,138,139,140,137,138,139,140,137,138,139,140,137,138,9,10,11,12,9,10,11,12,9,10,11,12,9,10,11,12,9,10,11,12,9,10,137,138,139,140,137,138,139,140,137,138,139,140,137,138,139,140,137,138,139,140,137,
138,139,140,137,138,139,140,137,138,139,140,137,138,139,140,137,138,139,140,137,138,139,10,11,12,9,10,11,12,9,10,11,12,9,10,11,12,9,10,11,12,9,140,137,138,139,140,137,138,139,140,137,138,139,140,137,138,139,140,137,138,139,140,137,
138,139,140,137,138,139,140,137,138,139,140,137,138,139,140,137,138,139,140,137,138,139,140,11,12,9,10,11,12,9,10,11,12,9,10,11,12,9,10,11,12,139,140,137,138,139,140,137,138,139,140,137,138,139,140,137,138,139,140,137,138,139,140,137,
138,139,140,137,138,139,140,137,138,139,140,137,138,139,140,137,138,139,140,137,138,139,140,137,12,9,10,11,12,9,10,11,12,9,10,11,12,9,10,11,138,139,140,137,138,139,140,137,138,139,140,137,138,139,140,137,138,139,140,137,138,139,140,137,
138,139,140,137,138,139,140,137,138,139,140,137,138,139,140,137,138,139,140,137,138,139,140,137,138,139,10,11,12,9,10,11,12,9,10,11,12,9,140,137,138,139,140,137,138,139,140,137,138,139,140,137,138,139,140,137,138,139,140,137,138,139,140,137,
138,139,140,137,138,139,140,137,138,139,140,137,138,139,140,137,138,139,140,137,138,139,140,137,138,139,140,137,12,9,10,11,12,9,10,11,138,139,140,137,138,139,140,137,138,139,140,137,138,139,140,137,138,139,140,137,138,139,140,137,138,139,140,137,
138,139,140,137,138,139,140,137,138,139,140,137,138,139,140,137,138,139,140,137,138,139,140,137,138,139,140,137,138,139,140,137,138,139,140,137,138,139,140,137,138,139,140,137,138,139,140,137,138,139,140,137,138,139,140,137,138,139,140,137,138,139,140,137,
138,139,140,137,138,139,140,137,138,139,140,137,138,139,140,137,138,139,140,137,138,139,140,137,138,139,140,137,138,139,140,137,138,139,140,137,138,139,140,137,138,139,140,137,138,139,140,137,138,139,140,137,138,139,140,137,138,139,140,137,138,139,140,137,
138,139,140,137,138,139,140,137,138,139,140,137,138,139,140,137,138,139,140,137,138,139,140,137,138,139,140,137,138,139,140,137,138,139,140,137,138,139,140,137,138,139,140,137,138,139,140,137,138,139,140,137,138,139,140,137,138,139,140,137,138,139,140,137,
138,139,140,137,138,139,140,137,138,139,140,137,138,139,140,137,138,139,140,137,138,139,140,137,138,139,140,137,138,139,140,137,138,139,140,137,138,139,140,137,138,139,140,137,138,139,140,137,138,139,140,137,138,139,140,137,138,139,140,137,138,139,140,137,
138,139,140,137,138,139,140,137,138,139,140,137,138,139,140,137,138,139,140,137,138,139,140,137,138,139,140,137,138,139,140,137,138,139,140,137,138,139,140,137,138,139,140,137,138,139,140,137,138,139,140,137,138,139,140,137,138,139,140,137,138,139,140,137,
138,139,140,137,138,139,140,137,138,139,140,137,138,139,140,137,138,139,140,137,138,139,140,137,138,139,140,137,138,139,140,137,138,139,140,137,138,139,140,137,138,139,140,137,138,139,140,137,138,139,140,137,138,139,140,137,138,139,140,137,138,139,140,137,
138,139,140,137,138,139,140,137,138,139,140,137,138,139,140,137,138,139,140,137,138,139,140,137,138,139,140,137,138,139,140,137,138,139,140,137,138,139,140,137,138,139,140,137,138,139,140,137,138,139,140,137,138,139,140,137,138,139,140,137,138,139,140,137,
138,139,140,137,138,139,140,137,138,139,140,137,138,139,140,137,138,139,140,137,138,139,140,137,138,139,140,137,138,139,140,137,138,139,140,137,138,139,140,137,138,139,140,137,138,139,140,137,138,139,140,137,138,139,140,137,138,139,140,137,138,139,140,137,
138,139,140,137,138,139,140,137,138,139,140,137,138,139,140,137,138,139,140,137,138,139,140,137,138,139,140,137,138,139,140,137,138,139,140,137,138,139,140,137,138,139,140,137,138,139,140,137,138,139,140,137,138,139,140,137,138,139,140,137,138,139,140,137,
138,139,140,137,138,139,140,137,138,139,140,137,138,139,140,137,138,139,140,137,138,139,140,137,138,139,140,137,138,139,140,137,138,139,140,137,138,139,140,137,138,139,140,137,138,139,140,137,138,139,140,137,138,139,140,137,138,139,140,137,138,139,140,137,
138,139,140,137,138,139,140,137,138,139,140,137,138,139,140,137,138,139,140,137,138,139,140,137,138,139,140,137,138,139,140,137,138,139,140,137,138,139,140,137,138,139,140,137,138,139,140,137,138,139,140,137,138,139,140,137,138,139,140,137,138,139,140,137,
138,139,140,137,138,139,140,137,138,139,140,137,138,139,140,137,138,139,140,137,138,139,140,137,138,139,140,137,138,139,140,137,138,139,140,137,138,139,140,137,138,139,140,137,138,139,140,137,138,139,140,137,138,139,140,137,138,139,140,137,138,139,140,137,
138,139,140,137,138,139,140,137,138,139,140,137,138,139,140,137,138,139,140,137,138,139,140,137,138,139,140,137,138,139,140,137,138,139,140,137,138,139,140,137,138,139,140,137,138,139,140,137,138,139,140,137,138,139,140,137,138,139,140,137,138,139,140,137,
138,139,140,137,138,139,140,137,138,139,140,137,138,139,140,137,138,139,140,137,138,139,140,137,138,139,140,137,138,139,140,137,138,139,140,137,138,139,140,137,138,139,140,137,138,139,140,137,138,139,140,137,138,139,140,137,138,139,140,137,138,139,140,137,
138,139,140,137,138,139,140,137,138,139,140,137,138,139,140,137,138,139,140,137,138,139,140,137,138,139,140,137,138,139,140,137,138,139,140,137,138,139,140,137,138,139,140,137,138,139,140,137,138,139,140,137,138,139,140,137,138,139,140,137,138,139,140,137,
138,139,140,137,138,139,140,137,138,139,140,137,138,139,140,137,138,139,140,137,138,139,140,137,138,139,140,137,138,139,140,137,138,139,140,137,138,139,140,137,138,139,140,137,138,139,140,137,138,139,140,137,138,139,140,137,138,139,140,137,138,139,140,137,
138,139,140,137,138,139,140,137,138,139,140,137,138,139,140,137,138,139,140,137,138,139,140,137,138,139,140,137,138,139,140,137,138,139,140,137,138,139,140,137,138,139,140,137,138,139,140,137,138,139,140,137,138,139,140,137,138,139,140,137,138,139,140,137
</data>
 </layer>
 <objectgroup id="2" name="Units/Buildings">
  <object id="232" template="../../buildings/P_Turret.tx" x="288" y="528"/>
  <object id="233" template="../../buildings/P_Turret.tx" x="704" y="528"/>
  <object id="234" template="../../buildings/C_Turret.tx" x="288" y="496"/>
  <object id="235" template="../../buildings/C_Turret.tx" x="704" y="496"/>
  <object id="236" template="../../units/C_Soldier.tx" x="320" y="432"/>
  <object id="237" template="../../units/C_Soldier.tx" x="336" y="432"/>
  <object id="238" template="../../units/C_Soldier.tx" x="352" y="432"/>
  <object id="239" template="../../units/C_Soldier.tx" x="384" y="448"/>
  <object id="240" template="../../units/C_Soldier.tx" x="368" y="432"/>
  <object id="241" template="../../units/C_Soldier.tx" x="400" y="448"/>
  <object id="242" template="../../units/C_Soldier.tx" x="416" y="448"/>
  <object id="243" template="../../units/C_Soldier.tx" x="432" y="448"/>
  <object id="244" template="../../units/C_Soldier.tx" x="464" y="448"/>
  <object id="245" template="../../units/C_Soldier.tx" x="448" y="448"/>
  <object id="246" template="../../units/C_Soldier.tx" x="480" y="448"/>
  <object id="247" template="../../units/C_Soldier.tx" x="496" y="448"/>
  <object id="248" template="../../units/C_Soldier.tx" x="512" y="448"/>
  <object id="249" template="../../units/C_Soldier.tx" x="544" y="448"/>
  <object id="250" template="../../units/C_Soldier.tx" x="528" y="448"/>
  <object id="251" template="../../units/C_Soldier.tx" x="560" y="448"/>
  <object id="252" template="../../units/C_Soldier.tx" x="576" y="448"/>
  <object id="253" template="../../units/C_Soldier.tx" x="592" y="448"/>
  <object id="254" template="../../units/C_Soldier.tx" x="624" y="448"/>
  <object id="255" template="../../units/C_Soldier.tx" x="608" y="448"/>
  <object id="256" template="../../units/C_Soldier.tx" x="640" y="432"/>
  <object id="257" template="../../units/C_Soldier.tx" x="656" y="432"/>
  <object id="258" template="../../units/C_Soldier.tx" x="672" y="432"/>
  <object id="260" template="../../units/C_Soldier.tx" x="688" y="432"/>
  <object id="261" template="../../units/P_Soldier.tx" x="320" y="576"/>
  <object id="262" template="../../units/P_Soldier.tx" x="336" y="576"/>
  <object id="263" template="../../units/P_Soldier.tx" x="352" y="576"/>
  <object id="264" template="../../units/P_Soldier.tx" x="368" y="576"/>
  <object id="265" template="../../units/P_Soldier.tx" x="384" y="560"/>
  <object id="266" template="../../units/P_Soldier.tx" x="400" y="560"/>
  <object id="267" template="../../units/P_Soldier.tx" x="416" y="560"/>
  <object id="268" template="../../units/P_Soldier.tx" x="432" y="560"/>
  <object id="269" template="../../units/P_Soldier.tx" x="448" y="560"/>
  <object id="270" template="../../units/P_Soldier.tx" x="464" y="560"/>
  <object id="271" template="../../units/P_Soldier.tx" x="480" y="560"/>
  <object id="272" template="../../units/P_Soldier.tx" x="496" y="560"/>
  <object id="273" template="../../units/P_Soldier.tx" x="512" y="560"/>
  <object id="274" template="../../units/P_Soldier.tx" x="528" y="560"/>
  <object id="275" template="../../units/P_Soldier.tx" x="544" y="560"/>
  <object id="281" template="../../units/P_Soldier.tx" x="560" y="560"/>
  <object id="282" template="../../units/P_Soldier.tx" x="576" y="560"/>
  <object id="283" template="../../units/P_Soldier.tx" x="592" y="560"/>
  <object id="284" template="../../units/P_Soldier.tx" x="608" y="560"/>
  <object id="285" template="../../units/P_Soldier.tx" x="624" y="560"/>
  <object id="286" template="../../units/P_Soldier.tx" x="640" y="576"/>
  <object id="287" template="../../units/P_Soldier.tx" x="656" y="576"/>
  <object id="288" template="../../units/P_Soldier.tx" x="672" y="576"/>
  <object id="289" template="../../units/P_Soldier.tx" x="688" y="576"/>
  <object id="291" template="../../units/P_Archer.tx" x="320" y="592"/>
  <object id="292" template="../../units/P_Archer.tx" x="336" y="592"/>
  <object id="293" template="../../units/P_Archer.tx" x="352" y="592"/>
  <object id="294" template="../../units/P_Archer.tx" x="368" y="592"/>
  <object id="295" template="../../units/P_Archer.tx" x="384" y="576"/>
  <object id="296" template="../../units/P_Archer.tx" x="400" y="576"/>
  <object id="297" template="../../units/P_Archer.tx" x="416" y="576"/>
  <object id="298" template="../../units/P_Archer.tx" x="432" y="576"/>
  <object id="299" template="../../units/P_Archer.tx" x="448" y="576"/>
  <object id="300" template="../../units/P_Archer.tx" x="464" y="576"/>
  <object id="301" template="../../units/P_Archer.tx" x="480" y="576"/>
  <object id="302" template="../../units/P_Archer.tx" x="496" y="576"/>
  <object id="303" template="../../units/P_Archer.tx" x="512" y="576"/>
  <object id="304" template="../../units/P_Archer.tx" x="528" y="576"/>
  <object id="305" template="../../units/P_Archer.tx" x="544" y="576"/>
  <object id="306" template="../../units/P_Archer.tx" x="560" y="576"/>
  <object id="307" template="../../units/P_Archer.tx" x="576" y="576"/>
  <object id="308" template="../../units/P_Archer.tx" x="592" y="576"/>
  <object id="309" template="../../units/P_Archer.tx" x="608" y="576"/>
  <object id="310" template="../../units/P_Archer.tx" x="624" y="576"/>
  <object id="311" template="../../units/P_Archer.tx" x="640" y="592"/>
  <object id="312" template="../../units/P_Archer.tx" x="656" y="592"/>
  <object id="313" template="../../units/P_Archer.tx" x="672" y="592"/>
  <object id="314" template="../../units/P_Archer.tx" x="688" y="592"/>
  <object id="315" template="../../units/P_Mage.tx" x="400" y="608"/>
  <object id="316" template="../../units/P_Mage.tx" x="416" y="608"/>
  <object id="317" template="../../units/P_Mage.tx" x="432" y="608"/>
  <object id="318" template="../../units/P_Mage.tx" x="448" y="608"/>
  <object id="319" template="../../units/P_Mage.tx" x="464" y="608"/>
  <object id="320" template="../../units/P_Mage.tx" x="544" y="608"/>
  <object id="321" template="../../units/P_Mage.tx" x="560" y="608"/>
  <object id="322" template="../../units/P_Mage.tx" x="576" y="608"/>
  <object id="323" template="../../units/P_Mage.tx" x="592" y="608"/>
  <object id="324" template="../../units/P_Mage.tx" x="608" y="608"/>
  <object id="325" template="../../units/P_Knight.tx" x="400" y="592"/>
  <object id="326" template="../../units/P_Knight.tx" x="416" y="592"/>
  <object id="327" template="../../units/P_Knight.tx" x="448" y="592"/>
  <object id="328" template="../../units/P_Knight.tx" x="432" y="592"/>
  <object id="329" template="../../units/P_Knight.tx" x="464" y="592"/>
  <object id="330" template="../../units/P_Knight.tx" x="480" y="592"/>
  <object id="331" template="../../units/P_Knight.tx" x="512" y="592"/>
  <object id="332" template="../../units/P_Knight.tx" x="496" y="592"/>
  <object id="333" template="../../units/P_Knight.tx" x="528" y="592"/>
  <object id="334" template="../../units/P_Knight.tx" x="544" y="592"/>
  <object id="335" template="../../units/P_Knight.tx" x="560" y="592"/>
  <object id="336" template="../../units/P_Knight.tx" x="576" y="592"/>
  <object id="337" template="../../units/P_Knight.tx" x="592" y="592"/>
  <object id="338" template="../../units/P_Knight.tx" x="608" y="592"/>
  <object id="339" template="../../units/C_Knight.tx" x="400" y="416"/>
  <object id="340" template="../../units/C_Knight.tx" x="416" y="416"/>
  <object id="341" template="../../units/C_Knight.tx" x="432" y="416"/>
  <object id="342" template="../../units/C_Knight.tx" x="448" y="416"/>
  <object id="343" template="../../units/C_Knight.tx" x="464" y="416"/>
  <object id="344" template="../../units/C_Knight.tx" x="480" y="416"/>
  <object id="345" template="../../units/C_Knight.tx" x="496" y="416"/>
  <object id="346" template="../../units/C_Knight.tx" x="512" y="416"/>
  <object id="347" template="../../units/C_Knight.tx" x="528" y="416"/>
  <object id="348" template="../../units/C_Knight.tx" x="544" y="416"/>
  <object id="349" template="../../units/C_Knight.tx" x="560" y="416"/>
  <object id="351" template="../../units/C_Mage.tx" x="400" y="400"/>
  <object id="352" template="../../units/C_Mage.tx" x="416" y="400"/>
  <object id="353" template="../../units/C_Mage.tx" x="432" y="400"/>
  <object id="354" template="../../units/C_Mage.tx" x="448" y="400"/>
  <object id="355" template="../../units/C_Mage.tx" x="464" y="400"/>
  <object id="356" template="../../units/C_Mage.tx" x="544" y="400"/>
  <object id="357" template="../../units/C_Mage.tx" x="560" y="400"/>
  <object id="358" template="../../units/C_Mage.tx" x="576" y="400"/>
  <object id="359" template="../../units/C_Mage.tx" x="592" y="400"/>
  <object id="360" template="../../units/C_Mage.tx" x="608" y="400"/>
  <object id="361" template="../../units/C_Knight.tx" x="576" y="416"/>
  <object id="362" template="../../units/C_Knight.tx" x="592" y="416"/>
  <object id="363" template="../../units/C_Knight.tx" x="608" y="416"/>
  <object id="365" template="../../units/C_Archer.tx" x="320" y="416"/>
  <object id="366" template="../../units/C_Archer.tx" x="336" y="416"/>
  <object id="367" template="../../units/C_Archer.tx" x="368" y="416"/>
  <object id="368" template="../../units/C_Archer.tx" x="352" y="416"/>
  <object id="369" template="../../units/C_Archer.tx" x="384" y="432"/>
  <object id="370" template="../../units/C_Archer.tx" x="400" y="432"/>
  <object id="371" template="../../units/C_Archer.tx" x="416" y="432"/>
  <object id="372" template="../../units/C_Archer.tx" x="448" y="432"/>
  <object id="373" template="../../units/C_Archer.tx" x="432" y="432"/>
  <object id="374" template="../../units/C_Archer.tx" x="464" y="432"/>
  <object id="375" template="../../units/C_Archer.tx" x="480" y="432"/>
  <object id="376" template="../../units/C_Archer.tx" x="496" y="432"/>
  <object id="377" template="../../units/C_Archer.tx" x="528" y="432"/>
  <object id="378" template="../../units/C_Archer.tx" x="512" y="432"/>
  <object id="379" template="../../units/C_Archer.tx" x="544" y="432"/>
  <object id="380" template="../../units/C_Archer.tx" x="560" y="432"/>
  <object id="381" template="../../units/C_Archer.tx" x="576" y="432"/>
  <object id="382" template="../../units/C_Archer.tx" x="608" y="432"/>
  <object id="383" template="../../units/C_Archer.tx" x="592" y="432"/>
  <object id="384" template="../../units/C_Archer.tx" x="624" y="432"/>
  <object id="385" template="../../units/C_Archer.tx" x="640" y="416"/>
  <object id="386" template="../../units/C_Archer.tx" x="656" y="416"/>
  <object id="387" template="../../units/C_Archer.tx" x="688" y="416"/>
  <object id="388" template="../../units/C_Archer.tx" x="672" y="416"/>
 </objectgroup>
</map>
