<?xml version="1.0" encoding="UTF-8"?>
<map version="1.10" tiledversion="1.12.1" orientation="orthogonal" renderorder="right-down" width="64" height="64" tilewidth="16" tileheight="16" infinite="0" nextlayerid="5" nextobjectid="417">
 <editorsettings>
  <export target="../../../../assets/map/mgames/mgames2.fgm" format="Future Glimpses map (*.fgm)"/>
 </editorsettings>
 <properties>
  <property name="AI_MODE" type="int" propertytype="AI_MODE" value="2"/>
  <property name="ENABLE_BARRACKS" type="bool" value="false"/>
  <property name="ENABLE_BLACKSMITH" type="bool" value="false"/>
  <property name="ENABLE_FARM" type="bool" value="false"/>
  <property name="ENABLE_STABLES" type="bool" value="false"/>
  <property name="ENABLE_TOWER" type="bool" value="false"/>
  <property name="ENABLE_TURRET" type="bool" value="false"/>
  <property name="ENABLE_UPGRADE_ARCHER" type="bool" value="false"/>
  <property name="ENABLE_UPGRADE_KNIGHT" type="bool" value="false"/>
  <property name="ENABLE_UPGRADE_MAGE" type="bool" value="false"/>
  <property name="ENABLE_UPGRADE_SOLDIER" type="bool" value="false"/>
  <property name="MAP_CODE" value="MGAMES01"/>
  <property name="MSG_DESCRIPTION" value="La gran carrera, ¿podrás llegar al campamento enemigo antes de que tu enemigo haga lo mismo?"/>
  <property name="MSG_LOSE" value="Perdiste la carrera..."/>
  <property name="MSG_TITLE" value="2.¡Carrera!"/>
  <property name="MSG_WIN" value="¡Eres el campeón de la carrera!"/>
  <property name="PEACE_TIME" type="int" value="0"/>
  <property name="RES_GOLD_COMPUTER" type="int" value="0"/>
  <property name="RES_GOLD_PLAYER" type="int" value="0"/>
  <property name="RES_WOOD_COMPUTER" type="int" value="0"/>
  <property name="RES_WOOD_PLAYER" type="int" value="0"/>
  <property name="UPGRADED_ARCHER_COMPUTER" type="bool" value="false"/>
  <property name="UPGRADED_ARCHER_PLAYER" type="bool" value="false"/>
  <property name="UPGRADED_KNIGHT_COMPUTER" type="bool" value="false"/>
  <property name="UPGRADED_KNIGHT_PLAYER" type="bool" value="false"/>
  <property name="UPGRADED_MAGE_COMPUTER" type="bool" value="false"/>
  <property name="UPGRADED_MAGE_PLAYER" type="bool" value="false"/>
  <property name="UPGRADED_SOLDIER_COMPUTER" type="bool" value="false"/>
  <property name="UPGRADED_SOLDIER_PLAYER" type="bool" value="false"/>
  <property name="WIN_CODE" value="MGAMES02"/>
 </properties>
 <tileset firstgid="1" source="../../tileset.tsx"/>
 <tileset firstgid="257" source="../../units/units.tsx"/>
 <tileset firstgid="267" source="../../buildings/big_buildings.tsx"/>
 <tileset firstgid="273" source="../../buildings/small_buildings.tsx"/>
 <layer id="1" name="Map" width="64" height="64">
  <data encoding="csv">
144,144,142,141,143,142,144,144,143,143,143,143,143,143,144,141,141,141,143,143,143,142,142,142,144,144,143,143,144,144,142,142,143,142,144,141,143,141,142,144,142,143,144,143,143,143,142,143,143,142,143,142,141,142,141,142,141,142,144,143,142,141,141,143,
143,143,143,142,142,143,141,142,144,141,142,142,144,144,144,144,144,144,143,142,143,141,143,143,141,142,142,143,143,141,142,142,141,144,143,143,143,142,144,143,144,141,142,143,144,144,143,142,141,141,143,143,143,144,144,144,144,141,143,144,142,142,143,144,
141,144,141,141,141,144,141,141,142,143,144,143,144,143,143,143,143,141,143,144,141,144,144,142,16,16,144,144,143,144,144,144,144,142,142,141,142,142,142,141,142,141,142,143,144,141,144,141,144,142,144,143,141,143,142,144,143,144,143,144,144,142,144,143,
142,141,141,141,144,141,141,141,141,141,144,144,143,141,143,143,143,144,142,142,143,143,141,144,16,16,13,15,142,141,143,143,13,14,144,143,142,141,143,143,142,141,142,142,143,144,143,60,60,60,60,60,143,144,143,142,141,142,144,142,142,144,143,141,
141,142,144,141,143,142,143,143,143,143,142,141,141,143,144,141,143,144,142,141,141,141,15,13,13,14,13,16,16,144,144,14,15,16,144,141,142,144,142,142,143,141,143,141,143,141,45,169,170,170,170,171,43,142,144,142,143,144,141,142,144,144,141,141,
144,141,144,144,143,142,144,141,144,144,141,141,144,142,142,142,143,142,143,144,144,142,13,14,15,13,14,13,13,143,144,14,13,15,144,142,141,144,142,141,141,142,141,144,143,144,45,165,177,179,177,173,43,142,143,144,143,142,141,144,141,143,142,144,
142,144,144,143,144,141,16,14,16,15,16,15,15,14,13,13,13,15,143,142,142,16,14,15,13,16,13,16,14,143,141,14,13,15,15,13,16,144,143,141,143,141,143,144,142,144,45,165,178,179,178,173,43,142,142,142,141,144,144,144,141,142,143,144,
144,144,143,144,144,14,15,141,143,142,141,144,141,141,144,141,141,16,13,143,142,13,16,15,13,15,14,16,13,144,144,14,15,14,15,16,13,13,142,142,143,142,141,144,141,144,45,174,175,175,175,176,43,143,143,141,144,143,141,142,143,142,142,141,
142,143,142,144,16,16,141,144,141,143,143,142,144,141,143,144,141,144,14,15,142,13,14,15,14,16,16,15,13,143,141,14,14,16,14,14,15,15,141,143,13,144,141,143,143,141,143,28,28,28,28,28,143,142,143,144,143,141,142,142,144,141,144,144,
144,141,141,144,15,143,144,144,141,144,142,144,144,142,142,142,142,141,143,15,14,15,15,13,14,14,15,15,16,142,142,15,14,13,16,13,14,14,13,13,14,143,141,142,144,142,141,144,144,141,142,142,142,141,144,143,141,141,141,144,144,143,143,144,
141,144,143,142,13,15,142,143,143,142,141,141,143,144,141,143,142,144,143,141,14,16,16,13,16,13,13,15,16,143,142,15,13,14,141,142,13,13,13,142,15,144,141,144,142,144,141,142,143,141,142,142,143,144,142,143,141,142,144,143,144,144,142,141,
142,141,144,142,141,16,142,144,141,144,143,142,142,143,143,143,141,142,144,141,142,15,13,14,16,16,15,15,13,144,141,16,16,13,142,141,144,13,13,143,14,144,143,144,142,144,142,144,141,142,143,142,144,143,142,142,141,144,144,143,141,142,141,142,
142,142,144,143,144,141,16,142,141,141,143,144,143,142,143,144,144,141,142,141,144,143,13,13,16,16,15,16,15,143,142,13,15,15,141,143,13,13,143,143,16,144,141,143,143,142,141,141,144,141,144,142,141,143,141,141,142,143,141,141,141,142,141,143,
141,142,141,141,143,144,13,13,13,143,142,143,143,143,141,144,141,142,144,144,144,142,13,16,15,13,14,15,16,143,141,15,15,14,144,144,13,141,143,143,16,141,142,144,144,142,141,144,141,142,141,143,143,144,144,144,144,144,143,143,143,142,144,144,
141,143,142,143,144,141,142,144,13,13,143,142,141,144,143,144,142,141,142,141,141,144,141,144,13,14,15,14,141,144,143,141,144,14,13,13,13,141,144,144,16,142,144,144,143,143,143,141,142,142,144,143,143,142,142,142,142,143,144,142,141,144,142,144,
143,60,60,60,60,60,143,142,141,15,15,16,143,143,142,144,143,141,141,143,141,141,141,143,143,142,143,142,144,141,142,142,141,144,141,16,16,144,143,142,13,141,142,142,142,143,142,144,144,141,144,141,143,144,141,143,144,143,144,141,143,144,141,142,
45,169,170,170,170,171,43,142,142,141,144,15,15,14,13,141,144,144,141,143,141,144,144,141,143,144,143,144,144,142,144,143,142,141,142,143,14,16,144,15,13,144,144,141,143,141,142,144,143,142,144,143,142,141,141,141,141,141,141,141,142,142,143,143,
45,165,177,179,177,173,43,141,142,144,142,141,143,144,14,14,15,13,13,14,14,14,15,14,143,143,141,141,144,142,143,143,143,141,142,144,143,13,16,15,16,142,142,143,142,141,141,144,141,143,144,142,144,141,144,142,141,142,144,144,144,141,144,143,
45,165,178,179,178,173,43,142,142,142,142,142,142,144,142,141,15,13,142,142,142,144,143,16,13,142,143,141,143,143,141,143,142,143,143,144,141,143,143,13,16,13,144,143,143,141,142,141,142,143,141,141,143,142,144,141,144,143,143,144,144,142,142,141,
45,174,175,175,175,176,43,144,143,141,144,142,141,144,144,142,143,13,14,16,142,143,141,142,13,14,16,141,142,143,143,141,141,143,142,143,141,144,143,144,15,142,141,141,141,144,144,141,141,142,143,141,141,141,143,142,142,141,142,144,142,143,142,142,
143,28,28,28,28,28,143,143,144,142,143,142,143,144,141,141,144,143,142,14,14,144,143,143,144,143,14,14,143,141,141,144,142,141,142,141,14,14,141,141,15,144,144,143,144,142,143,142,144,141,144,143,143,141,143,141,141,143,142,144,143,143,143,142,
142,143,144,141,141,141,143,141,142,142,142,141,144,144,142,144,142,141,141,142,15,15,141,143,141,142,141,15,15,143,144,144,141,141,144,141,14,14,144,144,16,143,143,144,144,141,141,142,142,144,144,142,143,143,142,144,142,143,143,142,143,141,141,144,
144,141,142,143,142,144,142,144,14,13,16,14,16,16,143,142,144,142,142,141,141,14,13,142,142,142,142,144,14,13,13,142,142,143,143,142,144,144,143,144,14,143,141,142,144,142,144,142,141,143,144,144,144,142,142,142,144,142,141,144,141,142,141,142,
144,141,142,144,141,143,142,15,141,141,141,141,141,15,16,16,144,142,141,142,141,14,14,141,141,143,141,141,142,142,13,15,143,143,141,141,143,142,144,141,15,14,16,142,142,144,141,144,143,141,142,141,142,142,141,143,142,142,143,143,144,144,142,143,
143,142,143,142,143,142,16,143,143,144,144,141,142,141,143,15,16,16,142,141,142,15,143,141,141,143,144,142,141,142,144,14,143,141,141,142,141,142,144,16,14,14,141,142,141,144,142,144,143,142,142,144,144,14,14,143,143,144,143,142,144,144,142,141,
143,143,141,142,144,143,14,141,141,142,144,141,143,144,141,143,143,15,14,14,14,14,144,143,142,143,141,143,143,142,16,15,141,141,142,141,141,142,13,142,141,142,141,144,141,141,141,143,141,143,143,141,141,14,14,13,144,142,143,144,141,144,144,141,
142,142,143,144,144,144,16,143,141,144,142,141,142,143,142,144,141,144,141,141,143,142,144,143,141,142,143,142,141,144,14,142,143,144,143,144,141,143,13,142,142,141,142,143,144,141,141,142,142,144,142,143,144,141,13,13,142,142,143,143,141,142,141,141,
143,143,142,144,144,144,14,142,144,142,141,141,142,141,144,144,141,143,143,144,144,141,144,141,142,142,141,141,143,144,13,141,143,142,143,144,141,142,143,14,13,16,141,141,144,144,143,142,144,143,142,142,141,144,143,144,141,142,144,142,144,143,144,141,
144,144,142,144,143,143,16,141,143,143,143,141,143,141,144,142,142,142,142,144,143,144,143,142,141,144,143,142,142,143,15,142,144,143,144,143,142,142,141,141,144,144,16,13,16,15,16,14,16,16,13,16,13,14,13,13,14,15,13,144,144,141,141,143,
144,142,142,142,143,144,15,141,142,141,141,143,143,143,144,142,141,143,141,143,144,141,141,142,142,143,142,144,144,13,15,144,142,141,143,142,143,141,141,141,142,142,143,142,143,143,143,144,143,144,143,142,142,144,141,143,141,142,15,141,143,141,142,144,
142,141,143,144,143,144,13,16,142,144,143,141,144,141,141,144,144,143,143,143,144,143,144,142,141,144,142,144,13,14,141,142,142,144,143,143,144,143,144,142,143,143,143,143,143,144,142,144,141,143,142,142,141,143,141,144,143,142,16,141,141,141,142,142,
141,142,142,143,144,141,144,14,14,144,141,143,143,141,143,143,144,141,144,143,143,144,142,144,143,141,142,14,15,141,143,144,142,142,144,141,141,142,141,143,143,144,142,143,143,142,142,143,141,141,142,142,141,143,143,141,141,14,16,142,142,144,142,144,
142,144,142,144,141,143,144,144,142,14,16,15,13,16,15,15,14,16,14,13,15,14,14,14,13,14,14,143,141,143,141,143,141,144,142,142,141,143,141,141,142,142,141,15,16,16,15,13,13,14,15,14,16,15,16,16,13,14,143,143,142,144,142,141,
143,141,141,142,141,141,143,141,144,143,143,143,142,144,143,141,143,143,142,142,142,143,144,142,141,142,143,13,15,141,142,141,143,143,144,142,14,14,142,142,16,13,16,15,144,144,142,142,143,141,141,142,141,143,144,143,143,141,143,13,13,141,144,143,
144,144,141,143,142,142,141,144,144,143,142,143,142,143,143,142,144,144,141,141,142,141,141,144,144,143,143,141,16,15,142,143,142,144,141,142,14,14,144,14,16,144,144,141,144,143,143,142,141,144,143,141,144,144,142,141,144,141,143,13,13,142,142,141,
144,143,142,143,141,142,141,141,142,16,15,15,13,16,14,142,143,144,144,141,143,144,144,144,143,144,143,143,143,15,142,141,144,144,142,143,144,141,141,16,142,144,144,143,142,143,144,144,143,142,141,143,143,144,142,144,144,142,142,142,142,141,144,143,
142,144,144,144,141,14,16,13,15,14,144,144,141,144,16,13,16,14,143,141,143,142,142,142,141,141,141,143,141,15,142,143,143,143,143,141,143,142,141,15,13,143,141,143,141,143,143,142,142,142,144,141,144,144,142,143,142,144,141,144,144,142,142,142,
143,141,141,143,144,14,144,143,141,142,141,143,142,144,143,142,144,144,16,16,142,141,142,142,144,142,141,143,142,14,141,144,143,143,141,142,141,144,143,143,15,15,15,14,14,14,16,13,13,14,15,15,14,144,141,142,142,142,142,144,144,142,143,144,
143,143,142,141,144,15,141,142,141,141,143,144,141,144,142,143,144,144,143,142,13,16,143,142,144,144,142,143,13,13,143,143,142,141,141,141,142,144,144,144,142,143,142,144,144,142,142,141,142,144,144,141,15,14,14,144,143,144,143,142,143,143,144,143,
142,141,141,141,142,15,142,141,142,142,144,144,142,141,141,144,141,141,143,143,142,14,15,13,144,144,142,13,15,144,144,143,60,60,60,60,60,143,141,142,143,143,143,142,144,143,144,142,143,141,143,144,143,144,15,14,144,143,144,143,142,142,142,141,
141,141,143,143,143,14,16,144,141,142,142,141,143,144,141,142,143,143,144,142,141,143,141,15,15,15,13,16,142,142,144,45,169,170,170,170,171,43,143,144,142,142,144,141,143,143,14,14,141,141,142,141,144,143,141,144,15,15,142,141,141,142,143,141,
143,142,144,144,144,144,16,16,14,13,16,15,16,16,14,15,16,141,143,141,142,144,142,142,144,144,141,142,141,142,142,45,165,177,179,177,173,43,144,141,143,141,143,141,144,144,14,14,143,144,141,144,143,143,143,144,141,16,141,144,143,144,144,142,
141,142,144,143,143,141,141,144,142,143,144,143,141,143,143,141,144,14,14,16,143,142,141,144,142,142,144,144,144,144,144,45,165,178,179,178,173,43,144,143,141,143,143,144,142,142,144,144,141,142,143,144,142,144,142,14,15,13,142,141,144,141,143,141,
141,141,143,142,144,143,142,142,144,144,141,144,141,142,142,143,143,142,143,14,143,144,144,142,143,143,143,144,141,141,143,45,174,175,175,175,176,43,141,143,13,13,13,15,13,13,16,13,16,14,14,13,15,14,15,15,141,142,142,144,141,142,144,144,
142,143,141,144,144,15,15,14,14,13,15,13,142,142,141,142,142,144,14,14,142,142,143,141,141,143,143,143,144,142,141,143,28,28,28,28,28,143,144,15,16,143,143,144,143,143,142,142,141,144,142,141,142,141,142,143,144,142,144,14,14,141,143,143,
141,141,141,144,14,16,144,141,144,143,141,16,14,15,15,16,15,15,15,144,141,143,144,141,142,142,142,141,141,144,144,143,141,141,143,144,142,144,142,16,142,141,143,144,142,144,143,142,143,144,143,142,141,143,142,141,141,141,144,14,14,142,143,144,
142,141,141,15,143,142,143,143,144,144,144,141,141,16,144,143,143,141,142,141,142,144,144,142,141,142,143,142,142,143,141,141,142,144,143,141,144,141,143,16,14,143,142,143,143,144,143,143,141,141,144,143,143,143,143,142,144,141,141,13,13,142,143,144,
143,144,142,16,141,141,142,143,144,142,144,142,142,142,141,142,143,142,141,144,143,142,143,144,142,141,144,143,142,142,142,141,143,143,144,141,142,143,144,144,16,14,13,13,13,16,16,142,144,143,142,143,142,141,144,144,143,143,144,142,143,142,143,143,
144,142,144,14,142,142,141,142,143,142,144,144,142,144,144,141,144,141,141,141,143,143,144,142,143,142,143,141,143,142,141,142,144,142,144,144,143,143,144,144,142,144,143,144,141,141,143,13,15,16,14,13,16,16,16,13,144,142,141,142,142,144,144,141,
144,143,144,15,141,144,144,144,142,141,142,142,143,142,142,141,141,143,141,142,141,142,141,142,143,141,142,142,141,141,141,141,143,141,142,14,14,142,141,144,143,143,142,144,143,144,144,144,141,144,142,142,142,141,144,142,16,15,141,143,143,141,144,141,
144,143,143,13,141,142,141,141,141,142,144,15,16,141,142,142,143,143,141,143,144,144,144,143,143,143,141,143,141,143,143,141,142,143,143,14,14,141,141,144,143,144,143,144,144,143,142,141,143,144,143,142,144,144,141,143,142,16,141,142,144,144,141,143,
144,143,141,13,142,15,16,15,15,15,14,15,14,144,142,144,141,142,142,142,143,141,141,143,141,143,144,142,142,144,141,141,144,142,143,141,143,141,142,142,144,143,142,144,143,142,144,141,141,141,141,141,143,144,144,144,143,16,144,144,144,142,141,142,
142,144,141,14,14,14,13,16,16,13,15,15,14,141,142,142,141,141,142,142,143,141,143,143,142,142,141,143,143,142,141,142,143,143,142,144,143,142,142,143,141,142,144,142,141,142,142,142,144,142,143,142,143,144,141,15,14,144,143,60,60,60,60,60,
142,144,144,14,14,15,15,14,16,14,14,16,13,143,143,143,60,60,60,60,60,143,144,144,144,142,141,141,143,143,143,144,143,143,141,143,142,13,13,16,16,14,13,14,14,14,15,15,15,15,13,15,14,13,16,142,144,141,45,169,170,170,170,171,
144,144,16,13,13,15,14,14,14,14,15,14,13,141,142,45,169,170,170,170,171,43,143,143,143,143,141,141,143,143,142,144,141,142,141,142,16,14,141,144,141,143,143,141,143,144,141,144,142,143,141,142,144,141,142,143,141,144,45,165,177,179,177,173,
142,144,14,15,14,14,13,16,15,16,13,13,13,141,144,45,165,177,179,177,173,43,141,144,141,142,141,141,141,141,144,143,143,142,143,144,14,141,141,143,142,143,142,143,144,141,141,142,13,13,141,141,141,142,144,143,144,142,45,165,178,179,178,173,
144,142,15,13,15,16,14,16,13,13,14,15,13,143,144,45,165,178,179,178,173,43,143,141,141,142,144,143,142,143,143,144,141,141,144,143,14,16,143,142,144,144,141,141,143,142,144,141,13,13,143,144,141,142,141,144,142,142,45,174,175,175,175,176,
142,144,15,16,16,15,16,16,16,15,15,13,14,141,141,45,174,175,175,175,176,43,141,143,143,143,142,144,143,141,144,144,144,141,142,141,143,16,144,142,143,141,141,144,144,142,144,142,143,141,144,143,144,144,142,142,141,142,143,28,28,28,28,28,
141,142,142,13,16,16,14,16,14,15,13,13,142,144,144,143,28,28,28,28,28,143,143,143,141,142,144,141,144,144,144,144,144,144,144,144,144,141,16,13,15,16,14,15,13,14,144,142,144,141,144,144,142,143,141,141,141,144,142,141,144,142,142,142,
144,142,144,141,15,14,16,13,14,16,14,144,144,144,144,141,142,143,142,143,142,144,143,141,144,142,144,141,142,144,142,144,144,144,144,141,143,141,142,142,143,141,144,143,142,15,16,14,13,15,14,14,15,13,15,13,14,15,16,14,143,141,143,143,
144,143,141,141,141,15,13,14,13,15,142,141,141,142,143,141,142,143,143,143,142,144,143,143,143,142,144,143,143,143,142,144,141,144,144,141,143,142,144,144,141,142,143,144,142,142,141,141,143,143,144,141,141,143,144,141,143,141,143,144,141,13,143,142,
143,143,142,143,143,144,143,141,144,141,144,144,141,141,142,143,144,142,144,141,141,141,142,141,141,144,143,143,141,141,142,143,142,144,142,143,143,144,13,13,141,143,141,142,141,144,141,141,143,142,141,141,142,144,141,144,142,143,143,143,15,16,143,141,
144,144,143,142,142,144,141,141,142,142,141,144,142,144,141,143,144,143,141,144,144,141,144,143,141,143,143,144,143,141,141,141,143,142,144,144,143,143,13,13,143,141,142,144,141,142,144,144,144,141,144,142,141,144,142,141,144,142,144,143,141,142,142,144,
143,144,143,143,141,141,143,141,142,141,141,142,144,144,142,143,144,141,141,144,141,143,141,142,144,141,141,141,142,141,143,143,142,142,144,144,144,142,144,141,141,143,141,142,141,141,141,143,144,144,143,141,142,141,144,143,143,141,143,141,143,141,142,144
</data>
 </layer>
 <objectgroup id="2" name="Units/Buildings">
  <object id="390" template="../../buildings/C_City_Hall.tx" name="Meta Azul" x="416" y="144">
   <properties>
    <property name="ARMOR" type="int" value="0"/>
    <property name="CUSTOM" type="bool" value="true"/>
    <property name="MAX_HEALTH" type="int" value="1"/>
    <property name="MUST_SURVIVE" type="bool" value="true"/>
   </properties>
  </object>
  <object id="399" template="../../units/C_Soldier.tx" x="976" y="976"/>
  <object id="400" template="../../units/C_Soldier.tx" x="960" y="992"/>
  <object id="401" template="../../units/C_Soldier.tx" x="976" y="992"/>
  <object id="402" template="../../units/C_Knight.tx" name="Pedrosa" x="944" y="960">
   <properties>
    <property name="ARMOR" type="int" value="0"/>
    <property name="CUSTOM" type="bool" value="true"/>
    <property name="MAX_DAMAGE" type="int" value="1"/>
    <property name="MAX_HEALTH" type="int" value="1"/>
    <property name="MIN_DAMAGE" type="int" value="1"/>
    <property name="MUST_SURVIVE" type="bool" value="true"/>
   </properties>
  </object>
  <object id="415" template="../../units/P_Knight.tx" name="Lentín" x="112" y="880">
   <properties>
    <property name="ARMOR" type="int" value="0"/>
    <property name="CUSTOM" type="bool" value="true"/>
    <property name="MAX_DAMAGE" type="int" value="1"/>
    <property name="MAX_HEALTH" type="int" value="1"/>
    <property name="MIN_DAMAGE" type="int" value="1"/>
    <property name="MUST_SURVIVE" type="bool" value="true"/>
   </properties>
  </object>
  <object id="404" template="../../buildings/P_Tower.tx" name="Faro" x="560" y="816">
   <properties>
    <property name="CUSTOM" type="bool" value="true"/>
   </properties>
  </object>
  <object id="405" template="../../buildings/P_Tower.tx" name="Faro" x="944" y="752">
   <properties>
    <property name="CUSTOM" type="bool" value="true"/>
   </properties>
  </object>
  <object id="407" template="../../buildings/P_Tower.tx" name="Faro" x="848" y="416">
   <properties>
    <property name="CUSTOM" type="bool" value="true"/>
   </properties>
  </object>
  <object id="408" template="../../buildings/P_Tower.tx" name="Faro" x="576" y="352">
   <properties>
    <property name="CUSTOM" type="bool" value="true"/>
   </properties>
  </object>
  <object id="409" template="../../buildings/P_Tower.tx" name="Faro" x="576" y="560">
   <properties>
    <property name="CUSTOM" type="bool" value="true"/>
   </properties>
  </object>
  <object id="410" template="../../buildings/P_Tower.tx" name="Faro" x="736" y="672">
   <properties>
    <property name="CUSTOM" type="bool" value="true"/>
   </properties>
  </object>
  <object id="411" template="../../buildings/P_Tower.tx" name="Faro" x="768" y="912">
   <properties>
    <property name="CUSTOM" type="bool" value="true"/>
   </properties>
  </object>
  <object id="412" template="../../buildings/P_Tower.tx" name="Faro" x="608" y="1008">
   <properties>
    <property name="CUSTOM" type="bool" value="true"/>
   </properties>
  </object>
  <object id="413" template="../../buildings/P_Tower.tx" name="Faro" x="944" y="560">
   <properties>
    <property name="CUSTOM" type="bool" value="true"/>
   </properties>
  </object>
  <object id="416" template="../../buildings/P_City_Hall.tx" name="Meta Roja" x="496" y="144">
   <properties>
    <property name="ARMOR" type="int" value="0"/>
    <property name="CUSTOM" type="bool" value="true"/>
    <property name="MAX_HEALTH" type="int" value="1"/>
    <property name="MUST_SURVIVE" type="bool" value="true"/>
   </properties>
  </object>
 </objectgroup>
</map>
