<?xml version="1.0" encoding="UTF-8"?>
<map version="1.10" tiledversion="1.12.1" orientation="orthogonal" renderorder="right-down" width="64" height="64" tilewidth="16" tileheight="16" infinite="0" nextlayerid="5" nextobjectid="657">
 <editorsettings>
  <export target="../../../../assets/map/mgames/mgames3.fgm" format="Future Glimpses map (*.fgm)"/>
 </editorsettings>
 <properties>
  <property name="AI_MODE" type="int" propertytype="AI_MODE" value="2"/>
  <property name="ENABLE_BARRACKS" type="bool" value="false"/>
  <property name="ENABLE_BLACKSMITH" type="bool" value="false"/>
  <property name="ENABLE_FARM" type="bool" value="false"/>
  <property name="ENABLE_STABLES" type="bool" value="false"/>
  <property name="ENABLE_TOWER" type="bool" value="false"/>
  <property name="ENABLE_TURRET" type="bool" value="true"/>
  <property name="ENABLE_UPGRADE_ARCHER" type="bool" value="false"/>
  <property name="ENABLE_UPGRADE_KNIGHT" type="bool" value="false"/>
  <property name="ENABLE_UPGRADE_MAGE" type="bool" value="false"/>
  <property name="ENABLE_UPGRADE_SOLDIER" type="bool" value="false"/>
  <property name="MAP_CODE" value=""/>
  <property name="MSG_DESCRIPTION" value="Evita que las oleadas de enemigos destruyan tu alcaldía principal proteiéndola con torretas."/>
  <property name="MSG_LOSE" value="Destruyeron tu alcaldía principal..."/>
  <property name="MSG_TITLE" value="3.Torretamanía"/>
  <property name="MSG_WIN" value="¡Lograste proteger tu alcaldía principal!"/>
  <property name="PEACE_TIME" type="int" value="45"/>
  <property name="RES_GOLD_COMPUTER" type="int" value="0"/>
  <property name="RES_GOLD_PLAYER" type="int" value="800"/>
  <property name="RES_WOOD_COMPUTER" type="int" value="0"/>
  <property name="RES_WOOD_PLAYER" type="int" value="200"/>
  <property name="UPGRADED_ARCHER_COMPUTER" type="bool" value="false"/>
  <property name="UPGRADED_ARCHER_PLAYER" type="bool" value="false"/>
  <property name="UPGRADED_KNIGHT_COMPUTER" type="bool" value="false"/>
  <property name="UPGRADED_KNIGHT_PLAYER" type="bool" value="false"/>
  <property name="UPGRADED_MAGE_COMPUTER" type="bool" value="false"/>
  <property name="UPGRADED_MAGE_PLAYER" type="bool" value="false"/>
  <property name="UPGRADED_SOLDIER_COMPUTER" type="bool" value="false"/>
  <property name="UPGRADED_SOLDIER_PLAYER" type="bool" value="false"/>
  <property name="WIN_CODE" value=""/>
 </properties>
 <tileset firstgid="1" source="../../tileset.tsx"/>
 <tileset firstgid="257" source="../../units/units.tsx"/>
 <tileset firstgid="267" source="../../buildings/big_buildings.tsx"/>
 <tileset firstgid="273" source="../../buildings/small_buildings.tsx"/>
 <layer id="1" name="Map" width="64" height="64">
  <data encoding="csv">
200,200,200,200,200,200,200,200,200,200,200,200,137,138,137,137,140,140,137,138,137,139,138,137,137,139,137,139,138,139,140,138,137,138,138,139,137,140,140,137,139,139,139,137,137,140,137,140,200,200,200,200,200,200,200,200,200,200,200,200,200,200,200,200,
200,216,216,216,216,216,216,216,216,216,216,200,200,200,200,200,200,200,200,138,140,138,137,139,140,138,140,138,139,139,137,137,138,137,140,137,140,140,139,140,140,140,139,137,139,140,200,200,200,216,216,216,216,216,216,216,216,216,216,216,216,216,216,200,
200,12,10,9,11,10,10,10,9,10,11,216,216,216,216,216,216,216,200,200,140,137,140,140,139,137,137,139,138,139,140,138,137,137,137,139,137,138,138,137,140,137,139,137,200,200,200,216,216,11,11,9,10,12,12,10,12,10,12,12,12,12,10,200,
200,11,9,10,12,9,9,9,10,11,11,12,9,9,9,12,12,10,216,200,200,140,137,137,137,139,138,140,138,140,137,138,140,139,139,140,139,138,137,140,139,140,200,200,216,216,216,12,10,10,10,10,12,9,9,12,10,9,10,11,12,11,9,200,
200,12,10,10,12,9,10,11,9,11,12,12,10,9,12,11,9,12,9,216,200,200,138,137,139,140,140,139,140,138,138,139,138,138,139,139,137,139,140,140,200,200,216,216,10,10,10,10,12,10,11,12,11,10,10,10,9,11,12,9,12,9,12,200,
200,10,12,11,12,12,11,10,12,11,10,9,9,11,10,9,9,12,9,9,216,200,138,137,139,140,139,139,139,140,140,139,137,139,140,140,138,140,140,200,200,216,9,12,9,12,9,10,10,10,11,12,12,12,11,10,12,9,11,10,11,11,10,200,
200,11,10,12,12,12,12,9,11,11,11,12,11,10,12,11,12,11,12,9,11,200,200,139,137,140,137,138,138,139,140,138,137,139,138,139,140,137,200,200,216,9,12,12,10,10,10,9,11,11,11,10,10,10,10,9,9,9,10,11,9,12,10,200,
200,10,9,10,10,9,9,10,10,12,11,10,10,11,10,12,10,10,12,12,11,216,200,138,139,137,139,139,137,139,137,138,140,138,139,139,137,137,200,216,9,10,10,10,12,11,10,10,12,12,12,9,9,9,10,12,9,12,11,9,11,12,11,200,
200,12,12,10,9,9,12,11,10,12,10,9,10,12,9,12,10,12,10,11,12,12,200,137,137,138,140,137,138,140,137,137,138,137,139,139,140,200,216,9,11,10,9,9,10,12,12,12,9,9,11,10,11,9,12,10,11,10,9,11,12,9,9,200,
200,9,10,9,11,11,10,11,11,11,10,11,9,10,12,10,12,11,9,10,10,9,200,200,138,139,137,137,137,138,140,140,139,137,140,139,200,200,9,11,10,11,10,10,10,12,10,10,9,10,11,9,11,12,11,10,11,200,200,200,200,200,200,200,
200,200,200,9,11,11,10,10,11,11,11,9,10,12,9,9,11,9,9,10,10,11,216,200,139,137,139,137,137,138,137,140,137,137,139,200,200,216,12,11,11,11,10,10,12,11,11,11,11,9,9,12,11,10,10,11,200,200,216,216,216,216,216,216,
216,216,200,200,200,200,200,9,9,9,12,9,12,9,10,12,11,9,9,12,9,9,9,200,200,139,138,140,138,138,140,138,137,140,137,200,216,11,10,12,10,11,10,11,9,9,10,9,12,12,10,10,12,10,9,12,200,216,137,138,137,138,140,138,
138,137,216,216,216,216,200,200,200,11,12,12,10,10,12,9,12,11,9,11,12,10,9,216,200,200,200,138,139,137,140,138,137,137,200,200,11,10,9,11,12,11,9,12,9,9,9,12,12,10,10,10,12,11,11,10,200,138,139,139,139,140,139,140,
137,138,140,138,140,140,216,216,200,200,200,200,11,9,9,10,11,9,9,10,10,11,12,11,216,216,200,200,139,140,137,138,140,200,200,216,12,12,9,11,11,12,11,12,11,11,10,12,11,12,12,12,9,9,12,10,200,137,137,137,137,138,139,137,
140,137,137,139,140,137,139,137,216,216,216,200,200,9,9,11,9,11,11,11,12,11,12,12,11,10,216,200,200,140,9,9,200,200,216,11,9,12,10,12,11,10,12,12,12,10,10,12,10,11,9,9,11,12,12,11,200,138,140,138,140,139,138,139,
138,138,138,138,137,140,140,137,138,140,139,216,200,200,200,12,10,9,12,12,9,10,10,12,11,11,11,216,200,200,9,9,200,216,11,12,9,12,11,11,10,9,9,12,11,11,12,11,11,12,9,10,11,11,12,12,200,140,138,138,137,140,138,139,
138,139,139,139,138,138,138,139,140,140,137,137,139,216,200,200,200,12,11,9,12,12,9,9,11,10,11,12,216,200,200,200,200,11,9,9,12,10,9,12,9,9,10,12,12,12,12,11,10,10,10,12,11,200,200,200,200,139,139,137,140,137,137,140,
137,137,139,137,137,139,138,138,139,140,139,139,137,139,216,216,200,200,10,10,9,11,9,9,12,9,9,12,9,216,216,216,216,9,10,10,11,12,12,12,9,9,10,12,10,9,9,9,11,12,11,12,200,200,216,216,216,137,140,139,140,140,139,137,
137,137,139,137,140,139,139,137,137,140,140,139,137,140,138,140,216,200,200,10,9,12,12,10,12,10,10,11,12,10,9,9,11,9,10,11,11,12,9,9,10,9,10,11,11,10,11,12,12,9,10,200,200,216,139,139,140,140,139,139,140,140,137,138,
140,139,138,138,139,138,139,140,137,138,140,138,138,140,139,139,140,216,200,200,10,11,12,11,11,11,9,9,12,10,9,10,9,9,12,9,11,10,12,12,12,9,9,10,10,10,11,11,10,9,200,216,216,140,138,140,137,140,140,140,140,140,137,140,
140,139,137,137,139,140,140,138,140,137,139,138,140,139,137,138,138,140,216,200,200,9,9,10,9,10,12,11,9,11,11,9,10,11,9,11,11,9,10,10,11,12,11,11,200,200,200,200,200,200,216,138,139,137,140,139,138,138,137,140,140,138,139,137,
137,139,140,138,139,140,140,138,138,139,140,138,139,137,137,140,140,137,139,216,200,200,11,9,9,12,11,9,11,11,138,140,10,9,9,12,12,9,10,10,12,200,200,200,216,216,216,216,216,216,138,140,138,139,140,140,137,137,140,139,140,140,139,138,
138,138,138,137,139,139,137,137,139,139,137,138,139,140,139,139,140,139,139,137,216,200,12,11,11,10,9,9,11,138,137,139,139,12,12,11,10,10,12,10,200,200,216,216,137,140,140,140,138,137,140,137,138,137,137,140,137,140,140,139,140,139,140,137,
140,137,140,139,140,139,138,138,137,137,137,138,137,140,138,138,137,137,138,138,137,216,200,12,12,9,9,11,138,137,9,12,137,138,12,12,12,12,10,200,200,216,10,10,140,140,140,137,140,137,137,139,139,138,139,138,140,139,137,137,140,139,137,137,
137,137,139,137,140,139,138,137,138,137,137,140,138,139,138,137,138,140,137,10,10,11,200,200,11,12,9,10,139,137,9,10,138,140,9,12,11,10,9,200,216,11,9,9,138,137,138,139,140,140,138,138,138,139,139,138,140,137,140,140,138,139,139,137,
139,137,140,138,139,137,138,138,137,139,138,140,137,140,139,138,137,137,138,9,10,9,216,200,10,9,12,10,9,140,140,137,137,11,9,9,9,11,200,200,9,9,9,10,140,137,137,139,137,138,139,140,137,138,137,137,138,139,137,137,140,137,140,138,
137,137,139,140,137,139,139,138,138,137,139,139,139,139,139,140,139,140,137,9,11,12,11,200,200,9,11,10,12,11,139,140,11,12,12,10,11,12,200,216,11,10,12,10,138,137,137,138,138,138,138,138,140,139,139,140,137,138,137,138,139,140,137,139,
139,137,137,140,137,139,138,139,139,138,137,140,9,9,139,138,139,140,139,12,10,10,10,216,200,11,9,11,10,12,138,138,11,11,12,12,11,10,200,11,10,10,11,12,11,12,139,139,140,140,139,138,140,138,137,139,139,137,138,139,139,138,137,140,
139,138,137,137,139,138,137,137,137,138,139,140,9,9,139,138,139,139,138,12,9,11,12,10,216,200,10,11,11,11,138,140,12,12,9,11,12,11,200,9,10,10,12,12,11,12,140,137,9,9,137,138,137,140,138,137,137,139,137,140,137,137,138,139,
140,139,139,138,139,138,140,139,140,138,137,140,138,139,137,137,139,138,12,11,10,10,10,10,9,200,10,9,11,12,140,140,10,11,10,10,10,9,200,10,10,11,12,11,12,137,137,137,9,9,139,137,140,137,140,140,138,138,140,137,139,137,139,138,
140,138,137,140,140,137,140,138,138,137,139,138,139,139,139,139,138,139,137,12,10,10,10,10,12,200,12,12,9,9,138,140,12,11,12,9,12,10,200,10,10,12,12,11,12,139,138,139,140,138,139,137,139,140,137,140,138,140,139,138,139,139,138,139,
138,139,138,139,139,139,140,139,138,139,137,139,138,138,139,137,139,137,137,140,11,11,10,12,10,200,11,9,12,10,137,137,12,12,12,10,11,11,200,12,10,12,11,12,140,139,137,138,139,137,138,139,139,137,140,140,138,139,137,140,138,139,137,139,
139,137,139,139,140,139,140,138,137,139,137,139,140,138,138,137,138,140,137,138,12,12,11,12,9,200,9,12,12,9,138,139,10,10,12,9,11,11,200,10,10,10,10,139,137,138,139,139,138,139,138,139,138,138,137,137,140,137,139,137,138,138,140,140,
139,139,140,140,137,139,137,139,140,139,139,137,140,138,140,139,139,137,138,138,139,9,11,11,12,200,10,12,12,139,140,139,137,10,10,11,12,10,200,9,10,10,10,139,139,139,139,139,139,137,138,137,140,137,139,137,140,138,140,140,138,140,139,138,
137,138,139,139,140,137,139,138,137,139,140,139,138,137,139,137,137,9,9,138,140,11,11,11,11,200,12,10,10,137,9,9,138,10,9,9,12,9,200,11,10,10,10,140,139,137,138,138,137,138,138,137,138,140,139,137,138,138,138,138,138,140,138,137,
139,139,137,139,137,137,138,138,139,139,137,140,137,138,139,138,139,9,9,140,139,10,11,12,9,200,11,10,9,139,9,9,138,140,9,10,12,9,200,9,10,10,10,137,140,138,137,140,140,138,138,140,140,137,137,138,138,137,139,140,138,138,140,138,
138,137,140,139,137,137,137,137,138,138,138,137,139,137,140,139,137,138,138,138,137,12,9,9,12,200,9,9,9,140,137,138,138,139,9,11,10,12,200,10,10,10,10,140,138,138,138,139,139,137,138,140,140,137,138,138,140,137,138,138,138,138,137,139,
140,140,140,139,137,140,138,140,139,137,137,138,140,139,140,138,139,137,139,137,138,12,10,11,12,200,9,11,10,137,138,139,137,140,12,10,10,12,200,10,10,10,10,139,139,9,9,137,138,140,138,140,140,140,137,138,137,140,137,140,139,138,138,139,
140,138,140,137,138,138,139,138,139,139,138,140,137,139,137,138,138,138,140,137,138,9,11,10,9,200,11,11,11,140,138,137,138,139,10,11,12,12,200,11,10,10,10,139,138,9,9,139,138,139,138,140,137,140,139,139,137,139,140,137,140,139,139,138,
140,140,140,140,138,138,137,137,140,138,138,137,138,138,137,140,139,137,138,137,140,12,9,9,10,200,11,11,9,137,138,140,139,140,11,12,11,9,200,12,10,10,10,138,138,139,140,140,137,138,140,139,137,138,140,137,139,140,140,137,139,137,139,140,
138,137,137,140,138,138,137,140,139,138,139,139,139,137,139,137,140,139,139,138,137,9,9,9,12,200,10,12,11,139,140,137,138,138,9,11,10,12,200,11,10,10,10,138,139,139,137,139,139,139,139,140,137,137,138,140,140,138,137,139,137,137,140,139,
137,139,137,140,138,137,140,139,138,139,140,137,137,140,140,137,140,139,140,138,140,11,12,10,11,200,10,9,9,137,138,140,138,138,11,12,12,9,200,9,10,10,10,137,138,138,138,140,137,138,137,138,139,138,139,138,140,138,139,140,138,140,140,137,
140,140,138,138,137,137,137,138,140,138,138,137,139,137,137,138,140,139,137,138,137,12,10,12,11,200,11,12,11,139,9,9,137,11,10,9,9,10,200,12,10,10,10,138,139,140,137,137,139,140,140,138,140,138,139,139,138,137,137,140,137,139,137,137,
140,137,138,138,139,138,139,139,137,138,139,137,137,137,138,140,138,137,139,137,137,10,12,12,12,200,12,11,9,139,9,9,137,12,9,9,12,9,200,12,11,10,12,137,140,140,138,140,140,138,137,140,137,139,140,137,137,138,137,137,137,140,138,137,
138,139,138,140,140,139,138,140,137,138,138,140,137,138,140,140,140,139,140,139,140,10,11,11,9,200,10,11,10,137,140,140,139,9,11,11,12,9,200,12,11,10,12,137,139,138,140,139,140,137,138,138,137,140,137,138,137,138,138,137,139,138,140,137,
200,200,200,200,200,200,200,200,200,200,200,200,200,200,200,200,200,200,200,200,200,12,11,10,12,200,10,9,11,10,140,137,12,10,12,10,12,9,200,12,11,10,12,139,137,139,140,140,138,140,138,137,139,137,138,138,139,137,137,137,138,140,139,139,
219,219,219,219,219,219,219,219,219,219,219,219,219,219,219,219,219,219,219,219,200,12,11,10,12,200,9,9,9,12,9,137,12,11,9,10,12,12,200,12,11,10,12,139,138,140,139,138,139,138,139,140,138,137,138,138,139,137,140,137,137,138,139,137,
139,140,138,137,137,139,140,138,137,139,139,139,138,138,137,140,139,139,140,138,200,12,11,10,12,200,11,11,11,11,12,139,10,12,11,12,12,12,200,12,11,10,12,138,138,140,137,140,138,137,140,139,139,140,137,139,140,138,138,137,140,138,140,139,
138,138,139,137,137,139,139,138,137,138,139,138,138,138,137,140,12,10,137,140,200,12,11,10,12,200,11,11,10,11,11,137,12,11,11,11,10,12,200,12,11,10,12,140,139,138,138,139,139,138,139,137,139,140,139,139,139,140,139,139,140,138,139,140,
139,138,140,137,139,138,138,138,138,139,138,139,140,138,139,137,12,9,138,137,200,12,11,10,12,200,11,12,9,9,10,139,10,10,12,12,11,10,200,12,11,10,12,138,137,140,138,139,138,140,138,139,137,137,140,140,137,140,139,139,140,138,138,139,
139,137,139,139,137,137,137,139,139,140,137,137,140,138,140,140,138,138,138,140,200,12,11,10,12,200,10,12,11,10,12,140,11,9,10,10,9,11,200,12,11,10,12,138,137,137,139,140,137,140,138,140,138,137,138,140,139,139,137,138,137,138,138,139,
140,139,138,137,139,138,137,139,139,139,140,140,137,137,140,137,137,139,139,137,200,12,11,10,12,200,200,200,10,12,10,138,12,12,12,11,200,200,200,12,11,10,12,137,139,139,140,138,138,140,139,138,139,139,137,138,138,140,138,137,140,140,137,139,
138,139,140,138,139,138,140,138,137,140,137,138,139,137,139,137,140,138,139,137,200,12,11,10,12,216,216,200,200,10,10,137,11,10,10,200,200,216,216,12,11,10,12,139,140,137,140,140,140,140,140,140,139,140,140,139,137,138,138,140,138,138,139,138,
139,139,138,138,140,140,140,137,137,137,139,139,138,138,139,140,139,139,138,137,200,12,11,10,12,10,10,200,200,9,9,137,9,11,10,200,200,10,10,12,11,10,12,139,138,138,137,12,12,137,139,137,140,139,138,140,137,137,137,138,137,140,137,137,
138,140,137,138,140,137,138,138,140,139,137,140,140,139,139,140,137,139,139,140,200,12,11,10,12,10,10,216,200,12,11,137,10,9,200,216,216,10,10,12,11,10,12,138,138,140,138,12,11,140,138,139,140,137,140,139,138,140,140,137,137,138,140,139,
140,139,140,139,138,137,139,138,140,137,137,138,139,138,137,140,139,139,138,140,200,12,11,10,12,10,10,10,200,11,11,12,12,10,200,10,10,10,9,12,11,10,12,139,140,139,137,138,138,138,140,137,137,138,137,139,139,138,140,137,138,137,140,140,
138,139,139,138,139,140,139,138,137,140,139,137,139,137,138,137,139,140,139,137,200,12,11,10,12,10,10,10,200,10,12,10,11,10,200,10,10,10,11,10,9,12,11,140,137,138,140,138,139,140,140,137,139,137,138,138,138,138,140,140,137,138,137,137,
138,137,10,12,10,11,9,137,140,139,138,138,140,138,139,140,139,138,140,140,200,12,11,10,12,9,12,9,200,200,12,11,10,200,200,11,10,12,10,9,12,10,9,137,140,138,137,140,137,140,140,138,138,140,137,140,139,138,138,137,139,137,138,138,
10,9,9,9,12,11,10,11,10,137,138,140,139,138,137,140,138,138,137,140,200,140,137,12,10,11,12,12,216,200,11,9,10,200,216,11,11,10,9,2147483658,2147483660,2147483785,2147483788,139,139,140,138,140,137,140,139,140,137,137,140,139,139,140,140,140,140,138,139,140,
10,11,11,10,10,11,9,10,10,12,139,137,138,137,137,137,139,138,137,138,200,138,140,12,11,12,9,12,9,200,195,195,195,200,11,12,10,11,10,2147483659,2147483660,2147483788,2147483786,137,140,140,139,137,137,138,137,139,138,140,137,137,139,139,137,140,140,137,140,137,
9,10,12,12,10,11,11,11,12,12,153,139,138,138,137,138,139,137,140,137,200,140,140,9,12,9,11,11,10,216,216,216,216,216,11,11,9,9,12,2147483660,2147483657,2147483788,2147483788,138,140,139,138,140,139,138,139,137,139,139,140,140,139,140,140,137,138,138,139,138,
12,9,11,10,10,10,12,12,10,11,154,140,137,140,138,139,140,140,140,138,200,137,138,138,139,10,11,10,10,10,11,12,12,11,12,9,12,11,9,2147483787,2147483786,2147483786,2147483785,138,137,137,138,138,138,139,139,139,140,138,140,137,137,137,138,138,138,140,139,137,
11,10,12,10,11,12,11,12,10,11,10,139,137,137,139,140,137,140,138,140,200,138,137,140,140,11,10,11,12,10,10,11,11,10,9,10,9,11,10,2147483788,2147483788,2147483785,2147483786,138,139,137,138,138,137,138,137,137,138,137,138,139,139,139,140,140,139,137,138,137,
12,9,11,12,12,9,10,10,9,9,139,140,137,138,139,139,139,137,137,137,200,137,137,137,140,10,11,10,12,12,9,12,10,9,12,11,11,11,10,2147483788,2147483785,2147483785,2147483785,138,138,137,138,138,137,137,137,140,139,137,138,139,138,138,137,140,139,139,140,140
</data>
 </layer>
 <objectgroup id="2" name="Units/Buildings">
  <object id="416" template="../../buildings/P_City_Hall.tx" name="Central" x="480" y="944">
   <properties>
    <property name="ARMOR" type="int" value="0"/>
    <property name="CUSTOM" type="bool" value="true"/>
    <property name="MAX_HEALTH" type="int" value="2000"/>
    <property name="MUST_SURVIVE" type="bool" value="true"/>
   </properties>
  </object>
  <object id="417" template="../../buildings/P_City_Hall.tx" x="0" y="1024"/>
  <object id="419" template="../../units/P_Worker.tx" x="64" y="944"/>
  <object id="421" template="../../units/P_Worker.tx" x="96" y="992"/>
  <object id="426" template="../../units/P_Worker.tx" x="496" y="992"/>
  <object id="457" template="../../buildings/P_Blacksmith.tx" x="0" y="960"/>
  <object id="525" template="../../buildings/P_Farm.tx" x="192" y="464"/>
  <object id="526" template="../../buildings/P_Farm.tx" x="272" y="576"/>
  <object id="527" template="../../buildings/P_Farm.tx" x="480" y="576"/>
  <object id="528" template="../../buildings/P_Farm.tx" x="480" y="704"/>
  <object id="531" template="../../buildings/P_Farm.tx" x="720" y="624"/>
  <object id="532" template="../../buildings/P_Farm.tx" x="768" y="480"/>
  <object id="535" template="../../buildings/P_Farm.tx" x="480" y="256"/>
  <object id="536" template="../../buildings/P_Farm.tx" x="480" y="400"/>
  <object id="537" template="../../units/C_Knight.tx" x="48" y="48"/>
  <object id="538" template="../../units/C_Knight.tx" x="80" y="48"/>
  <object id="539" template="../../units/C_Knight.tx" x="112" y="48"/>
  <object id="540" template="../../units/C_Knight.tx" x="144" y="48"/>
  <object id="541" template="../../units/C_Knight.tx" x="848" y="48"/>
  <object id="542" template="../../units/C_Knight.tx" x="880" y="48"/>
  <object id="543" template="../../units/C_Knight.tx" x="928" y="48"/>
  <object id="544" template="../../units/C_Knight.tx" x="960" y="48"/>
  <object id="547" template="../../units/C_Knight.tx" x="32" y="64"/>
  <object id="548" template="../../units/C_Knight.tx" x="64" y="64"/>
  <object id="549" template="../../units/C_Knight.tx" x="96" y="64"/>
  <object id="550" template="../../units/C_Knight.tx" x="128" y="64"/>
  <object id="551" template="../../units/C_Knight.tx" x="864" y="80"/>
  <object id="552" template="../../units/C_Knight.tx" x="896" y="80"/>
  <object id="553" template="../../units/C_Knight.tx" x="944" y="80"/>
  <object id="554" template="../../units/C_Knight.tx" x="976" y="80"/>
  <object id="557" template="../../units/C_Knight.tx" x="32" y="112"/>
  <object id="558" template="../../units/C_Knight.tx" x="64" y="112"/>
  <object id="559" template="../../units/C_Knight.tx" x="96" y="112"/>
  <object id="560" template="../../units/C_Knight.tx" x="128" y="112"/>
  <object id="561" template="../../units/C_Knight.tx" x="848" y="96"/>
  <object id="562" template="../../units/C_Knight.tx" x="880" y="96"/>
  <object id="563" template="../../units/C_Knight.tx" x="928" y="96"/>
  <object id="564" template="../../units/C_Knight.tx" x="960" y="96"/>
  <object id="567" template="../../units/C_Knight.tx" x="32" y="80"/>
  <object id="568" template="../../units/C_Knight.tx" x="64" y="80"/>
  <object id="569" template="../../units/C_Knight.tx" x="96" y="80"/>
  <object id="570" template="../../units/C_Knight.tx" x="128" y="80"/>
  <object id="571" template="../../units/C_Knight.tx" x="864" y="64"/>
  <object id="572" template="../../units/C_Knight.tx" x="896" y="64"/>
  <object id="573" template="../../units/C_Knight.tx" x="944" y="64"/>
  <object id="574" template="../../units/C_Knight.tx" x="976" y="64"/>
  <object id="577" template="../../units/C_Knight.tx" x="48" y="96"/>
  <object id="578" template="../../units/C_Knight.tx" x="80" y="96"/>
  <object id="579" template="../../units/C_Knight.tx" x="112" y="96"/>
  <object id="580" template="../../units/C_Knight.tx" x="144" y="96"/>
  <object id="582" template="../../units/C_Knight.tx" x="32" y="128"/>
  <object id="583" template="../../units/C_Knight.tx" x="64" y="128"/>
  <object id="584" template="../../units/C_Knight.tx" x="96" y="128"/>
  <object id="585" template="../../units/C_Knight.tx" x="128" y="128"/>
  <object id="586" template="../../units/C_Knight.tx" x="848" y="112"/>
  <object id="587" template="../../units/C_Knight.tx" x="880" y="112"/>
  <object id="588" template="../../units/C_Knight.tx" x="928" y="112"/>
  <object id="589" template="../../units/C_Knight.tx" x="960" y="112"/>
  <object id="592" template="../../units/C_Knight.tx" x="48" y="144"/>
  <object id="593" template="../../units/C_Knight.tx" x="80" y="144"/>
  <object id="594" template="../../units/C_Knight.tx" x="112" y="144"/>
  <object id="595" template="../../units/C_Knight.tx" x="144" y="144"/>
  <object id="596" template="../../units/C_Knight.tx" x="832" y="128"/>
  <object id="597" template="../../units/C_Knight.tx" x="864" y="128"/>
  <object id="598" template="../../units/C_Knight.tx" x="912" y="128"/>
  <object id="599" template="../../units/C_Knight.tx" x="944" y="128"/>
  <object id="602" template="../../units/C_Knight.tx" x="48" y="160"/>
  <object id="603" template="../../units/C_Knight.tx" x="80" y="160"/>
  <object id="604" template="../../units/C_Knight.tx" x="112" y="160"/>
  <object id="605" template="../../units/C_Knight.tx" x="144" y="160"/>
  <object id="606" template="../../units/C_Knight.tx" x="832" y="144"/>
  <object id="607" template="../../units/C_Knight.tx" x="864" y="144"/>
  <object id="608" template="../../units/C_Knight.tx" x="912" y="144"/>
  <object id="609" template="../../units/C_Knight.tx" x="944" y="144"/>
  <object id="611" template="../../units/C_Knight.tx" x="176" y="96"/>
  <object id="612" template="../../units/C_Knight.tx" x="176" y="144"/>
  <object id="613" template="../../units/C_Knight.tx" x="208" y="64"/>
  <object id="614" template="../../units/C_Knight.tx" x="240" y="80"/>
  <object id="615" template="../../units/C_Knight.tx" x="256" y="80"/>
  <object id="616" template="../../units/C_Knight.tx" x="752" y="96"/>
  <object id="617" template="../../units/C_Knight.tx" x="768" y="80"/>
  <object id="618" template="../../units/C_Knight.tx" x="784" y="64"/>
  <object id="619" template="../../units/C_Knight.tx" x="800" y="80"/>
  <object id="620" template="../../units/C_Knight.tx" x="816" y="64"/>
  <object id="621" template="../../units/C_Knight.tx" x="176" y="64"/>
  <object id="622" template="../../units/C_Knight.tx" x="160" y="112"/>
  <object id="623" template="../../units/C_Knight.tx" x="176" y="160"/>
  <object id="624" template="../../units/C_Knight.tx" x="208" y="80"/>
  <object id="625" template="../../units/C_Knight.tx" x="240" y="96"/>
  <object id="626" template="../../units/C_Knight.tx" x="736" y="112"/>
  <object id="627" template="../../units/C_Knight.tx" x="752" y="128"/>
  <object id="628" template="../../units/C_Knight.tx" x="768" y="112"/>
  <object id="629" template="../../units/C_Knight.tx" x="784" y="96"/>
  <object id="630" template="../../units/C_Knight.tx" x="800" y="112"/>
  <object id="631" template="../../units/C_Knight.tx" x="160" y="128"/>
  <object id="633" template="../../units/C_Knight.tx" x="208" y="96"/>
  <object id="634" template="../../units/C_Knight.tx" x="240" y="112"/>
  <object id="635" template="../../units/C_Knight.tx" x="288" y="112"/>
  <object id="638" template="../../units/C_Knight.tx" x="736" y="144"/>
  <object id="639" template="../../units/C_Knight.tx" x="752" y="160"/>
  <object id="640" template="../../units/C_Knight.tx" x="768" y="144"/>
  <object id="642" template="../../units/C_Knight.tx" x="208" y="112"/>
  <object id="643" template="../../units/C_Knight.tx" x="240" y="128"/>
  <object id="644" template="../../units/C_Knight.tx" x="288" y="128"/>
  <object id="645" template="../../units/C_Knight.tx" x="304" y="128"/>
  <object id="646" template="../../units/P_Worker.tx" x="96" y="1008"/>
  <object id="647" template="../../buildings/P_Farm.tx" x="256" y="800"/>
  <object id="648" template="../../buildings/P_Farm.tx" x="752" y="880"/>
  <object id="649" template="../../units/C_Knight.tx" x="208" y="160"/>
  <object id="651" template="../../units/C_Knight.tx" x="304" y="144"/>
  <object id="652" template="../../units/C_Knight.tx" x="800" y="144"/>
  <object id="653" template="../../units/C_Knight.tx" x="736" y="192"/>
  <object id="654" template="../../units/C_Knight.tx" x="208" y="192"/>
  <object id="655" template="../../units/C_Knight.tx" x="256" y="176"/>
  <object id="656" template="../../units/C_Knight.tx" x="240" y="208"/>
 </objectgroup>
</map>
