<?xml version="1.0" encoding="UTF-8"?>
<map version="1.10" tiledversion="1.12.1" orientation="orthogonal" renderorder="right-down" width="64" height="64" tilewidth="16" tileheight="16" infinite="0" nextlayerid="5" nextobjectid="232">
 <editorsettings>
  <export target="../../../../assets/map/advent/adv1.fgm" format="Future Glimpses map (*.fgm)"/>
 </editorsettings>
 <properties>
  <property name="AI_MODE" type="int" propertytype="AI_MODE" value="0"/>
  <property name="ENABLE_BARRACKS" type="bool" value="false"/>
  <property name="ENABLE_BLACKSMITH" type="bool" value="false"/>
  <property name="ENABLE_FARM" type="bool" value="false"/>
  <property name="ENABLE_STABLES" type="bool" value="false"/>
  <property name="ENABLE_TOWER" type="bool" value="false"/>
  <property name="ENABLE_TURRET" type="bool" value="false"/>
  <property name="ENABLE_UPGRADE_ARCHER" type="bool" value="false"/>
  <property name="ENABLE_UPGRADE_KNIGHT" type="bool" value="false"/>
  <property name="ENABLE_UPGRADE_MAGE" type="bool" value="false"/>
  <property name="ENABLE_UPGRADE_SOLDIER" type="bool" value="false"/>
  <property name="MAP_CODE" value=""/>
  <property name="MSG_DESCRIPTION" value="Lleva a Karl a través del laberinto y elimina todas las amenazas. Karl debe sobrevivir."/>
  <property name="MSG_LOSE" value="Karl ha muerto. Ahora el imperio será derrotado..."/>
  <property name="MSG_TITLE" value="1.Héroe"/>
  <property name="MSG_WIN" value="¡Ganaste! El imperio continuará su conquista."/>
  <property name="PEACE_TIME" type="int" value="0"/>
  <property name="RES_GOLD_COMPUTER" type="int" value="0"/>
  <property name="RES_GOLD_PLAYER" type="int" value="0"/>
  <property name="RES_WOOD_COMPUTER" type="int" value="0"/>
  <property name="RES_WOOD_PLAYER" type="int" value="0"/>
  <property name="UPGRADED_ARCHER_COMPUTER" type="bool" value="false"/>
  <property name="UPGRADED_ARCHER_PLAYER" type="bool" value="true"/>
  <property name="UPGRADED_KNIGHT_COMPUTER" type="bool" value="false"/>
  <property name="UPGRADED_KNIGHT_PLAYER" type="bool" value="false"/>
  <property name="UPGRADED_MAGE_COMPUTER" type="bool" value="false"/>
  <property name="UPGRADED_MAGE_PLAYER" type="bool" value="false"/>
  <property name="UPGRADED_SOLDIER_COMPUTER" type="bool" value="false"/>
  <property name="UPGRADED_SOLDIER_PLAYER" type="bool" value="false"/>
  <property name="WIN_CODE" value="LY4LFC4F"/>
 </properties>
 <tileset firstgid="1" source="../../tileset.tsx"/>
 <tileset firstgid="257" source="../../units/units.tsx"/>
 <tileset firstgid="267" source="../../buildings/big_buildings.tsx"/>
 <tileset firstgid="273" source="../../buildings/small_buildings.tsx"/>
 <layer id="1" name="Map" width="64" height="64">
  <data encoding="csv">
132,132,131,132,131,132,132,132,130,131,132,131,129,130,132,130,131,131,132,132,131,131,130,132,130,130,131,129,132,129,129,132,129,129,130,129,132,130,130,132,131,132,131,129,132,132,131,129,132,129,132,132,130,130,132,129,130,129,131,130,131,131,130,131,
131,130,130,129,66,65,66,66,129,131,130,132,132,130,132,132,129,132,129,131,132,132,130,132,131,131,131,129,131,130,130,131,129,132,130,130,131,129,129,129,131,132,130,131,132,132,131,129,130,131,129,132,66,65,65,65,130,132,132,131,130,129,132,131,
129,132,129,67,66,65,66,66,67,132,130,132,132,129,132,130,129,132,129,130,132,130,130,130,131,132,131,132,129,130,131,131,132,131,131,132,132,131,132,132,130,129,129,132,130,131,131,132,129,130,132,132,66,66,65,65,132,130,129,132,129,132,130,132,
130,130,129,65,67,66,66,67,65,131,131,132,129,130,132,132,131,131,129,129,130,130,132,130,129,130,129,132,132,130,129,130,129,130,131,130,132,129,132,131,131,131,129,129,130,131,130,129,129,130,131,131,66,65,65,65,129,129,130,129,131,129,129,129,
132,132,129,129,66,65,67,67,131,130,130,130,132,129,130,131,132,131,129,132,131,130,130,130,130,129,132,129,130,129,132,130,130,132,132,129,131,132,131,131,132,131,130,130,132,130,131,130,132,131,129,130,66,65,65,65,129,131,131,132,132,131,132,130,
132,129,131,130,66,66,66,131,130,130,129,132,132,132,131,131,132,132,132,129,132,129,129,131,131,132,129,131,131,129,132,129,129,130,130,132,129,131,130,132,129,132,131,130,131,130,130,130,129,130,132,132,65,67,67,66,129,132,132,131,130,131,129,131,
130,130,130,130,66,66,65,129,130,129,132,132,130,129,131,131,130,131,129,129,131,132,131,131,131,129,129,130,132,132,131,131,131,130,130,131,132,130,132,132,130,132,130,131,129,131,129,130,132,129,130,65,66,66,67,67,65,129,129,132,132,132,129,132,
129,130,129,132,65,66,65,131,129,132,132,132,131,130,130,130,131,66,66,67,67,65,65,67,65,65,67,65,66,66,66,65,66,66,65,67,67,66,132,131,131,130,131,129,130,132,132,132,129,130,66,66,65,66,66,65,67,67,131,131,129,131,131,131,
131,132,132,129,66,65,66,131,131,131,131,67,65,66,66,66,66,65,66,67,66,67,66,66,67,65,66,65,65,66,66,66,65,65,67,67,65,65,65,66,67,66,66,66,129,129,131,132,129,66,67,65,67,65,67,66,67,67,67,131,67,66,132,130,
132,130,132,132,65,65,66,66,67,66,67,65,66,65,65,66,67,65,65,66,66,65,66,67,65,67,66,67,66,65,67,66,66,67,65,66,66,67,67,67,65,65,66,66,67,67,67,66,65,65,65,67,66,65,65,65,66,67,66,65,67,65,65,131,
132,130,129,131,65,65,65,67,67,67,66,67,67,67,66,65,65,65,65,65,65,67,65,67,65,65,65,65,66,65,65,66,67,65,65,66,67,66,65,67,67,65,67,65,67,66,65,66,65,67,65,66,66,67,65,67,66,65,67,65,67,65,66,132,
130,129,132,129,66,65,66,65,67,66,67,66,67,66,67,66,65,66,67,65,66,66,65,66,67,65,66,65,67,67,67,67,65,67,65,67,67,65,66,66,65,66,67,67,67,67,65,66,65,67,66,67,66,67,65,66,66,65,65,67,66,67,66,130,
131,130,129,129,66,65,65,131,130,130,130,66,66,67,65,65,66,65,66,66,67,66,66,65,67,65,67,65,65,65,66,66,67,66,67,67,67,65,65,65,65,67,65,65,132,131,132,131,131,65,67,67,67,65,67,65,67,65,65,131,65,67,129,131,
132,130,130,132,65,66,67,132,130,132,130,132,129,132,131,129,130,65,67,66,66,65,66,65,65,66,65,65,67,66,65,67,67,67,66,67,66,67,131,129,131,130,132,132,131,132,129,132,131,130,66,66,65,66,66,67,67,66,129,132,131,131,130,131,
132,131,131,66,65,66,65,65,129,130,132,132,131,132,129,132,129,130,130,129,132,130,130,131,130,131,131,130,130,130,132,130,129,130,129,130,131,131,131,132,129,131,129,131,130,131,131,132,129,131,131,67,65,66,67,65,67,132,132,130,132,129,131,130,
131,132,129,66,66,66,65,66,130,131,129,132,130,130,129,131,131,132,129,132,132,129,131,132,132,131,129,130,132,130,129,132,130,129,131,130,129,129,130,129,130,130,129,131,130,129,131,129,130,130,131,131,65,65,67,67,129,131,129,132,130,130,129,131,
129,131,130,132,67,65,67,129,131,129,129,132,130,65,66,65,67,65,67,65,131,129,129,131,131,130,129,129,132,132,129,131,132,66,67,67,132,132,131,130,129,129,129,130,132,129,131,130,130,132,131,131,66,65,65,65,132,131,129,132,131,131,131,132,
131,132,132,129,129,132,131,130,130,130,65,66,66,66,66,66,66,66,66,66,65,66,65,129,129,130,132,129,131,130,130,130,65,66,66,66,65,129,131,130,130,130,130,130,132,132,132,129,129,131,131,132,66,65,65,66,129,129,131,131,132,129,130,129,
132,129,130,132,132,129,130,131,131,66,67,66,65,66,66,65,65,67,66,65,65,66,66,66,131,132,131,130,130,131,130,66,65,66,67,67,66,66,132,130,129,132,130,131,131,131,130,130,130,130,130,129,66,65,66,65,130,130,132,131,130,129,130,130,
131,129,132,131,131,132,129,129,130,67,67,65,67,67,65,65,65,65,65,67,66,65,67,67,130,131,130,130,132,129,131,131,65,67,65,65,66,129,130,131,130,132,132,132,130,132,129,130,129,129,130,129,66,66,65,66,129,131,131,131,132,130,129,129,
130,131,130,132,132,132,130,129,129,129,66,67,67,65,66,65,66,67,65,66,67,67,67,131,132,132,131,129,129,132,131,132,66,65,65,65,132,131,132,130,130,132,131,131,129,129,129,130,130,132,131,130,66,66,65,65,130,130,130,129,132,132,129,129,
130,132,131,129,130,132,131,132,130,132,132,130,132,65,66,66,65,66,66,65,130,130,129,129,130,130,130,129,131,129,129,129,66,66,65,66,131,129,132,129,132,130,131,132,132,130,129,129,132,131,129,130,66,65,66,65,129,130,129,129,129,132,129,129,
132,130,132,132,131,130,129,131,129,132,131,132,129,131,132,131,129,129,132,132,132,130,130,129,129,132,130,130,132,131,131,131,65,66,65,65,132,131,129,131,131,131,131,130,132,129,131,129,132,131,130,130,65,65,65,65,130,132,129,132,130,129,132,132,
129,130,129,65,65,65,66,131,130,129,130,131,132,131,132,132,132,131,129,129,130,131,129,131,131,132,130,131,132,130,131,65,66,66,65,67,65,130,131,132,130,132,131,132,129,131,129,129,131,129,132,130,65,66,66,65,131,131,130,132,129,67,132,131,
130,132,67,65,65,65,65,65,132,129,130,129,132,130,130,129,132,130,130,131,131,129,130,129,131,132,129,131,130,131,65,66,67,67,67,65,67,67,129,130,130,131,131,131,129,129,130,132,129,132,130,131,66,65,65,66,130,129,131,129,131,65,130,131,
131,131,66,66,66,66,67,67,129,131,130,131,131,129,131,129,132,129,130,131,129,132,67,65,130,132,132,129,129,66,66,67,67,67,66,66,65,66,66,129,129,130,130,129,132,132,129,131,130,132,129,130,65,65,65,66,131,130,132,132,65,67,67,131,
130,132,130,65,67,66,65,130,132,132,130,131,129,129,131,130,129,129,129,131,129,65,67,66,67,65,66,66,66,65,67,65,65,67,65,66,67,65,67,66,65,65,65,65,66,65,65,66,65,65,66,65,65,66,66,65,66,66,65,65,65,66,67,129,
131,132,129,66,66,66,65,132,131,132,131,131,131,129,132,130,132,132,132,131,66,65,65,66,67,65,65,65,65,67,66,66,65,66,66,67,66,67,66,66,66,66,66,65,65,66,66,65,66,65,65,66,65,66,66,65,65,66,66,66,65,67,65,130,
131,132,131,66,66,65,65,132,129,131,129,131,129,132,130,129,129,129,130,131,67,66,65,67,66,66,65,66,66,67,67,67,65,67,65,65,67,65,66,65,66,66,66,66,66,66,66,66,65,65,66,65,66,65,66,65,65,65,65,66,66,66,66,132,
130,130,129,65,67,65,66,131,131,131,129,132,131,131,129,132,130,131,129,132,129,66,67,66,66,66,66,65,66,65,65,67,66,67,66,67,67,65,67,66,65,66,65,65,66,66,66,65,66,65,65,65,66,65,65,65,66,66,65,66,67,66,67,129,
130,129,131,66,67,65,66,131,131,131,132,132,131,131,129,129,130,130,132,129,132,131,67,65,130,131,130,129,131,130,66,66,66,65,65,67,65,67,130,131,129,132,129,132,131,131,132,132,129,131,129,130,66,66,65,65,131,132,132,132,132,65,132,130,
130,130,129,65,66,66,67,132,131,129,129,130,130,130,129,130,130,132,132,131,129,129,131,132,129,131,132,130,132,131,132,67,65,67,65,65,66,129,130,132,130,130,129,132,131,132,131,131,129,131,129,130,66,66,66,66,129,131,129,131,130,65,132,132,
130,132,132,65,65,65,66,130,130,131,130,129,130,131,132,130,129,131,129,131,129,130,131,131,132,130,131,132,129,132,130,132,66,67,65,66,131,130,131,129,132,132,129,132,131,131,129,129,130,130,129,130,65,65,65,65,129,131,131,131,130,132,130,131,
129,132,129,67,67,65,66,130,131,131,130,132,131,132,129,132,132,129,131,130,132,130,131,129,130,131,130,130,131,131,132,129,66,65,66,65,132,131,131,129,131,130,132,130,131,130,132,130,129,129,131,132,66,66,66,66,130,132,131,129,131,130,132,129,
130,130,66,67,65,66,65,67,132,131,130,130,131,131,130,131,129,129,130,132,129,65,65,66,66,130,129,129,130,130,129,130,65,66,66,66,130,131,129,132,131,131,129,131,130,129,129,132,129,131,130,130,66,66,66,66,129,130,132,132,130,129,131,129,
129,129,67,65,65,65,65,66,132,131,132,130,132,130,130,129,130,129,132,129,67,65,65,67,67,67,129,132,131,131,131,131,66,65,66,66,129,132,129,131,129,130,132,129,131,130,132,130,129,131,129,132,66,66,66,66,129,130,131,130,131,132,131,129,
130,131,67,67,67,66,66,66,131,131,131,131,131,132,131,131,130,130,131,132,130,67,67,67,66,132,129,130,131,129,129,129,65,65,66,66,131,132,131,132,132,129,130,131,130,132,130,131,132,131,132,132,65,65,66,66,130,132,129,129,130,129,132,132,
129,132,67,67,66,65,65,66,132,129,132,129,129,132,132,131,129,130,129,132,131,66,65,65,65,129,131,130,132,132,129,131,65,65,66,66,131,130,129,131,131,129,132,131,129,130,131,130,129,129,129,131,65,66,65,66,131,131,129,130,132,129,131,132,
130,131,65,66,67,66,65,65,132,129,132,132,129,132,129,132,129,131,131,131,130,65,65,65,66,130,132,130,132,131,131,130,65,65,65,66,129,129,132,129,131,131,130,129,130,130,131,130,131,131,132,130,65,65,66,67,130,129,131,131,131,132,132,132,
131,130,66,65,66,65,65,67,132,132,132,131,132,130,130,130,132,130,130,131,132,66,65,65,65,132,131,132,132,132,131,132,65,65,65,65,132,132,129,132,129,129,129,130,131,132,130,129,132,132,130,66,67,65,67,66,67,130,131,131,129,132,130,131,
132,132,67,65,66,65,66,67,130,132,130,131,129,132,131,129,130,129,129,130,132,65,65,66,65,129,131,130,132,131,132,132,66,66,66,65,129,131,131,129,129,130,132,132,132,129,132,132,131,130,130,131,66,67,65,65,131,130,130,130,132,129,129,131,
129,132,65,67,67,66,67,65,129,130,132,132,132,129,130,131,132,131,129,131,129,65,67,67,66,130,129,129,130,132,130,132,65,66,66,65,131,132,129,132,130,132,132,129,131,130,130,129,130,130,130,131,130,131,129,132,131,132,130,130,130,132,132,131,
130,130,65,66,66,65,67,65,129,130,130,130,130,132,130,130,131,130,131,65,65,66,66,66,66,67,67,130,129,129,132,129,66,65,66,65,132,130,132,131,129,132,129,131,129,132,130,129,132,129,129,132,130,129,129,131,132,132,129,129,130,129,132,129,
132,131,67,66,66,67,66,65,132,132,131,132,130,131,130,132,130,130,67,67,67,67,66,67,65,65,65,67,65,66,65,66,65,65,65,66,65,65,66,66,66,65,65,66,66,66,66,66,65,65,66,65,66,65,65,65,66,66,132,132,131,132,131,129,
132,131,65,65,67,66,66,66,129,131,129,130,132,129,130,132,130,132,66,65,65,67,66,66,66,65,65,67,66,66,65,65,65,65,66,66,65,66,65,65,66,65,66,66,65,66,65,65,66,65,66,66,66,66,65,66,65,67,66,131,130,132,130,129,
132,130,66,66,66,66,66,67,131,129,129,132,129,131,130,131,132,132,67,67,67,67,67,65,66,67,67,66,65,66,66,65,66,66,66,66,65,65,65,65,65,65,66,65,66,65,65,66,65,66,66,66,65,66,65,66,67,67,129,130,132,132,130,131,
130,130,130,66,66,67,67,130,132,130,132,130,132,130,129,131,130,130,65,65,66,65,67,67,67,67,66,67,132,131,131,130,66,65,65,65,132,131,129,130,131,132,129,132,130,130,130,131,129,132,131,131,132,129,130,130,131,129,129,130,132,131,129,129,
132,130,132,66,65,67,67,132,130,131,131,132,129,129,129,130,132,129,130,66,66,65,66,67,65,65,66,130,131,132,132,132,66,66,65,65,130,131,132,129,130,129,130,132,130,130,129,132,130,132,130,132,131,129,131,130,130,131,129,131,129,132,131,131,
130,132,129,67,65,65,67,131,129,129,131,132,129,130,130,129,130,131,129,131,130,65,65,67,67,131,132,132,129,132,129,132,66,65,66,65,129,131,129,130,132,131,129,131,131,131,129,129,131,131,132,132,130,129,131,129,130,130,131,132,131,130,130,132,
130,131,131,66,65,65,65,131,130,131,132,130,130,129,132,129,130,130,132,132,129,65,65,66,66,130,130,132,130,130,129,130,67,65,67,66,129,131,130,131,130,132,130,131,130,129,132,132,132,130,132,129,131,130,131,131,131,129,132,129,130,129,130,130,
131,131,131,66,65,66,65,132,132,132,129,129,132,129,132,130,129,132,129,130,130,66,66,65,67,130,132,131,130,130,132,67,67,66,67,67,67,132,131,130,132,131,131,130,130,129,131,130,132,132,130,132,130,132,129,129,131,129,130,131,130,129,129,132,
131,131,129,65,65,66,65,67,130,132,131,129,131,130,129,131,131,132,130,129,130,66,66,65,65,65,130,130,131,131,131,66,65,66,67,66,65,130,129,132,129,132,132,130,129,131,130,131,130,131,131,132,132,130,130,129,132,130,130,131,131,131,131,132,
130,131,66,65,66,67,66,65,66,65,65,66,65,65,66,66,65,66,66,65,65,66,65,67,65,67,65,65,131,130,132,67,66,66,67,66,66,129,129,130,131,129,131,129,131,132,130,132,130,130,129,131,130,131,129,131,132,132,131,131,131,130,130,131,
132,66,67,67,66,65,65,67,66,65,65,65,66,66,65,66,66,66,65,65,65,65,65,66,67,66,66,67,129,131,129,130,67,65,67,67,132,132,130,129,130,129,130,130,130,129,131,132,132,132,131,132,130,129,131,129,129,129,130,129,131,132,131,130,
67,66,66,66,66,67,67,65,67,66,67,65,66,66,65,65,65,65,66,67,66,65,66,67,66,67,67,66,132,130,130,130,131,130,132,130,131,131,132,131,132,129,131,132,132,132,130,131,132,129,129,132,129,131,131,129,129,129,130,129,130,132,129,132,
67,66,67,65,67,65,67,67,67,65,67,66,65,66,65,65,66,65,66,67,67,65,67,67,65,67,67,66,129,130,130,129,131,131,131,130,131,131,129,130,131,131,131,131,129,132,131,129,131,132,132,129,132,130,132,129,132,131,132,130,129,129,132,131,
67,67,65,65,67,66,65,65,65,66,67,66,65,66,66,65,66,66,65,65,67,65,66,67,66,67,65,66,132,130,132,132,132,130,129,129,132,132,130,131,130,130,129,131,129,131,132,131,129,129,132,132,132,131,129,132,131,130,130,130,129,132,132,129,
130,65,65,66,66,65,67,67,66,65,65,65,66,66,65,66,65,66,66,67,66,65,67,67,67,66,66,67,130,132,131,131,132,131,131,130,129,129,131,131,129,129,129,129,129,130,129,129,130,129,130,129,132,132,131,130,129,130,131,130,131,131,130,132,
132,130,65,66,67,67,65,66,65,131,132,130,131,131,130,131,131,129,132,131,66,66,65,66,65,66,67,131,132,130,130,131,130,129,131,131,129,132,132,129,132,132,131,129,131,132,129,129,129,129,131,130,130,132,129,131,129,130,130,130,129,129,129,132,
129,129,131,67,65,65,66,65,131,131,131,132,129,130,129,132,130,131,131,131,129,65,65,66,67,67,129,129,130,132,132,132,132,129,130,130,131,132,132,130,131,131,131,129,129,129,132,130,129,131,129,129,131,130,131,131,130,131,129,131,129,130,129,129,
129,129,132,131,132,129,129,131,129,130,130,130,129,132,129,129,130,132,129,132,129,131,67,66,65,129,129,131,131,131,129,130,131,130,132,129,130,130,131,131,130,130,132,130,132,130,131,132,129,129,130,131,129,129,129,130,130,131,131,132,131,129,130,132,
132,132,131,130,129,131,132,129,132,129,129,131,132,129,131,130,132,129,129,132,129,130,132,132,131,130,132,129,130,131,132,132,132,132,132,131,129,131,130,130,130,130,131,132,129,130,129,131,131,132,131,131,131,129,129,129,132,129,131,129,132,131,131,132,
129,132,131,130,130,130,129,132,129,129,131,131,130,131,130,131,130,131,131,131,129,132,131,130,130,129,129,129,130,129,132,132,132,130,132,129,131,129,130,132,131,130,131,131,131,129,132,131,131,132,132,129,131,131,130,130,132,131,131,130,129,130,130,130,
129,131,130,129,129,130,130,131,132,129,129,132,132,130,131,129,130,130,129,132,131,129,129,129,130,131,130,129,131,129,131,129,132,132,132,130,130,129,130,131,132,132,129,130,129,129,130,129,132,130,129,132,132,132,132,129,129,131,131,131,132,129,130,132
</data>
 </layer>
 <objectgroup id="2" name="Units/Buildings">
  <object id="164" template="../../units/C_Soldier.tx" x="848" y="112"/>
  <object id="165" template="../../units/C_Soldier.tx" x="80" y="912"/>
  <object id="173" template="../../units/P_Soldier.tx" name="Karl" x="80" y="96">
   <properties>
    <property name="ARMOR" type="int" value="4"/>
    <property name="CUSTOM" type="bool" value="true"/>
    <property name="MAX_DAMAGE" type="int" value="20"/>
    <property name="MAX_HEALTH" type="int" value="250"/>
    <property name="MIN_DAMAGE" type="int" value="10"/>
    <property name="MUST_SURVIVE" type="bool" value="true"/>
    <property name="UNIT_TYPE" type="int" propertytype="UNIT_TYPE" value="1"/>
   </properties>
  </object>
  <object id="174" template="../../units/P_Archer.tx" x="64" y="64"/>
  <object id="175" template="../../units/P_Archer.tx" x="96" y="64"/>
  <object id="176" template="../../units/P_Archer.tx" x="64" y="48"/>
  <object id="177" template="../../units/P_Archer.tx" x="96" y="48"/>
  <object id="182" template="../../units/C_Soldier.tx" x="848" y="176"/>
  <object id="183" template="../../units/C_Soldier.tx" x="848" y="432"/>
  <object id="185" template="../../units/C_Soldier.tx" x="528" y="320"/>
  <object id="188" template="../../units/C_Soldier.tx" x="352" y="592"/>
  <object id="189" template="../../units/C_Soldier.tx" x="544" y="784"/>
  <object id="190" template="../../units/C_Soldier.tx" x="352" y="896"/>
  <object id="191" template="../../units/C_Soldier.tx" x="832" y="720"/>
  <object id="192" template="../../units/C_Archer.tx" x="528" y="784"/>
  <object id="193" template="../../units/C_Archer.tx" x="848" y="720"/>
  <object id="194" template="../../units/C_Archer.tx" x="864" y="448"/>
  <object id="195" template="../../units/C_Archer.tx" x="432" y="448"/>
  <object id="196" template="../../units/C_Archer.tx" x="848" y="528"/>
  <object id="199" template="../../units/C_Archer.tx" x="64" y="400"/>
  <object id="200" template="../../units/P_Soldier.tx" x="64" y="128"/>
  <object id="202" template="../../units/P_Soldier.tx" x="96" y="128"/>
  <object id="203" template="../../units/P_Soldier.tx" x="64" y="144"/>
  <object id="205" template="../../units/P_Soldier.tx" x="96" y="144"/>
  <object id="209" template="../../units/C_Archer.tx" x="96" y="416"/>
  <object id="210" template="../../units/C_Soldier.tx" x="560" y="464"/>
  <object id="211" template="../../units/C_Soldier.tx" x="544" y="352"/>
  <object id="213" template="../../units/C_Archer.tx" x="448" y="480"/>
  <object id="214" template="../../units/C_Soldier.tx" x="368" y="656"/>
  <object id="215" template="../../units/C_Soldier.tx" x="544" y="736"/>
  <object id="217" template="../../units/C_Soldier.tx" x="160" y="912"/>
  <object id="218" template="../../units/C_Soldier.tx" x="208" y="880"/>
  <object id="219" template="../../units/C_Archer.tx" x="160" y="864"/>
  <object id="220" template="../../units/C_Soldier.tx" x="368" y="928"/>
  <object id="221" template="../../units/C_Archer.tx" x="368" y="928"/>
  <object id="222" template="../../units/C_Soldier.tx" x="768" y="720"/>
  <object id="224" template="../../units/C_Soldier.tx" x="880" y="432"/>
  <object id="227" template="../../units/C_Archer.tx" x="880" y="528"/>
  <object id="228" template="../../units/C_Soldier.tx" x="880" y="128"/>
  <object id="230" template="../../units/C_Soldier.tx" x="848" y="144"/>
 </objectgroup>
</map>
