<?xml version="1.0" encoding="UTF-8"?>
<map version="1.10" tiledversion="1.12.1" orientation="orthogonal" renderorder="right-down" width="64" height="64" tilewidth="16" tileheight="16" infinite="0" nextlayerid="5" nextobjectid="274">
 <editorsettings>
  <export target="../../../../assets/map/advent/adv2.fgm" format="Future Glimpses map (*.fgm)"/>
 </editorsettings>
 <properties>
  <property name="AI_MODE" type="int" propertytype="AI_MODE" value="0"/>
  <property name="ENABLE_BARRACKS" type="bool" value="false"/>
  <property name="ENABLE_BLACKSMITH" type="bool" value="false"/>
  <property name="ENABLE_FARM" type="bool" value="false"/>
  <property name="ENABLE_STABLES" type="bool" value="false"/>
  <property name="ENABLE_TOWER" type="bool" value="false"/>
  <property name="ENABLE_TURRET" type="bool" value="false"/>
  <property name="ENABLE_UPGRADE_ARCHER" type="bool" value="false"/>
  <property name="ENABLE_UPGRADE_KNIGHT" type="bool" value="false"/>
  <property name="ENABLE_UPGRADE_MAGE" type="bool" value="false"/>
  <property name="ENABLE_UPGRADE_SOLDIER" type="bool" value="false"/>
  <property name="MSG_DESCRIPTION" value="Elimina al villano Lance en el centro de la mazmorra. Karl debe sobrevivir."/>
  <property name="MSG_LOSE" value="Has sido derrotado..."/>
  <property name="MSG_TITLE" value="2.Villano"/>
  <property name="MSG_WIN" value="¡Ganaste! El imperio continuará su conquista."/>
  <property name="PEACE_TIME" type="int" value="0"/>
  <property name="RES_GOLD_COMPUTER" type="int" value="0"/>
  <property name="RES_GOLD_PLAYER" type="int" value="0"/>
  <property name="RES_WOOD_COMPUTER" type="int" value="0"/>
  <property name="RES_WOOD_PLAYER" type="int" value="0"/>
  <property name="UPGRADED_ARCHER_COMPUTER" type="bool" value="false"/>
  <property name="UPGRADED_ARCHER_PLAYER" type="bool" value="true"/>
  <property name="UPGRADED_KNIGHT_COMPUTER" type="bool" value="false"/>
  <property name="UPGRADED_KNIGHT_PLAYER" type="bool" value="true"/>
  <property name="UPGRADED_MAGE_COMPUTER" type="bool" value="false"/>
  <property name="UPGRADED_MAGE_PLAYER" type="bool" value="true"/>
  <property name="UPGRADED_SOLDIER_COMPUTER" type="bool" value="false"/>
  <property name="UPGRADED_SOLDIER_PLAYER" type="bool" value="true"/>
 </properties>
 <tileset firstgid="1" source="../../tileset.tsx"/>
 <tileset firstgid="257" source="../../units/units.tsx"/>
 <tileset firstgid="267" source="../../buildings/big_buildings.tsx"/>
 <tileset firstgid="273" source="../../buildings/small_buildings.tsx"/>
 <layer id="1" name="Map" width="64" height="64">
  <data encoding="csv">
165,177,178,177,178,179,164,200,210,198,215,209,220,210,215,209,203,208,208,204,220,214,199,220,214,203,193,193,215,203,194,215,204,198,194,215,199,199,198,208,210,193,210,198,209,214,220,210,204,208,204,210,215,194,204,203,209,193,214,214,220,214,203,193,
165,177,177,180,179,180,164,200,193,220,203,214,193,214,198,209,210,209,209,204,210,210,220,199,208,203,203,215,220,193,204,194,194,194,204,204,203,193,210,220,203,214,215,199,194,204,214,198,209,210,215,209,204,203,214,198,209,203,199,214,203,194,194,214,
165,178,179,178,177,180,164,200,204,210,209,199,204,194,194,210,214,203,208,208,208,214,214,204,220,204,220,215,198,209,210,209,194,210,198,214,198,210,203,204,198,193,198,193,198,220,193,198,204,203,193,193,198,209,198,208,214,215,210,220,220,204,203,215,
165,177,179,179,179,180,164,200,214,203,209,210,198,209,204,199,220,220,203,204,193,199,203,220,193,220,220,214,198,204,209,204,214,209,203,198,209,194,208,215,193,220,193,194,203,203,210,215,209,210,204,199,215,209,208,214,203,199,203,214,214,208,203,214,
165,177,177,180,180,178,164,200,203,215,193,214,198,215,208,204,220,214,208,209,194,220,214,203,193,210,218,202,202,197,207,206,197,206,207,212,200,193,209,194,198,208,193,194,209,208,193,215,215,208,220,199,198,210,220,193,220,208,208,193,193,210,199,204,
165,178,179,179,179,177,164,200,198,194,199,204,193,198,215,215,208,208,198,214,194,220,210,203,199,203,219,169,171,4,3,3,3,3,2,2,217,193,214,199,220,220,194,220,214,220,214,215,208,198,193,220,210,209,194,208,193,194,220,199,204,193,198,209,
165,178,177,177,177,179,164,200,194,220,199,199,210,193,215,204,203,198,214,220,210,198,199,220,198,194,195,174,176,4,4,3,4,4,2,3,216,214,210,204,209,203,204,218,200,216,195,218,200,220,194,193,194,208,210,208,193,198,208,199,203,220,204,214,
165,177,179,178,180,179,164,200,204,214,210,210,194,204,215,198,210,214,208,198,194,204,214,220,214,209,219,3,4,2,4,1,4,1,2,3,196,212,206,212,196,212,206,197,3,1,4,3,195,216,216,204,193,210,215,203,210,194,204,208,220,220,203,203,
165,179,177,180,177,177,164,200,215,203,214,199,203,199,220,198,193,199,199,214,203,209,199,208,209,215,195,2,4,4,3,2,4,3,2,2,1,2,2,2,3,2,3,1,1,2,4,1,4,1,216,220,194,198,208,199,204,194,203,214,204,209,193,214,
165,179,178,177,179,179,164,200,203,203,209,204,194,203,220,199,204,215,199,220,215,220,198,193,220,204,216,3,4,2,2,1,3,3,2,3,2,4,2,1,3,4,1,1,4,169,171,4,2,3,219,199,198,214,220,209,198,210,193,209,214,208,209,209,
165,178,180,179,178,178,164,200,194,215,220,208,204,210,204,214,214,209,204,198,199,203,194,208,203,194,217,2,2,2,4,3,1,3,2,1,1,4,2,2,4,1,4,1,2,174,176,3,4,2,200,193,198,203,208,204,215,208,193,208,210,203,204,215,
165,180,177,180,177,178,164,200,204,199,193,203,220,215,194,198,203,208,193,220,199,215,203,203,210,209,217,4,3,4,3,1,3,3,1,2,219,217,195,219,218,200,219,217,1,4,1,4,219,217,217,220,204,208,193,215,210,215,215,198,214,210,210,203,
165,180,180,177,177,177,164,200,220,203,198,208,193,215,208,209,209,193,199,198,199,210,203,208,220,209,195,200,195,216,217,219,217,200,217,200,217,208,199,210,203,208,214,218,3,1,4,3,216,203,210,215,203,208,210,220,215,194,199,203,193,194,210,199,
165,178,179,178,177,177,164,200,194,215,208,198,209,209,209,209,198,194,208,214,199,220,210,198,220,210,194,210,203,199,203,209,208,199,203,220,210,194,208,194,220,209,214,219,4,1,2,1,195,203,198,208,208,193,199,209,208,193,220,208,210,214,203,199,
165,180,180,179,180,178,164,200,209,204,215,203,193,199,208,214,210,193,220,209,204,209,215,209,203,203,210,194,203,203,193,210,215,193,210,193,193,215,215,208,194,198,193,217,2,4,4,2,217,204,220,198,204,204,193,209,208,193,214,204,194,198,215,204,
165,179,177,178,178,177,164,200,204,203,199,193,198,215,220,210,208,215,210,198,220,209,199,214,214,194,198,208,215,215,204,214,214,193,210,193,209,203,198,209,209,203,194,218,1,2,4,3,195,208,194,199,208,204,220,220,203,198,198,208,194,204,220,199,
165,178,178,178,179,178,164,200,208,199,210,194,215,209,199,210,210,194,215,210,210,198,210,204,203,209,193,193,204,210,210,209,204,208,203,199,210,203,203,199,208,214,210,195,1,2,1,3,218,198,209,193,209,214,214,204,209,204,210,210,204,203,220,214,
165,180,178,177,177,177,164,200,210,203,193,214,210,210,198,208,208,193,208,214,203,208,198,210,208,203,215,204,198,208,208,210,194,204,209,220,194,194,209,198,203,220,193,218,3,4,2,4,218,204,204,193,204,208,199,199,209,220,214,209,193,220,193,209,
165,179,179,177,180,179,164,200,208,220,199,194,208,215,194,220,199,209,194,220,203,204,194,210,214,194,208,220,194,199,194,198,199,215,210,214,210,203,199,198,193,210,220,217,1,4,2,2,218,208,203,203,220,214,220,199,208,194,208,198,194,193,193,209,
165,179,179,180,179,179,164,200,215,198,194,204,199,209,210,194,208,214,204,220,194,220,194,214,209,204,194,203,210,214,203,215,209,209,194,214,214,215,194,193,209,193,193,200,1,1,3,3,195,199,199,215,203,210,199,215,199,199,209,193,193,193,198,220,
165,177,178,180,179,179,164,200,214,210,214,199,198,209,193,194,199,198,209,210,208,199,220,198,220,193,199,215,199,210,215,201,196,201,207,220,209,209,193,214,209,199,199,216,4,2,3,2,217,198,203,193,204,209,193,193,210,209,209,208,220,220,203,204,
165,179,180,177,179,179,164,200,199,204,199,208,215,209,220,209,199,220,199,208,199,203,220,204,193,203,203,203,200,207,206,4,3,1,1,197,201,201,202,206,202,201,196,212,3,3,4,2,202,207,213,219,208,193,194,215,209,193,199,199,199,199,193,214,
165,180,177,178,178,179,164,200,220,194,193,215,193,209,203,199,203,193,193,210,214,193,215,214,215,193,194,193,218,1,2,2,169,171,2,3,2,4,3,4,1,2,3,1,3,1,3,169,171,2,1,216,209,209,215,203,208,203,204,204,209,209,210,210,
165,177,180,179,177,179,164,200,214,203,210,214,199,214,215,204,208,215,193,208,203,209,215,214,198,208,194,194,219,3,3,3,174,176,4,1,1,1,4,4,2,2,3,2,1,2,4,174,176,3,4,216,198,204,198,204,198,220,215,193,215,220,203,194,
165,177,178,179,179,180,164,200,198,208,214,210,199,217,206,207,212,201,196,216,220,199,203,193,208,193,215,199,200,4,1,2,4,3,1,1,3,4,2,1,1,4,2,3,4,1,2,4,4,2,1,218,220,215,220,198,215,203,194,204,203,198,210,209,
165,179,179,179,178,179,164,200,210,209,193,194,203,218,3,1,3,3,4,216,209,198,193,204,209,210,209,220,218,219,217,4,2,3,4,216,195,195,216,218,195,216,218,195,4,2,2,3,216,216,195,195,209,210,203,214,199,203,210,208,210,194,193,203,
165,180,180,180,179,178,164,200,220,194,210,209,209,219,4,4,2,3,2,218,203,204,208,220,209,193,215,209,193,220,217,1,3,4,4,195,194,193,209,214,199,204,215,200,2,4,2,4,216,204,203,198,194,204,204,193,209,215,214,204,198,220,203,220,
165,177,177,177,178,179,164,200,220,209,220,198,193,219,2,1,3,3,3,218,193,194,209,198,220,199,220,203,204,199,217,3,1,3,3,200,198,215,203,203,220,210,204,217,219,218,195,218,200,208,193,210,203,217,196,213,212,206,212,195,208,203,203,210,
165,179,178,178,180,178,164,200,208,203,208,194,194,218,2,2,3,1,2,219,220,215,220,210,193,210,203,214,193,199,217,1,4,4,1,219,214,194,208,198,209,215,215,208,203,210,198,220,204,214,194,199,209,195,4,4,4,4,3,217,214,215,198,220,
165,180,180,178,180,179,164,200,193,208,215,215,198,195,4,169,171,2,3,218,199,208,215,215,209,193,195,213,212,213,212,4,3,2,4,197,213,197,196,202,212,207,201,202,196,196,202,197,213,207,212,207,206,197,3,3,3,2,3,201,202,196,200,208,
165,179,180,178,179,179,164,200,198,193,210,193,209,217,3,174,176,3,1,195,214,214,198,209,215,194,219,1,2,1,2,4,2,1,2,1,3,1,3,1,1,1,2,1,4,2,2,2,3,1,1,1,2,3,2,3,3,3,3,3,2,3,216,208,
165,177,179,177,178,177,164,200,214,220,208,193,214,217,97,98,99,100,1,219,199,208,210,215,198,193,195,4,4,1,169,171,2,4,2,1,3,3,4,169,171,2,3,4,2,3,3,4,4,2,4,1,2,3,2,4,3,4,169,171,1,3,216,203,
165,178,178,178,180,178,164,200,193,199,193,199,203,200,2,1,4,1,3,217,209,204,204,209,204,199,216,1,4,1,174,176,2,2,3,3,3,3,3,174,176,2,3,4,1,3,2,2,4,4,2,3,1,2,1,4,1,1,174,176,3,1,200,215,
165,178,179,180,178,177,164,200,199,209,214,215,214,219,2,1,1,1,2,216,198,204,203,214,199,220,200,2,2,4,4,1,3,4,4,1,4,3,1,2,3,2,3,4,2,3,1,2,1,3,4,1,2,1,3,2,1,3,4,1,1,4,200,198,
165,178,180,177,177,178,164,200,203,193,210,194,199,200,3,3,1,4,4,217,193,210,204,198,220,215,219,3,3,1,1,3,3,4,1,2,2,2,4,4,1,3,4,2,2,1,1,3,3,3,4,3,3,1,1,3,2,2,2,3,1,1,219,198,
174,175,175,175,175,175,176,200,203,194,204,199,215,200,1,2,1,2,1,200,220,194,208,203,215,220,216,217,219,195,200,3,2,2,3,200,216,216,216,216,217,200,216,216,219,216,218,219,219,218,216,219,195,217,1,2,3,1,1,195,195,218,216,199,
132,131,129,132,129,131,131,200,198,209,198,214,210,217,1,1,2,4,1,218,199,193,214,220,193,199,203,220,209,214,219,3,2,3,4,219,208,220,209,214,208,210,199,209,214,194,220,210,214,198,204,199,199,217,2,3,2,3,4,200,214,203,220,203,
129,130,129,130,129,129,131,202,197,196,201,202,197,202,3,1,4,4,2,202,207,202,197,218,215,210,215,199,214,194,200,2,3,4,2,218,203,193,193,193,204,199,194,210,193,193,215,220,193,193,204,220,208,200,3,1,1,2,3,216,215,209,194,215,
1,4,3,1,3,4,2,2,2,1,3,4,2,2,1,1,3,4,2,3,4,2,4,218,220,198,208,215,220,208,200,4,4,1,3,217,199,215,215,199,198,199,203,214,194,204,209,198,208,198,215,204,209,200,1,3,2,3,2,219,199,198,194,204,
3,2,4,3,1,3,2,4,2,3,3,4,3,1,3,3,4,1,4,4,169,171,4,219,209,204,210,210,193,194,216,216,216,216,195,200,220,215,214,210,195,212,207,212,201,206,218,193,220,198,220,193,193,219,2,1,4,1,4,219,210,203,198,198,
4,2,4,3,2,1,4,4,2,1,3,3,1,2,1,3,4,3,4,3,174,176,2,218,209,215,208,209,204,214,208,220,203,193,203,214,203,193,204,199,195,4,2,1,3,2,195,210,215,199,199,199,203,217,1,1,1,4,4,195,208,204,193,208,
2,3,1,2,4,2,2,2,4,1,1,4,3,3,1,4,2,2,4,4,3,2,1,195,204,198,194,193,214,204,194,199,199,209,204,194,194,204,193,220,216,2,3,2,3,3,195,198,208,204,210,209,210,200,3,4,2,2,4,200,210,209,210,208,
129,130,132,132,131,129,130,200,218,218,219,200,218,217,4,1,4,2,1,195,218,217,217,218,215,198,204,208,215,215,209,199,220,194,195,207,197,196,201,213,212,4,2,3,1,2,197,196,202,197,212,207,206,207,2,4,4,3,1,202,202,196,218,210,
169,170,170,170,170,170,171,200,209,208,199,214,204,216,4,1,3,4,2,217,204,208,204,193,198,214,208,210,199,215,209,193,193,215,216,2,4,169,171,3,1,4,1,3,1,4,2,3,4,3,4,2,3,1,1,4,1,3,2,4,2,2,219,220,
165,179,178,180,180,177,164,200,220,203,199,208,193,216,1,1,4,4,2,219,220,193,198,210,214,193,199,193,204,193,210,220,204,194,216,2,2,174,176,4,4,2,4,1,1,1,2,4,3,2,1,1,1,4,4,4,4,3,2,1,1,4,218,193,
165,180,177,177,179,178,164,200,199,203,203,210,210,216,1,4,4,3,3,216,194,194,199,214,203,203,194,210,214,208,203,199,203,198,218,3,4,3,4,4,1,2,2,3,1,1,1,3,4,2,4,1,4,1,4,3,4,1,2,1,4,2,217,203,
165,179,179,178,177,179,164,200,214,220,220,203,198,200,2,2,1,3,1,217,199,199,210,203,209,210,194,209,220,198,208,215,210,193,219,200,217,200,219,219,200,3,4,3,4,3,217,195,217,218,219,217,195,217,1,2,3,2,2,219,219,217,200,193,
165,178,177,178,179,178,164,200,210,199,204,208,209,218,2,4,3,1,1,217,220,208,210,199,209,199,210,215,208,199,214,199,215,214,214,203,194,220,208,204,216,4,2,3,4,2,217,220,208,204,215,193,204,195,3,2,2,3,4,216,209,203,194,203,
165,180,179,180,180,179,164,200,203,214,210,215,208,195,3,2,4,4,1,200,220,215,208,214,193,199,199,210,193,215,198,199,204,208,210,203,208,214,193,209,195,4,3,2,3,4,216,199,203,199,214,209,215,200,1,2,4,4,4,219,215,215,198,210,
165,179,177,179,179,179,164,200,204,198,198,210,208,216,1,2,1,1,3,200,193,215,208,194,199,209,208,210,199,220,214,198,194,193,198,214,214,199,209,193,200,4,3,4,2,4,200,198,198,209,204,210,204,219,4,2,4,3,3,218,220,220,198,204,
165,180,177,177,179,179,164,200,214,203,193,194,209,217,1,4,1,4,2,216,198,220,215,209,214,204,209,215,203,194,215,204,199,198,215,193,220,210,198,214,216,3,4,4,1,1,216,215,210,208,215,215,214,217,1,2,4,3,4,195,194,203,214,194,
165,178,180,180,178,179,164,200,208,204,210,220,208,195,1,4,1,4,2,216,209,220,198,199,203,214,194,209,209,203,198,203,194,210,204,208,194,220,220,215,216,2,3,4,1,4,216,209,199,220,209,215,204,219,1,1,4,2,3,200,215,215,203,210,
165,179,180,178,180,177,164,200,220,208,218,213,206,207,1,1,3,1,2,207,212,202,213,207,213,202,202,202,212,213,213,206,201,207,197,196,207,196,213,213,202,2,2,4,4,4,206,202,213,218,194,209,194,200,4,169,171,1,3,200,220,209,194,193,
165,180,178,180,179,180,164,200,193,220,219,2,2,3,1,2,4,3,4,4,3,1,4,2,4,3,3,3,1,1,2,1,4,2,3,2,1,4,3,3,3,4,1,3,2,4,3,1,3,217,208,203,193,219,3,174,176,1,1,195,204,220,209,203,
165,177,177,179,178,178,164,200,194,194,218,3,1,2,1,3,169,171,1,4,2,3,2,1,4,1,1,1,4,4,1,2,1,2,3,1,3,1,1,2,4,1,4,4,1,1,3,4,1,217,194,209,203,200,4,3,4,2,2,218,199,204,199,194,
165,180,180,179,179,177,164,200,208,220,195,1,2,4,1,4,174,176,1,4,2,3,3,1,4,2,1,3,2,1,3,2,1,3,3,2,2,2,1,3,4,4,3,2,4,1,3,2,3,218,203,204,194,216,1,3,2,4,1,219,208,193,203,208,
165,179,178,179,179,177,164,200,209,220,200,3,4,2,2,2,1,3,2,2,2,1,3,3,1,4,1,2,3,4,2,3,1,2,2,4,2,4,3,2,3,4,2,2,2,4,3,4,4,218,209,209,193,195,219,217,195,216,200,195,199,215,204,220,
165,179,179,177,178,178,164,200,204,220,195,2,3,3,2,2,2,1,1,2,1,2,1,4,2,1,2,4,1,2,2,2,1,2,2,4,4,2,2,2,3,3,4,4,1,3,1,4,4,195,194,209,214,198,198,193,209,215,215,203,210,220,210,199,
165,178,178,178,177,177,164,200,208,220,200,218,219,195,1,4,1,2,1,200,218,200,195,217,217,217,200,200,218,219,219,195,200,200,216,216,200,219,218,219,216,2,2,2,2,2,218,217,195,216,194,204,194,204,220,214,215,193,209,210,210,199,220,193,
165,179,178,179,177,177,164,200,209,210,208,198,193,200,3,1,4,3,4,218,215,210,214,194,203,214,208,210,203,198,215,209,208,220,209,215,215,204,220,220,219,3,1,4,2,4,195,209,193,210,214,193,194,203,198,198,204,198,215,204,210,194,193,199,
165,180,179,178,178,180,164,200,199,220,215,220,214,216,2,2,2,3,1,219,209,220,204,194,193,193,215,209,214,208,194,203,193,199,215,204,220,199,220,215,195,1,169,171,3,4,216,199,193,194,215,204,199,203,204,208,203,198,208,215,215,215,220,199,
165,180,177,178,179,178,164,200,208,208,198,198,210,218,217,219,200,218,200,200,194,215,203,204,208,203,204,208,210,210,198,203,215,214,193,214,194,214,199,199,217,1,174,176,1,4,216,203,193,193,210,198,203,204,214,214,199,209,194,220,194,210,204,198,
165,178,178,177,178,179,164,200,220,193,220,199,199,199,215,209,204,214,193,203,193,215,204,194,215,220,198,204,203,204,220,208,214,220,198,204,209,210,198,199,216,1,4,2,2,1,195,208,193,214,193,210,209,208,203,209,194,215,198,204,193,220,193,208,
174,175,175,175,175,175,176,200,203,220,194,193,199,220,214,220,198,194,204,215,193,194,198,198,210,204,208,210,210,199,209,198,203,193,215,203,194,215,204,220,216,216,200,217,216,219,216,203,215,198,208,208,198,208,193,220,204,193,210,194,214,204,199,220
</data>
 </layer>
 <objectgroup id="2" name="Units/Buildings">
  <object id="173" template="../../units/P_Soldier.tx" name="Karl" x="48" y="656">
   <properties>
    <property name="ARMOR" type="int" value="4"/>
    <property name="CUSTOM" type="bool" value="true"/>
    <property name="MAX_DAMAGE" type="int" value="20"/>
    <property name="MAX_HEALTH" type="int" value="250"/>
    <property name="MIN_DAMAGE" type="int" value="10"/>
    <property name="MUST_SURVIVE" type="bool" value="true"/>
    <property name="UNIT_TYPE" type="int" propertytype="UNIT_TYPE" value="1"/>
   </properties>
  </object>
  <object id="174" template="../../units/P_Archer.tx" x="32" y="640"/>
  <object id="175" template="../../units/P_Archer.tx" x="64" y="640"/>
  <object id="176" template="../../units/P_Archer.tx" x="32" y="624"/>
  <object id="177" template="../../units/P_Archer.tx" x="64" y="624"/>
  <object id="200" template="../../units/P_Soldier.tx" x="32" y="656"/>
  <object id="202" template="../../units/P_Soldier.tx" x="64" y="656"/>
  <object id="203" template="../../units/P_Soldier.tx" x="32" y="672"/>
  <object id="205" template="../../units/P_Soldier.tx" x="64" y="672"/>
  <object id="232" template="../../units/C_Knight.tx" name="Lance" x="448" y="128">
   <properties>
    <property name="ARMOR" type="int" value="5"/>
    <property name="CUSTOM" type="bool" value="true"/>
    <property name="MAX_DAMAGE" type="int" value="15"/>
    <property name="MAX_HEALTH" type="int" value="500"/>
    <property name="MIN_DAMAGE" type="int" value="8"/>
    <property name="MUST_SURVIVE" type="bool" value="true"/>
   </properties>
  </object>
  <object id="233" template="../../units/C_Archer.tx" x="224" y="496"/>
  <object id="234" template="../../units/C_Archer.tx" x="224" y="480"/>
  <object id="235" template="../../units/C_Archer.tx" x="224" y="608"/>
  <object id="236" template="../../units/C_Archer.tx" x="224" y="688"/>
  <object id="238" template="../../units/C_Soldier.tx" x="208" y="672"/>
  <object id="239" template="../../units/C_Soldier.tx" x="208" y="624"/>
  <object id="241" template="../../units/C_Mage.tx" x="560" y="736"/>
  <object id="242" template="../../units/C_Soldier.tx" x="224" y="848"/>
  <object id="243" template="../../units/C_Soldier.tx" x="288" y="848"/>
  <object id="244" template="../../units/C_Soldier.tx" x="640" y="864"/>
  <object id="245" template="../../units/C_Soldier.tx" x="640" y="928"/>
  <object id="246" template="../../units/C_Soldier.tx" x="864" y="736"/>
  <object id="247" template="../../units/C_Soldier.tx" x="864" y="688"/>
  <object id="248" template="../../units/C_Soldier.tx" x="848" y="512"/>
  <object id="249" template="../../units/C_Soldier.tx" x="544" y="544"/>
  <object id="250" template="../../units/C_Soldier.tx" x="560" y="496"/>
  <object id="251" template="../../units/C_Soldier.tx" x="720" y="368"/>
  <object id="252" template="../../units/C_Soldier.tx" x="544" y="112"/>
  <object id="253" template="../../units/C_Soldier.tx" x="544" y="128"/>
  <object id="254" template="../../units/C_Soldier.tx" x="544" y="160"/>
  <object id="255" template="../../units/C_Archer.tx" x="224" y="864"/>
  <object id="256" template="../../units/C_Archer.tx" x="288" y="864"/>
  <object id="257" template="../../units/C_Archer.tx" x="656" y="976"/>
  <object id="258" template="../../units/C_Archer.tx" x="656" y="816"/>
  <object id="259" template="../../units/C_Archer.tx" x="880" y="736"/>
  <object id="260" template="../../units/C_Archer.tx" x="880" y="688"/>
  <object id="261" template="../../units/C_Archer.tx" x="832" y="496"/>
  <object id="262" template="../../units/C_Archer.tx" x="528" y="496"/>
  <object id="263" template="../../units/C_Archer.tx" x="720" y="304"/>
  <object id="264" template="../../units/C_Archer.tx" x="528" y="96"/>
  <object id="265" template="../../units/C_Archer.tx" x="512" y="144"/>
  <object id="266" template="../../units/C_Archer.tx" x="928" y="880"/>
  <object id="267" template="../../units/P_Soldier.tx" x="48" y="672"/>
  <object id="268" template="../../units/P_Archer.tx" x="48" y="624"/>
  <object id="269" template="../../units/P_Archer.tx" x="48" y="640"/>
  <object id="270" template="../../units/P_Archer.tx" x="80" y="624"/>
  <object id="271" template="../../units/P_Archer.tx" x="80" y="640"/>
  <object id="272" template="../../units/P_Soldier.tx" x="80" y="656"/>
  <object id="273" template="../../units/P_Soldier.tx" x="80" y="672"/>
 </objectgroup>
</map>
