<?xml version="1.0" encoding="UTF-8"?>
<map version="1.10" tiledversion="1.12.1" orientation="orthogonal" renderorder="right-down" width="64" height="64" tilewidth="16" tileheight="16" infinite="0" nextlayerid="5" nextobjectid="310">
 <editorsettings>
  <export target="../../../../assets/map/advent/adv3.fgm" format="Future Glimpses map (*.fgm)"/>
 </editorsettings>
 <properties>
  <property name="AI_MODE" type="int" propertytype="AI_MODE" value="0"/>
  <property name="ENABLE_BARRACKS" type="bool" value="false"/>
  <property name="ENABLE_BLACKSMITH" type="bool" value="false"/>
  <property name="ENABLE_FARM" type="bool" value="false"/>
  <property name="ENABLE_STABLES" type="bool" value="false"/>
  <property name="ENABLE_TOWER" type="bool" value="false"/>
  <property name="ENABLE_TURRET" type="bool" value="false"/>
  <property name="ENABLE_UPGRADE_ARCHER" type="bool" value="false"/>
  <property name="ENABLE_UPGRADE_KNIGHT" type="bool" value="false"/>
  <property name="ENABLE_UPGRADE_MAGE" type="bool" value="false"/>
  <property name="ENABLE_UPGRADE_SOLDIER" type="bool" value="false"/>
  <property name="MAP_CODE" value="MEEKM6UR"/>
  <property name="MSG_DESCRIPTION" value="Saca a Roger del laberinto y elimina todas las amenazas. Dicen que hay un héroe enemigo. Roger debe sobrevivir."/>
  <property name="MSG_LOSE" value="Roger ha muerto. Ahora el imperio será derrotado..."/>
  <property name="MSG_TITLE" value="3.Misión"/>
  <property name="MSG_WIN" value="¡Ganaste! El imperio continuará su conquista."/>
  <property name="PEACE_TIME" type="int" value="0"/>
  <property name="RES_GOLD_COMPUTER" type="int" value="0"/>
  <property name="RES_GOLD_PLAYER" type="int" value="0"/>
  <property name="RES_WOOD_COMPUTER" type="int" value="0"/>
  <property name="RES_WOOD_PLAYER" type="int" value="0"/>
  <property name="UPGRADED_ARCHER_COMPUTER" type="bool" value="true"/>
  <property name="UPGRADED_ARCHER_PLAYER" type="bool" value="true"/>
  <property name="UPGRADED_KNIGHT_COMPUTER" type="bool" value="false"/>
  <property name="UPGRADED_KNIGHT_PLAYER" type="bool" value="true"/>
  <property name="UPGRADED_MAGE_COMPUTER" type="bool" value="false"/>
  <property name="UPGRADED_MAGE_PLAYER" type="bool" value="false"/>
  <property name="UPGRADED_SOLDIER_COMPUTER" type="bool" value="true"/>
  <property name="UPGRADED_SOLDIER_PLAYER" type="bool" value="false"/>
  <property name="WIN_CODE" value=""/>
 </properties>
 <tileset firstgid="1" source="../../tileset.tsx"/>
 <tileset firstgid="257" source="../../units/units.tsx"/>
 <tileset firstgid="267" source="../../buildings/big_buildings.tsx"/>
 <tileset firstgid="273" source="../../buildings/small_buildings.tsx"/>
 <layer id="1" name="Map" width="64" height="64">
  <data encoding="csv">
15,16,13,141,142,143,144,141,142,143,144,141,142,143,13,29,3,3,169,171,1,2,2,4,130,131,130,130,131,130,130,131,132,129,129,132,129,131,130,132,129,129,131,132,132,130,129,130,132,132,129,129,130,131,132,129,1,2,3,4,1,131,132,129,
15,16,13,14,15,143,144,141,142,143,144,141,15,16,13,14,29,3,174,176,3,3,4,129,131,131,131,132,132,132,129,132,132,132,129,129,130,130,129,129,132,131,130,132,129,132,131,129,131,130,131,129,130,131,132,129,1,2,3,4,1,131,132,129,
15,16,13,14,15,16,13,14,15,16,13,14,15,16,13,14,45,4,1,1,3,1,130,129,132,131,132,132,131,129,129,132,131,132,130,129,131,132,130,129,129,131,129,129,129,132,131,132,132,131,132,129,130,131,132,129,1,2,3,4,1,131,132,129,
15,16,13,14,15,16,13,14,15,16,13,14,15,16,13,14,15,29,1,3,3,1,130,129,131,132,132,131,129,132,132,129,131,130,129,129,132,132,130,131,132,131,132,131,132,131,131,132,131,132,132,129,130,131,132,129,1,2,3,4,1,131,132,129,
143,144,13,14,15,16,13,14,15,16,13,14,15,16,13,14,15,16,29,2,1,2,129,131,131,130,132,132,130,130,131,131,132,129,129,132,131,132,132,131,130,131,132,130,131,130,131,130,130,132,131,132,129,131,132,129,1,2,3,4,1,131,132,129,
143,144,141,14,15,16,13,14,15,16,13,14,15,16,13,14,15,16,45,2,2,3,130,129,130,130,132,129,132,129,129,130,129,130,129,131,131,131,132,130,132,129,130,132,129,129,130,130,129,129,130,129,132,131,130,129,1,2,3,4,1,131,132,129,
143,144,141,142,15,16,13,14,15,16,13,14,15,16,13,14,15,16,45,3,2,4,130,129,130,131,131,130,130,130,132,129,130,131,129,132,130,131,132,129,132,130,130,129,131,132,131,129,129,129,130,130,130,129,130,132,132,2,3,4,2,3,4,130,
143,144,141,142,15,16,13,14,15,16,13,14,15,16,13,14,15,16,45,1,1,2,3,132,132,131,131,130,130,129,132,129,131,131,131,131,130,132,131,130,131,130,132,130,129,131,129,130,129,129,130,132,132,132,130,130,132,3,3,3,3,3,4,130,
143,144,141,142,15,16,13,14,15,16,13,14,15,16,13,14,15,16,45,3,1,1,2,1,130,131,130,132,131,3,1,1,4,3,129,132,131,131,129,131,131,130,129,129,130,131,130,132,132,129,130,131,131,130,4,2,1,4,4,1,3,3,129,130,
143,144,141,142,15,16,13,14,15,16,13,14,15,16,13,14,15,16,45,1,1,4,2,4,2,132,130,130,3,3,3,1,1,3,1,4,1,4,1,3,4,3,4,1,1,4,3,3,3,3,131,132,131,131,4,2,1,3,1,1,1,1,129,130,
143,144,141,14,15,16,13,14,15,16,13,14,15,16,13,14,15,16,61,4,2,2,3,3,3,2,2,1,4,4,2,2,2,1,4,1,2,3,2,3,1,1,1,1,4,2,2,4,4,3,132,131,130,130,3,4,1,2,1,4,1,4,129,130,
143,144,13,14,15,16,13,14,15,16,13,14,15,16,13,14,15,45,3,4,2,2,4,2,4,4,3,3,1,4,2,169,170,170,170,170,170,170,170,170,170,170,170,170,170,170,171,2,1,131,131,131,130,130,132,1,4,3,1,1,3,1,129,130,
142,16,13,14,15,16,13,14,15,16,13,14,15,16,13,14,15,61,1,1,3,1,1,3,1,3,2,2,3,1,2,172,178,178,178,178,178,178,178,178,178,178,178,178,178,178,173,3,4,132,131,131,129,129,130,1,3,3,1,2,4,3,129,130,
15,16,13,14,15,16,13,14,15,16,13,14,15,16,13,14,61,4,3,4,2,1,3,2,3,2,3,1,2,1,1,165,179,179,179,179,179,179,179,179,179,179,179,179,179,179,173,1,3,132,131,132,130,131,132,4,4,1,2,3,1,1,129,130,
4,60,60,60,60,60,60,60,60,16,13,14,15,16,13,61,1,3,1,4,1,4,3,4,130,132,132,4,2,4,3,174,175,175,175,175,175,175,175,175,175,175,175,175,175,175,176,3,4,132,132,129,132,132,132,4,2,4,4,1,1,3,129,130,
1,4,1,4,3,4,2,1,2,59,60,14,15,16,61,4,4,1,4,1,3,1,4,129,130,130,132,132,1,1,4,4,1,3,1,3,3,2,1,2,2,4,4,3,1,1,2,3,4,130,131,129,130,129,129,2,1,4,2,4,1,1,129,130,
4,1,3,1,132,129,131,131,130,1,1,59,15,61,4,4,2,1,1,2,3,2,131,130,129,129,131,131,131,1,2,3,4,3,1,1,1,1,4,1,2,3,4,4,4,1,2,2,4,131,129,130,129,129,131,2,2,2,1,2,4,2,129,130,
4,2,131,132,132,129,129,132,132,132,131,1,3,2,4,4,2,3,1,3,169,171,131,129,131,129,129,130,131,4,2,3,3,3,4,4,4,1,3,2,2,2,4,1,2,4,4,2,3,132,132,130,129,131,130,4,3,3,1,3,2,1,129,130,
1,130,131,132,130,129,132,130,131,132,130,130,1,169,171,2,3,2,4,3,174,176,129,130,129,132,130,131,131,3,1,1,2,2,4,3,1,4,4,2,1,2,1,3,4,1,2,3,1,130,132,129,131,129,132,4,4,4,1,1,2,2,129,130,
132,129,131,132,132,132,130,130,130,132,132,131,130,174,176,131,132,129,130,130,132,131,131,131,130,130,129,132,130,2,3,1,3,1,4,1,1,2,2,1,3,2,1,4,3,4,2,4,1,132,132,129,129,129,130,3,4,2,3,4,1,4,129,130,
130,131,131,129,129,132,130,130,130,129,129,131,132,131,131,132,130,131,131,130,130,129,130,131,132,129,130,131,132,132,132,131,129,1,1,1,4,3,3,1,3,1,4,4,4,4,1,2,2,130,132,130,132,132,132,4,4,3,2,1,4,1,129,130,
131,130,132,129,132,129,129,132,131,129,129,132,130,130,132,132,132,130,132,131,129,129,129,130,129,130,130,130,132,129,129,132,130,130,2,1,2,169,170,170,170,170,171,2,2,3,4,3,1,131,129,130,131,130,132,2,2,4,4,2,3,3,129,130,
129,129,130,131,132,131,132,132,129,132,130,130,129,129,131,132,129,130,131,132,132,131,130,129,131,132,131,130,131,129,131,130,131,4,3,1,4,172,178,178,178,178,173,2,4,2,1,3,3,130,130,132,131,129,129,1,1,2,1,4,2,4,129,130,
2,129,131,132,130,129,131,130,132,130,130,132,3,4,132,132,132,129,131,131,132,131,130,130,130,130,130,130,129,3,4,4,1,2,3,3,1,165,179,179,179,179,173,1,1,4,1,1,4,129,129,131,132,129,132,1,4,2,4,1,3,1,129,130,
3,131,131,132,129,132,132,130,132,132,130,3,3,2,129,1,2,2,4,2,1,4,4,4,4,2,3,1,1,2,1,2,4,3,3,3,1,174,175,175,175,175,176,1,4,3,2,4,1,130,129,130,132,130,130,3,2,4,2,1,4,4,129,130,
2,131,129,131,132,132,130,132,129,3,1,2,1,1,129,1,4,2,4,4,1,3,3,1,2,3,1,1,4,4,2,1,1,3,4,3,2,1,3,3,4,4,2,1,1,3,3,2,2,130,131,129,131,130,129,2,1,3,3,3,3,2,129,130,
2,130,130,130,2,2,3,2,1,4,1,2,3,4,132,1,1,4,3,3,4,3,3,3,2,3,4,4,1,4,2,4,4,3,2,3,2,2,3,4,3,3,3,4,1,1,3,3,2,132,131,132,131,129,131,2,4,3,1,4,3,3,129,130,
4,131,130,129,1,2,1,1,1,2,1,1,1,129,131,129,3,1,3,2,2,1,4,3,3,1,2,1,3,3,2,4,4,4,1,3,2,4,2,3,4,1,2,4,4,4,1,2,2,131,132,131,130,129,129,3,1,4,1,4,3,4,129,130,
1,129,131,130,4,3,2,1,1,4,3,4,1,129,129,130,1,2,4,2,2,4,3,1,1,2,2,2,2,3,3,4,4,4,3,4,2,3,4,4,3,1,3,1,2,1,1,2,2,130,130,132,129,130,131,4,1,4,1,4,3,2,129,130,
1,129,132,131,1,2,3,2,3,2,1,2,1,132,131,131,1,4,4,3,1,4,1,3,2,2,3,1,1,1,3,3,2,2,3,3,3,1,3,1,1,1,1,4,3,4,3,3,1,132,130,131,130,129,131,1,4,3,4,1,2,4,129,130,
131,131,129,129,129,1,4,1,4,2,4,4,4,132,132,129,3,4,3,1,3,1,3,1,3,2,1,3,4,1,1,2,1,2,132,132,130,131,129,131,129,132,131,129,129,130,130,130,130,129,129,130,132,131,129,2,1,2,4,4,2,4,129,130,
130,130,131,132,129,1,3,1,3,1,2,4,4,132,130,129,1,1,1,2,3,2,4,3,3,1,1,1,3,3,130,132,131,129,129,131,129,129,129,130,131,131,132,130,132,131,129,131,130,132,130,129,129,130,130,1,4,3,3,2,2,2,129,130,
129,130,132,132,130,1,3,3,3,1,4,4,4,130,131,132,3,4,169,170,170,170,170,171,2,1,1,4,132,131,130,131,131,129,130,131,130,129,132,130,131,131,130,131,131,129,130,130,132,132,130,131,130,129,132,1,1,3,4,1,4,1,129,130,
129,132,132,130,130,4,3,1,3,4,2,3,3,132,129,130,4,2,172,178,178,178,178,173,1,3,1,132,131,131,129,131,129,130,129,132,131,129,130,129,131,131,132,130,130,130,129,129,129,130,129,129,131,130,131,132,1,2,2,1,2,3,4,130,
130,131,129,132,130,2,4,2,2,4,2,3,2,132,131,129,3,4,165,179,179,179,179,173,3,4,131,130,131,131,132,129,130,131,130,129,130,131,131,129,130,132,131,131,129,131,132,129,130,130,132,129,131,132,132,131,129,1,4,1,4,1,1,129,
132,132,132,130,131,2,4,3,1,2,2,3,2,130,131,129,4,4,174,175,175,175,175,176,2,4,2,129,130,132,129,132,130,129,129,130,132,132,130,130,131,132,129,129,130,129,132,129,130,131,131,132,132,132,130,130,3,2,1,1,3,1,4,129,
131,131,131,131,132,4,4,2,3,1,2,1,2,131,130,131,1,2,2,1,2,3,3,2,2,3,2,2,130,129,129,131,130,131,130,131,130,132,132,132,129,129,129,130,130,131,131,132,131,129,132,129,130,129,132,1,2,1,2,3,2,1,4,129,
130,129,132,129,129,4,3,3,4,4,2,2,3,131,130,132,3,3,4,1,1,4,2,1,3,4,1,2,4,4,130,131,132,129,132,132,129,131,130,130,130,131,129,131,130,131,130,132,130,132,132,129,131,130,3,1,3,3,3,3,4,2,3,129,
129,132,130,132,131,2,2,2,4,3,4,1,4,130,131,132,1,3,4,1,3,4,3,1,1,2,1,2,2,3,1,1,3,129,131,131,132,131,131,132,130,129,132,130,132,131,130,132,129,1,2,132,131,2,3,3,2,4,1,4,3,2,3,129,
132,131,130,132,132,3,2,2,1,4,3,4,2,129,129,129,1,2,1,1,4,1,4,4,3,1,2,2,2,1,2,4,4,131,129,129,130,132,132,129,1,3,3,4,2,3,1,4,3,3,3,131,132,3,2,1,3,2,1,2,2,3,1,130,
132,130,132,132,130,4,3,1,2,4,4,1,4,132,129,132,3,3,4,2,2,2,2,4,3,3,2,2,4,2,1,4,3,132,129,130,131,131,130,132,2,4,4,3,2,2,3,4,1,2,2,131,130,4,2,1,2,4,4,3,2,4,3,130,
131,129,132,129,131,1,2,3,3,3,3,1,2,131,130,130,2,2,3,4,3,4,129,130,130,130,3,4,2,2,2,3,129,130,130,131,129,131,132,132,131,1,3,2,3,4,4,1,2,2,1,2,4,1,2,2,3,1,4,1,2,4,129,130,
130,132,132,131,131,2,2,4,4,4,3,1,2,130,129,132,1,1,1,1,130,132,130,132,129,131,132,129,1,2,3,4,129,129,131,132,131,129,131,129,130,2,2,3,3,4,1,2,1,1,2,3,3,2,1,3,169,170,170,170,170,171,129,130,
131,129,131,132,131,4,4,1,4,1,1,1,3,130,132,132,2,1,4,131,129,131,131,130,129,132,131,129,131,2,1,3,129,130,131,131,131,131,130,132,132,4,2,3,2,1,3,2,4,1,2,4,4,3,3,2,172,178,178,178,178,173,129,130,
130,131,132,132,132,3,3,3,1,4,3,1,2,129,132,129,1,4,1,129,131,130,131,129,130,129,129,129,130,4,3,4,129,132,129,129,129,130,130,132,129,1,1,4,3,1,4,2,4,1,3,2,1,3,1,2,165,179,179,179,179,173,129,130,
132,130,132,130,132,1,1,4,4,3,3,3,3,131,131,129,3,4,1,131,131,130,130,130,129,130,129,132,129,4,1,3,129,129,132,130,130,131,131,130,131,1,4,2,2,1,3,132,131,130,1,3,2,1,1,1,174,175,175,175,175,176,129,130,
129,132,132,130,129,4,2,4,1,1,2,1,2,130,130,132,1,4,1,129,132,130,129,129,131,132,130,129,132,3,3,3,129,132,132,131,132,132,132,129,132,1,1,4,3,2,129,132,129,129,132,2,3,3,4,3,3,3,2,2,3,3,129,130,
129,131,130,131,130,4,1,4,4,4,1,4,4,129,131,130,1,1,3,1,129,131,131,131,129,131,132,131,4,1,4,2,131,129,129,129,130,131,130,129,130,4,1,4,4,1,132,131,132,130,129,4,2,4,1,4,3,3,1,1,1,1,3,130,
130,129,132,132,132,2,3,1,4,3,1,2,3,129,132,129,1,3,4,4,2,4,132,129,129,130,1,1,2,4,4,1,130,129,131,132,131,129,129,132,132,2,3,1,3,130,132,131,132,132,132,131,3,1,3,2,4,1,4,1,2,2,2,130,
129,130,132,131,130,2,3,4,2,2,2,3,3,132,130,131,1,2,1,1,4,2,4,4,4,2,2,2,2,2,2,1,131,131,130,129,131,129,132,129,131,2,2,3,3,129,130,132,132,129,132,130,2,3,4,3,2,4,1,2,2,2,3,129,
130,129,132,131,130,3,2,2,2,4,3,3,1,130,131,132,3,3,2,3,2,1,1,1,3,3,1,4,3,3,2,4,130,130,132,129,129,132,129,130,130,2,4,4,129,130,131,130,129,132,129,130,130,4,4,4,2,2,1,1,3,4,3,129,
131,132,131,131,132,1,1,4,1,1,4,3,2,131,129,129,1,3,4,1,3,1,2,3,2,2,4,1,1,4,2,1,3,131,131,131,130,131,129,131,4,4,2,2,131,132,129,129,131,130,131,130,131,1,4,2,3,3,4,2,4,4,1,129,
129,131,130,131,131,3,2,2,1,2,3,3,2,1,131,1,4,4,4,2,2,3,3,1,4,4,1,2,1,2,4,3,2,130,131,131,130,131,130,132,2,2,4,2,130,132,132,132,129,132,131,129,131,3,3,1,4,3,3,2,3,4,2,129,
132,130,129,132,132,2,2,2,4,1,4,2,4,1,129,4,4,3,4,3,2,1,2,1,1,4,3,3,4,2,1,2,3,130,129,129,130,130,131,130,3,4,2,4,129,130,132,130,129,131,131,129,129,3,1,4,3,4,3,2,1,4,2,129,
132,129,131,131,130,1,1,2,2,4,4,2,2,2,132,4,2,3,4,4,4,3,1,4,1,4,4,4,1,4,3,1,2,1,129,130,130,130,130,1,4,1,2,4,132,132,131,132,132,131,131,129,132,4,3,1,4,3,3,3,3,1,1,129,
132,130,131,132,129,1,1,3,1,1,4,1,3,4,129,3,2,1,1,3,4,169,170,170,170,170,171,2,4,2,4,1,3,4,130,130,132,130,130,1,1,4,2,2,132,132,129,132,130,129,129,131,129,2,4,4,4,2,2,3,2,1,4,129,
130,129,131,130,131,1,3,4,1,2,3,1,2,1,130,3,3,2,4,4,1,172,178,178,178,178,173,3,4,4,2,1,3,2,3,132,131,131,2,2,4,4,4,1,131,131,131,131,130,131,130,132,131,2,1,3,3,169,170,170,170,170,171,129,
132,132,132,132,132,3,3,1,4,3,2,2,4,2,132,2,3,3,2,4,4,165,179,179,179,179,173,2,3,4,3,1,1,1,1,3,1,4,2,4,1,4,1,2,132,131,132,132,131,131,131,132,130,1,3,4,3,172,178,178,178,178,173,129,
1,129,132,129,3,1,1,2,1,2,4,2,2,4,2,3,3,3,3,2,2,174,175,175,175,175,176,1,2,2,4,2,4,1,2,4,3,3,2,2,3,4,3,1,129,131,132,129,130,132,129,132,132,3,2,3,2,165,179,179,179,179,173,129,
3,130,129,131,2,3,4,1,2,4,2,3,1,2,2,1,1,1,1,4,3,1,4,3,3,3,3,3,2,2,4,2,4,3,2,3,1,1,2,4,3,3,1,1,4,130,132,132,130,131,131,132,1,4,1,1,4,174,175,175,175,175,176,129,
4,131,132,130,3,3,4,3,1,1,2,2,2,1,3,3,1,1,4,1,4,1,3,2,1,3,4,2,2,3,1,1,1,1,3,1,3,4,1,1,2,1,2,1,1,132,129,131,129,131,130,132,4,3,3,3,2,4,2,2,3,2,1,129,
3,130,132,131,3,2,4,3,2,1,3,1,1,4,1,4,4,3,2,1,3,130,132,129,130,129,131,130,131,129,129,132,131,130,131,129,129,129,129,129,131,132,129,130,132,131,129,130,132,131,129,131,132,130,129,4,4,2,1,1,2,3,3,129,
3,129,130,130,131,132,2,3,3,1,1,132,129,131,131,132,132,130,129,132,131,129,132,129,129,130,132,130,130,132,132,130,131,129,130,132,131,131,129,129,130,130,129,130,129,130,132,132,130,132,129,131,130,130,131,132,130,132,129,132,129,130,132,131,
1,131,129,130,131,132,129,132,130,130,130,131,131,130,131,131,131,129,132,132,129,132,129,130,131,129,132,131,129,129,129,132,130,131,132,129,132,129,132,129,130,129,130,132,130,129,129,130,130,129,130,130,132,131,132,129,129,132,131,130,132,132,132,132
</data>
 </layer>
 <objectgroup id="2" name="Units/Buildings">
  <object id="173" template="../../units/P_Knight.tx" name="Roger" x="80" y="96">
   <properties>
    <property name="ARMOR" type="int" value="8"/>
    <property name="CUSTOM" type="bool" value="true"/>
    <property name="MAX_DAMAGE" type="int" value="28"/>
    <property name="MAX_HEALTH" type="int" value="350"/>
    <property name="MIN_DAMAGE" type="int" value="15"/>
    <property name="MUST_SURVIVE" type="bool" value="true"/>
    <property name="UNIT_TYPE" type="int" propertytype="UNIT_TYPE" value="3"/>
   </properties>
  </object>
  <object id="174" template="../../units/P_Archer.tx" x="64" y="64"/>
  <object id="175" template="../../units/P_Archer.tx" x="96" y="64"/>
  <object id="176" template="../../units/P_Archer.tx" x="64" y="48"/>
  <object id="177" template="../../units/P_Archer.tx" x="96" y="48"/>
  <object id="232" template="../../units/P_Archer.tx" x="80" y="64"/>
  <object id="233" template="../../units/P_Archer.tx" x="80" y="48"/>
  <object id="234" template="../../units/P_Knight.tx" x="64" y="128"/>
  <object id="235" template="../../units/P_Knight.tx" x="80" y="128"/>
  <object id="236" template="../../units/P_Knight.tx" x="64" y="144"/>
  <object id="237" template="../../units/P_Knight.tx" x="80" y="144"/>
  <object id="238" template="../../units/P_Knight.tx" x="96" y="144"/>
  <object id="239" template="../../units/P_Knight.tx" x="112" y="144"/>
  <object id="240" template="../../units/P_Knight.tx" x="96" y="128"/>
  <object id="241" template="../../units/P_Knight.tx" x="112" y="128"/>
  <object id="242" template="../../units/P_Archer.tx" x="112" y="64"/>
  <object id="243" template="../../units/P_Archer.tx" x="112" y="48"/>
  <object id="245" template="../../units/C_Mage.tx" name="Frozone" x="912" y="192">
   <properties>
    <property name="ARMOR" type="int" value="2"/>
    <property name="CUSTOM" type="bool" value="true"/>
    <property name="MAX_DAMAGE" type="int" value="30"/>
    <property name="MAX_HEALTH" type="int" value="300"/>
    <property name="MIN_DAMAGE" type="int" value="20"/>
    <property name="MUST_SURVIVE" type="bool" value="true"/>
   </properties>
  </object>
  <object id="246" template="../../units/C_Soldier.tx" x="400" y="192"/>
  <object id="247" template="../../units/C_Soldier.tx" x="416" y="176"/>
  <object id="248" template="../../units/C_Soldier.tx" x="416" y="192"/>
  <object id="249" template="../../units/C_Soldier.tx" x="416" y="208"/>
  <object id="251" template="../../units/C_Soldier.tx" x="400" y="176"/>
  <object id="253" template="../../units/C_Soldier.tx" x="400" y="208"/>
  <object id="254" template="../../units/C_Archer.tx" x="448" y="176"/>
  <object id="255" template="../../units/C_Archer.tx" x="464" y="176"/>
  <object id="256" template="../../units/C_Archer.tx" x="464" y="192"/>
  <object id="257" template="../../units/C_Archer.tx" x="448" y="192"/>
  <object id="258" template="../../units/C_Archer.tx" x="448" y="208"/>
  <object id="261" template="../../units/C_Archer.tx" x="464" y="208"/>
  <object id="262" template="../../units/C_Soldier.tx" x="400" y="448"/>
  <object id="263" template="../../units/C_Soldier.tx" x="400" y="464"/>
  <object id="265" template="../../units/C_Soldier.tx" x="384" y="448"/>
  <object id="266" template="../../units/C_Soldier.tx" x="128" y="544"/>
  <object id="268" template="../../units/C_Soldier.tx" x="112" y="560"/>
  <object id="269" template="../../units/C_Soldier.tx" x="112" y="544"/>
  <object id="270" template="../../units/C_Soldier.tx" x="896" y="256"/>
  <object id="272" template="../../units/C_Soldier.tx" x="880" y="272"/>
  <object id="273" template="../../units/C_Soldier.tx" x="880" y="256"/>
  <object id="274" template="../../units/C_Soldier.tx" x="960" y="256"/>
  <object id="276" template="../../units/C_Soldier.tx" x="944" y="272"/>
  <object id="277" template="../../units/C_Soldier.tx" x="944" y="256"/>
  <object id="278" template="../../units/C_Soldier.tx" x="944" y="576"/>
  <object id="279" template="../../units/C_Soldier.tx" x="944" y="592"/>
  <object id="281" template="../../units/C_Soldier.tx" x="928" y="576"/>
  <object id="283" template="../../units/C_Soldier.tx" x="928" y="848"/>
  <object id="284" template="../../units/C_Soldier.tx" x="912" y="848"/>
  <object id="285" template="../../units/C_Soldier.tx" x="912" y="832"/>
  <object id="286" template="../../units/C_Soldier.tx" x="384" y="832"/>
  <object id="288" template="../../units/C_Soldier.tx" x="368" y="848"/>
  <object id="289" template="../../units/C_Soldier.tx" x="368" y="832"/>
  <object id="290" template="../../units/C_Archer.tx" x="528" y="432"/>
  <object id="291" template="../../units/C_Archer.tx" x="528" y="448"/>
  <object id="293" template="../../units/C_Archer.tx" x="544" y="432"/>
  <object id="294" template="../../units/C_Archer.tx" x="128" y="480"/>
  <object id="295" template="../../units/C_Archer.tx" x="128" y="496"/>
  <object id="297" template="../../units/C_Archer.tx" x="144" y="480"/>
  <object id="298" template="../../units/C_Archer.tx" x="448" y="944"/>
  <object id="299" template="../../units/C_Archer.tx" x="448" y="960"/>
  <object id="301" template="../../units/C_Archer.tx" x="464" y="944"/>
  <object id="302" template="../../units/C_Archer.tx" x="960" y="848"/>
  <object id="303" template="../../units/C_Archer.tx" x="960" y="864"/>
  <object id="305" template="../../units/C_Archer.tx" x="976" y="848"/>
  <object id="306" template="../../units/C_Archer.tx" x="928" y="176"/>
  <object id="307" template="../../units/C_Archer.tx" x="928" y="192"/>
  <object id="309" template="../../units/C_Archer.tx" x="944" y="176"/>
 </objectgroup>
</map>
